; Generated with MatterSlice 1.0
; filamentDiameter = 1.75
; extrusionWidth = 0.5
; firstLayerExtrusionWidth = 0.4
; layerThickness = 0.1
; firstLayerThickness = 0.3
; automatic settings before start_gcode
G21 ; set units to millimeters
M107 ; fan off
T0 ; set the active extruder to 0
; settings from start_gcode
M104 S210
M190 S50
M109 S210
G28
; automatic settings after start_gcode
T0 ; set the active extruder to 0
G90 ; use absolute coordinates
G92 E0 ; reset the expected extruder position
M82 ; use absolute distance for extrusion
; Layer count: 23
; Layer Change GCode
; LAYER:0
G4 P0
M107
G0 F18000 X79.6 Y47.1 Z0.6
; TYPE:SKIRT
G1 Z0.3
G1 F6600 E0
G1 F720 X-79.599 Y47.1 E7.94247
G1 X-79.599 Y-47.099 E12.64208
G1 X79.6 Y-47.099 E20.58455
G1 X79.6 Y47.1 E25.28416
G0 F18000 X79.2 Y46.7
G1 F720 X-79.199 Y46.7 E33.18671
G1 X-79.199 Y-46.699 E37.84641
G1 X79.2 Y-46.699 E45.74897
G1 X79.2 Y46.7 E50.40866
G1 F6600 E43.60866
G1 Z0.6
G0 F18000 X-75.799 Y43.3
; TYPE:WALL-OUTER
G1 Z0.3
G1 F6600 E50.50866
G1 F720 X-75.799 Y43.3 E50.50866
G1 X-75.799 Y-43.299 E54.8291
G1 X75.8 Y-43.299 E62.39241
G1 X75.8 Y43.3 E66.71285
G1 X-75.799 Y43.3 E74.27615
G0 F18000 X-75.399 Y42.9
; TYPE:WALL-INNER
G1 F720 X-75.399 Y42.9 E74.27615
G1 X-75.399 Y-42.899 E78.55668
G1 X75.4 Y-42.899 E86.08008
G1 X75.4 Y42.9 E90.36061
G1 X-75.399 Y42.9 E97.884
G0 F18000 X-61.538 Y35.249
G0 X-61.538 Y35.249
G0 X-61.499 Y34.952
; TYPE:WALL-OUTER
G1 F720 X-61.499 Y34.952 E97.884
G1 X-60.8 Y34.859 E97.91918
G1 X-60.148 Y34.59 E97.95437
G1 X-59.588 Y34.16 E97.98959
G1 X-59.159 Y33.601 E98.02475
G1 X-58.889 Y32.949 E98.05995
G1 X-58.797 Y32.25 E98.09513
G1 X-58.889 Y31.55 E98.13035
G1 X-59.159 Y30.899 E98.16551
G1 X-59.588 Y30.339 E98.20071
G1 X-60.148 Y29.909 E98.23593
G1 X-60.8 Y29.64 E98.27112
G1 X-61.499 Y29.548 E98.30629
G1 X-62.198 Y29.64 E98.34147
G1 X-62.85 Y29.909 E98.37666
G1 X-63.41 Y30.339 E98.41188
G1 X-63.839 Y30.899 E98.44708
G1 X-64.109 Y31.55 E98.48224
G1 X-64.201 Y32.25 E98.51746
G1 X-64.109 Y32.949 E98.55263
G1 X-63.839 Y33.601 E98.58784
G1 X-63.41 Y34.16 E98.623
G1 X-62.85 Y34.59 E98.65822
G1 X-62.198 Y34.859 E98.69341
G1 X-61.499 Y34.952 E98.72859
G0 F18000 X-61.499 Y35.355
; TYPE:WALL-INNER
G1 F720 X-61.499 Y35.355 E98.72859
G1 X-60.695 Y35.248 E98.76905
G1 X-59.946 Y34.939 E98.80948
G1 X-59.303 Y34.445 E98.84993
G1 X-58.81 Y33.803 E98.89032
G1 X-58.499 Y33.054 E98.93078
G1 X-58.394 Y32.25 E98.97123
G1 X-58.499 Y31.445 E99.01173
G1 X-58.81 Y30.697 E99.05215
G1 X-59.303 Y30.054 E99.09257
G1 X-59.946 Y29.56 E99.13302
G1 X-60.696 Y29.25 E99.17351
G1 X-61.499 Y29.145 E99.21391
G1 X-62.302 Y29.25 E99.25432
G1 X-63.052 Y29.56 E99.2948
G1 X-63.695 Y30.054 E99.33526
G1 X-64.188 Y30.697 E99.37568
G1 X-64.499 Y31.445 E99.4161
G1 X-64.604 Y32.25 E99.4566
G1 X-64.499 Y33.054 E99.49705
G1 X-64.188 Y33.803 E99.53751
G1 X-63.695 Y34.445 E99.57789
G1 X-63.052 Y34.939 E99.61835
G1 X-62.303 Y35.248 E99.65877
G1 X-61.499 Y35.355 E99.69924
G0 F18000 X-49.793 Y28.991
G0 X-49.793 Y28.991
G0 X-49.776 Y28.693
; TYPE:WALL-OUTER
G1 F720 X-49.776 Y28.693 E99.69924
G1 X-48.957 Y28.527 E99.74093
G1 X-48.209 Y28.154 E99.78263
G1 X-47.583 Y27.6 E99.82433
G1 X-47.122 Y26.903 E99.86602
G1 X-46.856 Y26.111 E99.90771
G1 X-46.805 Y25.277 E99.94939
G1 X-46.971 Y24.457 E99.99113
G1 X-47.345 Y23.709 E100.03286
G1 X-47.898 Y23.084 E100.07449
G1 X-48.595 Y22.622 E100.11621
G1 X-49.388 Y22.357 E100.15792
G1 X-50.222 Y22.306 E100.19961
G1 X-51.041 Y22.472 E100.2413
G1 X-51.789 Y22.845 E100.283
G1 X-52.415 Y23.399 E100.3247
G1 X-52.876 Y24.096 E100.3664
G1 X-53.142 Y24.888 E100.40808
G1 X-53.193 Y25.722 E100.44976
G1 X-53.027 Y26.542 E100.4915
G1 X-52.653 Y27.29 E100.53323
G1 X-52.099 Y27.915 E100.57489
G1 X-51.402 Y28.377 E100.61661
G1 X-50.61 Y28.642 E100.65828
G1 X-49.776 Y28.693 E100.69997
G0 F18000 X-49.748 Y29.096
; TYPE:WALL-INNER
G1 F720 X-49.748 Y29.096 E100.69997
G1 X-48.826 Y28.908 E100.74691
G1 X-47.984 Y28.489 E100.79383
G1 X-47.278 Y27.865 E100.84084
G1 X-46.759 Y27.08 E100.88779
G1 X-46.46 Y26.188 E100.93473
G1 X-46.402 Y25.249 E100.98166
G1 X-46.59 Y24.326 E101.02866
G1 X-47.01 Y23.484 E101.0756
G1 X-47.633 Y22.78 E101.1225
G1 X-48.418 Y22.259 E101.1695
G1 X-49.311 Y21.961 E101.21647
G1 X-50.25 Y21.903 E101.26341
G1 X-51.172 Y22.091 E101.31035
G1 X-52.014 Y22.51 E101.35727
G1 X-52.72 Y23.134 E101.40428
G1 X-53.239 Y23.919 E101.45123
G1 X-53.538 Y24.811 E101.49817
G1 X-53.596 Y25.75 E101.5451
G1 X-53.408 Y26.673 E101.5921
G1 X-52.988 Y27.516 E101.63909
G1 X-52.364 Y28.22 E101.68602
G1 X-51.579 Y28.74 E101.733
G1 X-50.687 Y29.038 E101.77992
G1 X-49.748 Y29.096 E101.82685
G0 F18000 X-49.942 Y28.976
G0 X-50.686 Y29.036
G0 X-51.578 Y28.738
G0 X-52.363 Y28.217
G0 X-52.985 Y27.514
G0 X-53.126 Y27.026
G0 X-61.763 Y21.736
G0 X-61.763 Y21.736
G0 X-61.701 Y21.444
; TYPE:WALL-OUTER
G1 F720 X-61.701 Y21.444 E101.82685
G1 X-60.996 Y21.404 E101.86208
G1 X-60.328 Y21.184 E101.89717
G1 X-59.736 Y20.798 E101.93243
G1 X-59.267 Y20.272 E101.96759
G1 X-58.949 Y19.643 E102.00275
G1 X-58.805 Y18.952 E102.03797
G1 X-58.844 Y18.248 E102.07314
G1 X-59.064 Y17.577 E102.10837
G1 X-59.451 Y16.987 E102.14357
G1 X-59.976 Y16.517 E102.17873
G1 X-60.606 Y16.2 E102.21392
G1 X-61.297 Y16.056 E102.24913
G1 X-62 Y16.095 E102.28426
G1 X-62.67 Y16.315 E102.31944
G1 X-63.261 Y16.701 E102.35466
G1 X-63.731 Y17.227 E102.38985
G1 X-64.049 Y17.857 E102.42506
G1 X-64.193 Y18.547 E102.46022
G1 X-64.153 Y19.252 E102.49545
G1 X-63.933 Y19.921 E102.53059
G1 X-63.547 Y20.512 E102.5658
G1 X-63.021 Y20.982 E102.60099
G1 X-62.392 Y21.299 E102.63614
G1 X-61.701 Y21.444 E102.67136
G0 F18000 X-61.731 Y21.847
; TYPE:WALL-INNER
G1 F720 X-61.731 Y21.847 E102.67136
G1 X-60.921 Y21.801 E102.71184
G1 X-60.153 Y21.547 E102.75219
G1 X-59.473 Y21.104 E102.79268
G1 X-58.934 Y20.499 E102.83311
G1 X-58.568 Y19.776 E102.87354
G1 X-58.403 Y18.982 E102.914
G1 X-58.447 Y18.173 E102.95442
G1 X-58.701 Y17.402 E102.99492
G1 X-59.145 Y16.724 E103.03535
G1 X-59.749 Y16.184 E103.07577
G1 X-60.473 Y15.819 E103.11622
G1 X-61.267 Y15.654 E103.15668
G1 X-62.075 Y15.698 E103.19705
G1 X-62.845 Y15.952 E103.2375
G1 X-63.524 Y16.395 E103.27795
G1 X-64.064 Y17 E103.31841
G1 X-64.43 Y17.724 E103.35888
G1 X-64.596 Y18.517 E103.3993
G1 X-64.55 Y19.327 E103.43978
G1 X-64.296 Y20.096 E103.48018
G1 X-63.853 Y20.775 E103.52063
G1 X-63.248 Y21.315 E103.56109
G1 X-62.525 Y21.68 E103.6015
G1 X-61.731 Y21.847 E103.64197
G0 F18000 X-35.999 Y39.2
G0 X-35.999 Y39.2
G0 X-35.699 Y39.2
; TYPE:WALL-OUTER
G1 F720 X-35.699 Y39.2 E103.64197
G1 X10.7 Y39.2 E105.95683
G1 X10.7 Y11.8 E107.32382
G1 X-35.699 Y11.8 E109.63868
G1 X-35.699 Y39.2 E111.00567
G0 F18000 X-36.099 Y39.6
; TYPE:WALL-INNER
G1 F720 X-36.099 Y39.6 E111.00567
G1 X11.1 Y39.6 E113.36044
G1 X11.1 Y11.4 E114.76734
G1 X-36.099 Y11.4 E117.12211
G1 X-36.099 Y39.6 E118.52901
G1 F6600 E111.72901
G1 Z0.6
G0 F18000 X-35.947 Y39
G0 X-36.04 Y11.459
G0 X-28.995 Y11.405
G0 X-25.152 Y-3.852
G0 X-25.054 Y-4.239
G0 X-25.127 Y-3.953
G0 X-25.127 Y-3.953
G0 X-25.082 Y-4.248
; TYPE:WALL-OUTER
G1 Z0.3
G1 F6600 E118.62901
G1 F720 X-25.082 Y-4.248 E118.62901
G1 X-24.044 Y-4.363 E118.68111
G1 X-23.071 Y-4.743 E118.73323
G1 X-22.229 Y-5.361 E118.78534
G1 X-21.575 Y-6.176 E118.83747
G1 X-21.156 Y-7.133 E118.88959
G1 X-20.998 Y-8.166 E118.94173
G1 X-21.113 Y-9.204 E118.99383
G1 X-21.492 Y-10.177 E119.04592
G1 X-22.11 Y-11.02 E119.09807
G1 X-22.927 Y-11.673 E119.15025
G1 X-23.883 Y-12.093 E119.20235
G1 X-24.916 Y-12.251 E119.25448
G1 X-25.954 Y-12.136 E119.30659
G1 X-26.927 Y-11.756 E119.3587
G1 X-27.769 Y-11.138 E119.41081
G1 X-28.422 Y-10.322 E119.46295
G1 X-28.842 Y-9.365 E119.51509
G1 X-29 Y-8.333 E119.56718
G1 X-28.885 Y-7.295 E119.61928
G1 X-28.506 Y-6.322 E119.67138
G1 X-27.887 Y-5.479 E119.72355
G1 X-27.072 Y-4.826 E119.77566
G1 X-26.115 Y-4.406 E119.8278
G1 X-25.082 Y-4.248 E119.87993
G0 F18000 X-25.091 Y-3.845
; TYPE:WALL-INNER
G1 F720 X-25.091 Y-3.845 E119.87993
G1 X-23.947 Y-3.971 E119.93735
G1 X-22.876 Y-4.39 E119.99473
G1 X-21.95 Y-5.07 E120.05204
G1 X-21.23 Y-5.967 E120.10943
G1 X-20.769 Y-7.02 E120.16678
G1 X-20.595 Y-8.157 E120.22416
G1 X-20.721 Y-9.3 E120.28153
G1 X-21.139 Y-10.371 E120.33889
G1 X-21.819 Y-11.299 E120.39629
G1 X-22.718 Y-12.018 E120.45372
G1 X-23.77 Y-12.48 E120.51104
G1 X-24.907 Y-12.654 E120.56843
G1 X-26.051 Y-12.528 E120.62585
G1 X-27.122 Y-12.109 E120.68322
G1 X-28.048 Y-11.429 E120.74054
G1 X-28.767 Y-10.531 E120.79793
G1 X-29.229 Y-9.478 E120.8553
G1 X-29.403 Y-8.342 E120.91264
G1 X-29.277 Y-7.199 E120.97001
G1 X-28.859 Y-6.127 E121.02741
G1 X-28.178 Y-5.2 E121.0848
G1 X-27.281 Y-4.481 E121.14215
G1 X-26.228 Y-4.019 E121.19952
G1 X-25.091 Y-3.845 E121.25691
G0 F18000 X-49.506 Y-3.955
G0 X-49.906 Y-3.957
G0 X-50.267 Y-3.959
G0 X-50.267 Y-3.959
G0 X-50.212 Y-4.254
; TYPE:WALL-OUTER
G1 F720 X-50.212 Y-4.254 E121.25691
G1 X-49.17 Y-4.335 E121.30905
G1 X-48.186 Y-4.682 E121.3611
G1 X-47.324 Y-5.273 E121.41325
G1 X-46.645 Y-6.067 E121.46537
G1 X-46.194 Y-7.009 E121.51747
G1 X-46.003 Y-8.036 E121.56959
G1 X-46.084 Y-9.078 E121.62173
G1 X-46.432 Y-10.063 E121.67385
G1 X-47.023 Y-10.925 E121.72599
G1 X-47.817 Y-11.604 E121.77811
G1 X-48.76 Y-12.055 E121.83026
G1 X-49.786 Y-12.245 E121.88232
G1 X-50.828 Y-12.164 E121.93446
G1 X-51.812 Y-11.817 E121.98652
G1 X-52.674 Y-11.225 E122.03869
G1 X-53.353 Y-10.432 E122.09077
G1 X-53.804 Y-9.49 E122.14288
G1 X-53.995 Y-8.462 E122.19504
G1 X-53.914 Y-7.42 E122.24719
G1 X-53.566 Y-6.436 E122.29926
G1 X-52.975 Y-5.574 E122.3514
G1 X-52.181 Y-4.895 E122.40352
G1 X-51.238 Y-4.444 E122.45567
G1 X-50.212 Y-4.254 E122.50773
G0 F18000 X-50.233 Y-3.851
; TYPE:WALL-INNER
G1 F720 X-50.233 Y-3.851 E122.50773
G1 X-49.087 Y-3.94 E122.56508
G1 X-48.003 Y-4.323 E122.62243
G1 X-47.054 Y-4.973 E122.67982
G1 X-46.307 Y-5.847 E122.73718
G1 X-45.811 Y-6.884 E122.79453
G1 X-45.6 Y-8.015 E122.85193
G1 X-45.689 Y-9.161 E122.90928
G1 X-46.073 Y-10.246 E122.9667
G1 X-46.723 Y-11.195 E123.02408
G1 X-47.597 Y-11.942 E123.08144
G1 X-48.635 Y-12.438 E123.13884
G1 X-49.765 Y-12.648 E123.19618
G1 X-50.911 Y-12.559 E123.25353
G1 X-51.995 Y-12.176 E123.31088
G1 X-52.944 Y-11.525 E123.3683
G1 X-53.691 Y-10.652 E123.42562
G1 X-54.187 Y-9.615 E123.48297
G1 X-54.398 Y-8.483 E123.54042
G1 X-54.309 Y-7.336 E123.59782
G1 X-53.925 Y-6.253 E123.65514
G1 X-53.275 Y-5.304 E123.71253
G1 X-52.401 Y-4.557 E123.76989
G1 X-51.363 Y-4.061 E123.82728
G1 X-50.233 Y-3.851 E123.88463
G1 F6600 E117.08463
G1 Z0.6
G0 F18000 X-50.232 Y-3.85
G0 X-50.232 Y-3.853
G0 X-51.362 Y-4.062
G0 X-52.4 Y-4.559
G0 X-53.273 Y-5.306
G0 X-53.924 Y-6.254
G0 X-54.307 Y-7.337
G0 X-54.396 Y-8.483
G0 X-54.186 Y-9.614
G0 X-53.689 Y-10.651
G0 X-52.942 Y-11.523
G0 X-51.994 Y-12.175
G0 X-50.911 Y-12.557
G0 X-50.29 Y-12.606
G0 X-50.381 Y-26.357
G0 X-50.384 Y-26.757
G0 X-50.383 Y-26.469
G0 X-50.383 Y-26.469
G0 X-50.321 Y-26.761
; TYPE:WALL-OUTER
G1 Z0.3
G1 F6600 E123.98463
G1 F720 X-50.321 Y-26.761 E123.98463
G1 X-49.279 Y-26.814 E124.03668
G1 X-48.285 Y-27.134 E124.08878
G1 X-47.406 Y-27.7 E124.14093
G1 X-46.706 Y-28.475 E124.19304
G1 X-46.23 Y-29.405 E124.24516
G1 X-46.01 Y-30.427 E124.29731
G1 X-46.063 Y-31.47 E124.34942
G1 X-46.383 Y-32.464 E124.40151
G1 X-46.95 Y-33.342 E124.45366
G1 X-47.725 Y-34.042 E124.50576
G1 X-48.655 Y-34.519 E124.5579
G1 X-49.676 Y-34.738 E124.61
G1 X-50.719 Y-34.685 E124.6621
G1 X-51.713 Y-34.365 E124.7142
G1 X-52.591 Y-33.798 E124.76634
G1 X-53.292 Y-33.024 E124.81844
G1 X-53.768 Y-32.094 E124.87056
G1 X-53.988 Y-31.072 E124.92272
G1 X-53.935 Y-30.029 E124.97482
G1 X-53.614 Y-29.035 E125.02694
G1 X-53.048 Y-28.157 E125.07905
G1 X-52.273 Y-27.457 E125.13115
G1 X-51.343 Y-26.98 E125.1833
G1 X-50.321 Y-26.761 E125.23544
G0 F18000 X-50.354 Y-26.359
; TYPE:WALL-INNER
G1 F720 X-50.354 Y-26.359 E125.23544
G1 X-49.206 Y-26.417 E125.29279
G1 X-48.112 Y-26.769 E125.35013
G1 X-47.145 Y-27.393 E125.40754
G1 X-46.374 Y-28.246 E125.46491
G1 X-45.85 Y-29.27 E125.52229
G1 X-45.608 Y-30.394 E125.57966
G1 X-45.666 Y-31.543 E125.63705
G1 X-46.018 Y-32.637 E125.69439
G1 X-46.643 Y-33.603 E125.75179
G1 X-47.496 Y-34.374 E125.80915
G1 X-48.52 Y-34.899 E125.86656
G1 X-49.643 Y-35.14 E125.92387
G1 X-50.792 Y-35.082 E125.98126
G1 X-51.886 Y-34.73 E126.0386
G1 X-52.852 Y-34.105 E126.096
G1 X-53.624 Y-33.253 E126.15336
G1 X-54.148 Y-32.229 E126.21075
G1 X-54.39 Y-31.105 E126.26811
G1 X-54.332 Y-29.956 E126.32551
G1 X-53.979 Y-28.862 E126.38286
G1 X-53.355 Y-27.896 E126.44023
G1 X-52.502 Y-27.125 E126.4976
G1 X-51.478 Y-26.6 E126.55501
G1 X-50.354 Y-26.359 E126.61236
G0 F18000 X-25.43 Y-26.453
G0 X-25.03 Y-26.455
G0 X-24.764 Y-26.457
G0 X-24.764 Y-26.457
G0 X-24.745 Y-26.756
; TYPE:WALL-OUTER
G1 F720 X-24.745 Y-26.756 E126.61236
G1 X-23.721 Y-26.958 E126.66443
G1 X-22.782 Y-27.418 E126.7166
G1 X-21.996 Y-28.105 E126.76868
G1 X-21.413 Y-28.972 E126.8208
G1 X-21.075 Y-29.961 E126.87295
G1 X-21.006 Y-31.003 E126.92505
G1 X-21.207 Y-32.028 E126.97716
G1 X-21.667 Y-32.966 E127.02928
G1 X-22.355 Y-33.752 E127.08139
G1 X-23.221 Y-34.335 E127.13348
G1 X-24.21 Y-34.673 E127.18562
G1 X-25.253 Y-34.743 E127.23777
G1 X-26.277 Y-34.541 E127.28984
G1 X-27.216 Y-34.081 E127.34201
G1 X-28.002 Y-33.394 E127.39409
G1 X-28.585 Y-32.527 E127.44622
G1 X-28.922 Y-31.538 E127.49834
G1 X-28.992 Y-30.495 E127.5505
G1 X-28.791 Y-29.471 E127.60256
G1 X-28.331 Y-28.533 E127.65468
G1 X-27.643 Y-27.746 E127.70683
G1 X-26.776 Y-27.164 E127.75893
G1 X-25.788 Y-26.826 E127.81102
G1 X-24.745 Y-26.756 E127.86318
G0 F18000 X-24.72 Y-26.353
; TYPE:WALL-INNER
G1 F720 X-24.72 Y-26.353 E127.86318
G1 X-23.592 Y-26.576 E127.92054
G1 X-22.559 Y-27.082 E127.97793
G1 X-21.693 Y-27.838 E128.03528
G1 X-21.052 Y-28.793 E128.09266
G1 X-20.68 Y-29.882 E128.15008
G1 X-20.603 Y-31.028 E128.20738
G1 X-20.824 Y-32.157 E128.26477
G1 X-21.331 Y-33.189 E128.32214
G1 X-22.088 Y-34.055 E128.37952
G1 X-23.042 Y-34.696 E128.43687
G1 X-24.131 Y-35.068 E128.49428
G1 X-25.278 Y-35.146 E128.55163
G1 X-26.406 Y-34.923 E128.609
G1 X-27.439 Y-34.417 E128.66639
G1 X-28.305 Y-33.661 E128.72374
G1 X-28.946 Y-32.706 E128.78112
G1 X-29.317 Y-31.617 E128.83852
G1 X-29.395 Y-30.47 E128.89587
G1 X-29.174 Y-29.342 E128.95322
G1 X-28.667 Y-28.31 E129.01058
G1 X-27.91 Y-27.443 E129.06801
G1 X-26.955 Y-26.803 E129.12536
G1 X-25.867 Y-26.431 E129.18273
G1 X-24.72 Y-26.353 E129.24008
G0 F18000 X-1.285 Y-26.448
G0 X-0.885 Y-26.45
G0 X-0.161 Y-26.454
G0 X-0.161 Y-26.454
G0 X-0.115 Y-26.749
; TYPE:WALL-OUTER
G1 F720 X-0.115 Y-26.749 E129.24008
G1 X0.924 Y-26.856 E129.29219
G1 X1.9 Y-27.227 E129.34429
G1 X2.746 Y-27.839 E129.39638
G1 X3.407 Y-28.649 E129.44854
G1 X3.834 Y-29.602 E129.50064
G1 X4 Y-30.633 E129.55274
G1 X3.894 Y-31.672 E129.60484
G1 X3.523 Y-32.649 E129.65698
G1 X2.911 Y-33.495 E129.70907
G1 X2.101 Y-34.156 E129.76123
G1 X1.148 Y-34.583 E129.81333
G1 X0.116 Y-34.75 E129.86549
G1 X-0.923 Y-34.643 E129.9176
G1 X-1.899 Y-34.272 E129.96969
G1 X-2.745 Y-33.66 E130.02178
G1 X-3.405 Y-32.85 E130.07391
G1 X-3.832 Y-31.897 E130.12601
G1 X-3.999 Y-30.866 E130.17812
G1 X-3.892 Y-29.826 E130.23028
G1 X-3.521 Y-28.85 E130.28237
G1 X-2.91 Y-28.003 E130.33447
G1 X-2.099 Y-27.343 E130.38664
G1 X-1.146 Y-26.916 E130.43874
G1 X-0.115 Y-26.749 E130.49085
G0 F18000 X-0.127 Y-26.346
; TYPE:WALL-INNER
G1 F720 X-0.127 Y-26.346 E130.49085
G1 X1.017 Y-26.463 E130.54822
G1 X2.091 Y-26.872 E130.60556
G1 X3.023 Y-27.546 E130.66294
G1 X3.75 Y-28.437 E130.72031
G1 X4.221 Y-29.487 E130.77772
G1 X4.403 Y-30.621 E130.83502
G1 X4.287 Y-31.765 E130.89239
G1 X3.878 Y-32.84 E130.94977
G1 X3.204 Y-33.772 E131.00716
G1 X2.313 Y-34.499 E131.06453
G1 X1.264 Y-34.97 E131.1219
G1 X0.127 Y-35.153 E131.17935
G1 X-1.016 Y-35.036 E131.23667
G1 X-2.09 Y-34.627 E131.29401
G1 X-3.022 Y-33.953 E131.35139
G1 X-3.748 Y-33.062 E131.40873
G1 X-4.219 Y-32.013 E131.4661
G1 X-4.402 Y-30.878 E131.52346
G1 X-4.285 Y-29.733 E131.58088
G1 X-3.876 Y-28.659 E131.63821
G1 X-3.203 Y-27.726 E131.69561
G1 X-2.31 Y-27 E131.75303
G1 X-1.262 Y-26.529 E131.81035
G1 X-0.127 Y-26.346 E131.8677
G0 F18000 X0.261 Y-12.615
G0 X0.591 Y-12.613
G0 X1.701 Y-12.31
G0 X2.694 Y-11.732
G0 X3.504 Y-10.916
G0 X4.075 Y-9.918
G0 X4.368 Y-8.807
G0 X4.364 Y-7.659
G0 X4.061 Y-6.548
G0 X3.483 Y-5.555
G0 X2.666 Y-4.746
G0 X1.668 Y-4.175
G0 X0.508 Y-3.872
G0 X0.506 Y-3.981
G0 X0.506 Y-3.981
G0 X0.507 Y-4.28
; TYPE:WALL-OUTER
G1 F720 X0.507 Y-4.28 E131.8677
G1 X1.517 Y-4.546 E131.91981
G1 X2.423 Y-5.065 E131.9719
G1 X3.166 Y-5.8 E132.02404
G1 X3.691 Y-6.703 E132.07616
G1 X3.966 Y-7.712 E132.12833
G1 X3.97 Y-8.757 E132.18047
G1 X3.704 Y-9.767 E132.23257
G1 X3.184 Y-10.673 E132.28469
G1 X2.448 Y-11.415 E132.33683
G1 X1.546 Y-11.94 E132.3889
G1 X0.538 Y-12.215 E132.44103
G1 X-0.506 Y-12.219 E132.49311
G1 X-1.516 Y-11.953 E132.54522
G1 X-2.422 Y-11.434 E132.59731
G1 X-3.165 Y-10.698 E132.64949
G1 X-3.69 Y-9.795 E132.7016
G1 X-3.964 Y-8.787 E132.75371
G1 X-3.968 Y-7.742 E132.80585
G1 X-3.702 Y-6.733 E132.85791
G1 X-3.184 Y-5.826 E132.91002
G1 X-2.447 Y-5.084 E132.9622
G1 X-1.545 Y-4.558 E133.01429
G1 X-0.537 Y-4.284 E133.0664
G1 X0.507 Y-4.28 E133.11849
G0 F18000 X0.558 Y-3.88
; TYPE:WALL-INNER
G1 F720 X0.558 Y-3.88 E133.11849
G1 X1.67 Y-4.173 E133.17586
G1 X2.667 Y-4.744 E133.23318
G1 X3.485 Y-5.553 E133.29058
G1 X4.063 Y-6.547 E133.34794
G1 X4.366 Y-7.658 E133.4054
G1 X4.37 Y-8.808 E133.46277
G1 X4.077 Y-9.92 E133.52014
G1 X3.505 Y-10.918 E133.57753
G1 X2.695 Y-11.734 E133.63489
G1 X1.702 Y-12.312 E133.69221
G1 X0.593 Y-12.615 E133.74957
G1 X-0.557 Y-12.619 E133.80695
G1 X-1.669 Y-12.326 E133.86432
G1 X-2.666 Y-11.755 E133.92164
G1 X-3.484 Y-10.945 E133.97907
G1 X-4.062 Y-9.95 E134.03648
G1 X-4.364 Y-8.841 E134.09382
G1 X-4.368 Y-7.691 E134.1512
G1 X-4.075 Y-6.58 E134.20852
G1 X-3.505 Y-5.581 E134.2659
G1 X-2.694 Y-4.765 E134.3233
G1 X-1.701 Y-4.186 E134.38065
G1 X-0.591 Y-3.884 E134.43804
G1 X0.558 Y-3.88 E134.49536
G0 F18000 X49.463 Y-3.953
G0 X49.863 Y-3.954
G0 X50.167 Y-3.955
G0 X50.167 Y-3.955
G0 X50.191 Y-4.253
; TYPE:WALL-OUTER
G1 F720 X50.191 Y-4.253 E134.49536
G1 X51.219 Y-4.438 E134.54747
G1 X52.164 Y-4.883 E134.59958
G1 X52.961 Y-5.558 E134.65169
G1 X53.557 Y-6.417 E134.70385
G1 X53.91 Y-7.399 E134.75591
G1 X53.998 Y-8.441 E134.80808
G1 X53.812 Y-9.468 E134.86015
G1 X53.367 Y-10.413 E134.91227
G1 X52.692 Y-11.211 E134.96441
G1 X51.833 Y-11.806 E135.01654
G1 X50.85 Y-12.16 E135.06867
G1 X49.809 Y-12.246 E135.12078
G1 X48.782 Y-12.061 E135.17284
G1 X47.836 Y-11.616 E135.225
G1 X47.039 Y-10.941 E135.27711
G1 X46.443 Y-10.082 E135.32927
G1 X46.09 Y-9.1 E135.38133
G1 X46.002 Y-8.058 E135.4335
G1 X46.189 Y-7.03 E135.48563
G1 X46.634 Y-6.086 E135.5377
G1 X47.308 Y-5.288 E135.58981
G1 X48.167 Y-4.693 E135.64194
G1 X49.15 Y-4.339 E135.69407
G1 X50.191 Y-4.253 E135.74618
G0 F18000 X50.21 Y-3.85
; TYPE:WALL-INNER
G1 F720 X50.21 Y-3.85 E135.74618
G1 X51.342 Y-4.054 E135.80356
G1 X52.382 Y-4.544 E135.86092
G1 X53.26 Y-5.287 E135.9183
G1 X53.916 Y-6.232 E135.9757
G1 X54.304 Y-7.313 E136.033
G1 X54.401 Y-8.46 E136.09042
G1 X54.196 Y-9.591 E136.14777
G1 X53.706 Y-10.631 E136.20513
G1 X52.963 Y-11.51 E136.26255
G1 X52.018 Y-12.165 E136.31991
G1 X50.936 Y-12.554 E136.37728
G1 X49.79 Y-12.649 E136.43465
G1 X48.659 Y-12.445 E136.49198
G1 X47.618 Y-11.955 E136.54938
G1 X46.74 Y-11.212 E136.60677
G1 X46.084 Y-10.267 E136.66416
G1 X45.696 Y-9.186 E136.72146
G1 X45.599 Y-8.039 E136.77889
G1 X45.805 Y-6.907 E136.83629
G1 X46.295 Y-5.868 E136.8936
G1 X47.037 Y-4.989 E136.95099
G1 X47.982 Y-4.334 E137.00836
G1 X49.064 Y-3.945 E137.06572
G1 X50.21 Y-3.85 E137.12309
G1 F6600 E130.32309
G1 Z0.6
G0 F18000 X50.209 Y-3.852
G0 X51.341 Y-4.056
G0 X52.381 Y-4.546
G0 X53.259 Y-5.289
G0 X53.914 Y-6.233
G0 X54.302 Y-7.314
G0 X54.398 Y-8.459
G0 X54.194 Y-9.59
G0 X53.704 Y-10.63
G0 X52.961 Y-11.509
G0 X52.017 Y-12.163
G0 X50.935 Y-12.552
G0 X50.319 Y-12.603
G0 X50.491 Y-26.371
G0 X50.496 Y-26.771
G0 X50.494 Y-26.48
G0 X50.494 Y-26.48
G0 X50.496 Y-26.779
; TYPE:WALL-OUTER
G1 Z0.3
G1 F6600 E137.22309
G1 F720 X50.496 Y-26.779 E137.22309
G1 X51.507 Y-27.042 E137.27521
G1 X52.415 Y-27.558 E137.32731
G1 X53.158 Y-28.292 E137.37942
G1 X53.687 Y-29.194 E137.43159
G1 X53.964 Y-30.2 E137.48364
G1 X53.971 Y-31.245 E137.53578
G1 X53.707 Y-32.256 E137.58791
G1 X53.191 Y-33.165 E137.64006
G1 X52.457 Y-33.908 E137.69216
G1 X51.556 Y-34.436 E137.74426
G1 X50.549 Y-34.714 E137.79638
G1 X49.504 Y-34.72 E137.84852
G1 X48.493 Y-34.457 E137.90064
G1 X47.585 Y-33.941 E137.95274
G1 X46.842 Y-33.207 E138.00485
G1 X46.313 Y-32.305 E138.05702
G1 X46.036 Y-31.299 E138.10907
G1 X46.029 Y-30.254 E138.16121
G1 X46.293 Y-29.243 E138.21334
G1 X46.809 Y-28.334 E138.26549
G1 X47.543 Y-27.591 E138.31759
G1 X48.445 Y-27.062 E138.36976
G1 X49.451 Y-26.785 E138.42182
G1 X50.496 Y-26.779 E138.47396
G0 F18000 X50.546 Y-26.379
; TYPE:WALL-INNER
G1 F720 X50.546 Y-26.379 E138.47396
G1 X51.659 Y-26.668 E138.53133
G1 X52.658 Y-27.236 E138.58866
G1 X53.477 Y-28.044 E138.64606
G1 X54.059 Y-29.037 E138.70348
G1 X54.363 Y-30.145 E138.7608
G1 X54.372 Y-31.295 E138.81818
G1 X54.081 Y-32.408 E138.87557
G1 X53.513 Y-33.408 E138.93295
G1 X52.704 Y-34.227 E138.99038
G1 X51.713 Y-34.807 E139.04767
G1 X50.604 Y-35.114 E139.10508
G1 X49.454 Y-35.12 E139.16245
G1 X48.341 Y-34.831 E139.21982
G1 X47.342 Y-34.263 E139.27715
G1 X46.523 Y-33.455 E139.33455
G1 X45.941 Y-32.462 E139.39197
G1 X45.637 Y-31.354 E139.4493
G1 X45.628 Y-30.204 E139.50667
G1 X45.919 Y-29.091 E139.56407
G1 X46.487 Y-28.091 E139.62144
G1 X47.295 Y-27.272 E139.67884
G1 X48.288 Y-26.69 E139.73626
G1 X49.396 Y-26.385 E139.7936
G1 X50.546 Y-26.379 E139.85097
G1 F6600 E133.05097
G1 Z0.6
G0 F18000 X50.467 Y-12.591
G0 X50.935 Y-12.552
G0 X52.017 Y-12.163
G0 X52.961 Y-11.509
G0 X53.704 Y-10.63
G0 X54.194 Y-9.59
G0 X54.398 Y-8.459
G0 X54.302 Y-7.314
G0 X53.914 Y-6.233
G0 X53.259 Y-5.289
G0 X52.381 Y-4.546
G0 X51.341 Y-4.056
G0 X50.418 Y-3.888
G0 X50.273 Y21.934
G0 X50.658 Y21.957
G0 X51.553 Y22.249
G0 X52.341 Y22.76
G0 X52.97 Y23.461
G0 X53.397 Y24.299
G0 X53.592 Y25.22
G0 X53.543 Y26.158
G0 X53.251 Y27.053
G0 X52.739 Y27.84
G0 X52.039 Y28.47
G0 X51.2 Y28.896
G0 X50.232 Y29.097
G0 X50.234 Y28.989
G0 X50.234 Y28.989
G0 X50.25 Y28.691
; TYPE:WALL-OUTER
G1 Z0.3
G1 F6600 E139.95097
G1 F720 X50.25 Y28.691 E139.95097
G1 X51.067 Y28.518 E139.99264
G1 X51.812 Y28.139 E140.03434
G1 X52.433 Y27.58 E140.07602
G1 X52.889 Y26.88 E140.1177
G1 X53.148 Y26.085 E140.15942
G1 X53.192 Y25.25 E140.20113
G1 X53.019 Y24.433 E140.2428
G1 X52.639 Y23.688 E140.28452
G1 X52.081 Y23.066 E140.32621
G1 X51.38 Y22.611 E140.3679
G1 X50.585 Y22.352 E140.40962
G1 X49.75 Y22.308 E140.45133
G1 X48.933 Y22.481 E140.493
G1 X48.188 Y22.86 E140.5347
G1 X47.567 Y23.419 E140.57639
G1 X47.111 Y24.12 E140.61811
G1 X46.853 Y24.914 E140.65976
G1 X46.808 Y25.749 E140.70148
G1 X46.982 Y26.566 E140.74315
G1 X47.361 Y27.311 E140.78485
G1 X47.919 Y27.933 E140.82654
G1 X48.62 Y28.389 E140.86826
G1 X49.415 Y28.647 E140.90996
G1 X50.25 Y28.691 E140.95168
G0 F18000 X50.281 Y29.093
; TYPE:WALL-INNER
G1 F720 X50.281 Y29.093 E140.95168
G1 X51.202 Y28.899 E140.99864
G1 X52.041 Y28.472 E141.0456
G1 X52.74 Y27.842 E141.09255
G1 X53.253 Y27.054 E141.13946
G1 X53.545 Y26.159 E141.18643
G1 X53.594 Y25.219 E141.23339
G1 X53.4 Y24.298 E141.28035
G1 X52.972 Y23.46 E141.32729
G1 X52.343 Y22.759 E141.37428
G1 X51.554 Y22.247 E141.4212
G1 X50.659 Y21.955 E141.46817
G1 X49.719 Y21.906 E141.51513
G1 X48.798 Y22.1 E141.56209
G1 X47.959 Y22.527 E141.60906
G1 X47.26 Y23.157 E141.656
G1 X46.747 Y23.946 E141.70296
G1 X46.456 Y24.84 E141.74986
G1 X46.406 Y25.78 E141.79682
G1 X46.602 Y26.701 E141.8438
G1 X47.028 Y27.539 E141.8907
G1 X47.656 Y28.24 E141.93766
G1 X48.446 Y28.753 E141.98465
G1 X49.342 Y29.044 E142.03165
G1 X50.281 Y29.093 E142.07856
G0 F18000 X51.358 Y29.199
; TYPE:BOTTOM-FILL
G1 F720 X75.06 Y29.199 E143.26106
G0 F18000 X75.06 Y28.799
G1 F720 X52.147 Y28.799 E144.40419
G0 F18000 X52.63 Y28.399
G1 F720 X75.06 Y28.399 E145.52323
G0 F18000 X75.06 Y27.999
G1 F720 X53.044 Y27.999 E146.62161
G0 F18000 X53.303 Y27.599
G1 F720 X75.06 Y27.599 E147.70707
G0 F18000 X75.06 Y27.199
G1 F720 X53.563 Y27.199 E148.77956
G0 F18000 X53.693 Y26.799
G1 F720 X75.06 Y26.799 E149.84557
G0 F18000 X75.06 Y26.399
G1 F720 X53.824 Y26.399 E150.90504
G0 F18000 X53.894 Y25.999
G1 F720 X75.06 Y25.999 E151.96101
G0 F18000 X75.06 Y25.599
G1 F720 X53.915 Y25.599 E153.01594
G0 F18000 X53.936 Y25.199
G1 F720 X75.06 Y25.199 E154.06982
G0 F18000 X75.06 Y24.799
G1 F720 X53.853 Y24.799 E155.12784
G0 F18000 X53.768 Y24.399
G1 F720 X75.06 Y24.399 E156.19011
G0 F18000 X75.06 Y23.999
G1 F720 X53.63 Y23.999 E157.25925
G0 F18000 X53.426 Y23.599
G1 F720 X75.06 Y23.599 E158.33858
G0 F18000 X75.06 Y23.199
G1 F720 X53.196 Y23.199 E159.42938
G0 F18000 X52.837 Y22.799
G1 F720 X75.06 Y22.799 E160.53809
G0 F18000 X75.06 Y22.399
G1 F720 X52.415 Y22.399 E161.66785
G0 F18000 X51.799 Y21.999
G1 F720 X75.06 Y21.999 E162.82835
G0 F18000 X75.06 Y21.599
G1 F720 X50.379 Y21.599 E164.05969
G0 F18000 X49.523 Y21.599
G1 F720 X11.44 Y21.6 E165.95965
G0 F18000 X11.44 Y22
G1 F720 X48.245 Y21.999 E167.79586
G0 F18000 X47.591 Y22.399
G1 F720 X11.44 Y22.4 E169.59944
G0 F18000 X11.44 Y22.8
G1 F720 X47.148 Y22.799 E171.38092
G0 F18000 X46.826 Y23.199
G1 F720 X11.44 Y23.2 E173.14634
G0 F18000 X11.44 Y23.6
G1 F720 X46.566 Y23.599 E174.89878
G0 F18000 X46.372 Y23.999
G1 F720 X11.44 Y24 E176.64155
G0 F18000 X11.44 Y24.4
G1 F720 X46.242 Y24.399 E178.37783
G0 F18000 X46.118 Y24.799
G1 F720 X11.44 Y24.8 E180.10792
G0 F18000 X11.44 Y25.2
G1 F720 X46.096 Y25.199 E181.83691
G0 F18000 X46.075 Y25.599
G1 F720 X11.439 Y25.6 E183.56491
G0 F18000 X11.439 Y26
G1 F720 X46.105 Y25.999 E185.2944
G0 F18000 X46.191 Y26.399
G1 F720 X11.439 Y26.4 E187.02819
G0 F18000 X11.439 Y26.8
G1 F720 X46.276 Y26.799 E188.76621
G0 F18000 X46.473 Y27.199
G1 F720 X11.439 Y27.2 E190.51407
G0 F18000 X11.439 Y27.6
G1 F720 X46.676 Y27.599 E192.27205
G0 F18000 X46.984 Y27.999
G1 F720 X11.439 Y28 E194.04539
G0 F18000 X11.439 Y28.4
G1 F720 X47.343 Y28.399 E195.83665
G0 F18000 X47.893 Y28.799
G1 F720 X11.439 Y28.8 E197.65535
G0 F18000 X11.439 Y29.2
G1 F720 X48.722 Y29.199 E199.51541
G0 F18000 X75.06 Y29.599
G0 X75.06 Y29.599
G1 F720 X11.439 Y29.6 E202.68947
G0 F18000 X11.439 Y30
G1 F720 X75.06 Y29.999 E205.86354
G0 F18000 X75.06 Y30.399
G1 F720 X11.439 Y30.4 E209.0376
G0 F18000 X11.439 Y30.8
G1 F720 X75.06 Y30.799 E212.21166
G0 F18000 X75.06 Y31.199
G1 F720 X11.439 Y31.2 E215.38573
G0 F18000 X11.439 Y31.6
G1 F720 X75.06 Y31.599 E218.55979
G0 F18000 X75.06 Y31.999
G1 F720 X11.439 Y32 E221.73386
G0 F18000 X11.439 Y32.4
G1 F720 X75.06 Y32.399 E224.90792
G0 F18000 X75.06 Y32.799
G1 F720 X11.439 Y32.8 E228.08199
G0 F18000 X11.439 Y33.2
G1 F720 X75.06 Y33.199 E231.25605
G0 F18000 X75.06 Y33.599
G1 F720 X11.439 Y33.6 E234.43012
G0 F18000 X11.439 Y34
G1 F720 X75.06 Y33.999 E237.60418
G0 F18000 X75.06 Y34.399
G1 F720 X11.439 Y34.4 E240.77825
G0 F18000 X11.439 Y34.8
G1 F720 X75.06 Y34.799 E243.95231
G0 F18000 X75.06 Y35.199
G1 F720 X11.439 Y35.2 E247.12637
G0 F18000 X11.439 Y35.6
G1 F720 X75.06 Y35.599 E250.30044
G0 F18000 X75.06 Y35.999
G1 F720 X11.439 Y36 E253.4745
G0 F18000 X11.439 Y36.4
G1 F720 X75.06 Y36.399 E256.64857
G0 F18000 X75.06 Y36.799
G1 F720 X11.439 Y36.8 E259.82263
G0 F18000 X11.439 Y37.2
G1 F720 X75.06 Y37.199 E262.9967
G0 F18000 X75.06 Y37.599
G1 F720 X11.439 Y37.6 E266.17076
G0 F18000 X11.439 Y38
G1 F720 X75.06 Y37.999 E269.34483
G0 F18000 X75.06 Y38.399
G1 F720 X11.439 Y38.4 E272.51889
G0 F18000 X11.439 Y38.8
G1 F720 X75.06 Y38.799 E275.69296
G0 F18000 X75.06 Y39.199
G1 F720 X11.439 Y39.2 E278.86702
G0 F18000 X11.439 Y39.6
G1 F720 X75.06 Y39.599 E282.04109
G0 F18000 X75.06 Y39.999
G1 F720 X-75.059 Y40 E289.53055
G0 F18000 X-75.059 Y39.6
G1 F720 X-36.439 Y39.6 E291.45731
G0 F18000 X-36.439 Y39.2
G1 F720 X-75.059 Y39.2 E293.38407
G0 F18000 X-75.059 Y38.8
G1 F720 X-36.439 Y38.8 E295.31083
G0 F18000 X-36.439 Y38.4
G1 F720 X-75.059 Y38.4 E297.23759
G0 F18000 X-75.059 Y38
G1 F720 X-36.439 Y38 E299.16435
G0 F18000 X-36.439 Y37.6
G1 F720 X-75.059 Y37.6 E301.09111
G0 F18000 X-75.059 Y37.2
G1 F720 X-36.439 Y37.2 E303.01787
G0 F18000 X-36.439 Y36.8
G1 F720 X-75.059 Y36.8 E304.94463
G0 F18000 X-75.059 Y36.4
G1 F720 X-36.439 Y36.4 E306.87139
G0 F18000 X-36.439 Y36
G1 F720 X-75.059 Y36 E308.79815
G0 F18000 X-75.059 Y35.6
G1 F720 X-62.234 Y35.6 E309.43799
G0 F18000 X-63.268 Y35.2
G1 F720 X-75.059 Y35.2 E310.02625
G0 F18000 X-75.059 Y34.8
G1 F720 X-63.789 Y34.8 E310.58851
G0 F18000 X-64.156 Y34.4
G1 F720 X-75.059 Y34.4 E311.13246
G0 F18000 X-75.059 Y34
G1 F720 X-64.463 Y34 E311.6611
G0 F18000 X-64.64 Y33.6
G1 F720 X-75.059 Y33.6 E312.1809
G0 F18000 X-75.059 Y33.2
G1 F720 X-64.806 Y33.2 E312.69243
G0 F18000 X-64.875 Y32.8
G1 F720 X-75.059 Y32.8 E313.20051
G0 F18000 X-75.059 Y32.4
G1 F720 X-64.927 Y32.4 E313.706
G0 F18000 X-64.913 Y32
G1 F720 X-75.059 Y32 E314.21218
G0 F18000 X-75.059 Y31.6
G1 F720 X-64.862 Y31.6 E314.72091
G0 F18000 X-64.767 Y31.2
G1 F720 X-75.059 Y31.2 E315.23438
G0 F18000 X-75.059 Y30.8
G1 F720 X-64.6 Y30.8 E315.75619
G0 F18000 X-64.388 Y30.4
G1 F720 X-75.059 Y30.4 E316.28856
G0 F18000 X-75.059 Y30
G1 F720 X-64.082 Y30 E316.83621
G0 F18000 X-63.662 Y29.6
G1 F720 X-75.059 Y29.6 E317.40481
G0 F18000 X-75.059 Y29.2
G1 F720 X-63.073 Y29.2 E318.00279
G0 F18000 X-59.925 Y29.2
G1 F720 X-51.271 Y29.2 E318.43454
G0 F18000 X-52.103 Y28.8
G1 F720 X-75.059 Y28.8 E319.57982
G0 F18000 X-75.059 Y28.4
G1 F720 X-52.658 Y28.4 E320.69741
G0 F18000 X-53.012 Y28
G1 F720 X-75.059 Y28 E321.79734
G0 F18000 X-75.059 Y27.6
G1 F720 X-53.325 Y27.6 E322.88165
G0 F18000 X-53.524 Y27.2
G1 F720 X-75.059 Y27.2 E323.95604
G0 F18000 X-75.059 Y26.8
G1 F720 X-53.724 Y26.8 E325.02045
G0 F18000 X-53.81 Y26.4
G1 F720 X-75.059 Y26.4 E326.08056
G0 F18000 X-75.059 Y26
G1 F720 X-53.891 Y26 E327.13664
G0 F18000 X-53.926 Y25.6
G1 F720 X-75.059 Y25.6 E328.19097
G0 F18000 X-75.059 Y25.2
G1 F720 X-53.902 Y25.2 E329.2465
G0 F18000 X-53.877 Y24.8
G1 F720 X-75.059 Y24.8 E330.30327
G0 F18000 X-75.059 Y24.4
G1 F720 X-53.759 Y24.4 E331.36593
G0 F18000 X-53.625 Y24
G1 F720 X-75.059 Y24 E332.43528
G0 F18000 X-75.059 Y23.6
G1 F720 X-53.437 Y23.6 E333.514
G0 F18000 X-53.172 Y23.2
G1 F720 X-75.059 Y23.2 E334.60595
G0 F18000 X-75.059 Y22.8
G1 F720 X-52.857 Y22.8 E335.71361
G0 F18000 X-52.404 Y22.4
G1 F720 X-75.059 Y22.4 E336.84388
G0 F18000 X-75.059 Y22
G1 F720 X-62.644 Y22 E337.46326
G0 F18000 X-63.433 Y21.6
G1 F720 X-75.059 Y21.6 E338.04329
G0 F18000 X-75.059 Y21.2
G1 F720 X-63.886 Y21.2 E338.60071
G0 F18000 X-64.242 Y20.8
G1 F720 X-75.059 Y20.8 E339.14037
G0 F18000 X-75.059 Y20.4
G1 F720 X-64.502 Y20.4 E339.66706
G0 F18000 X-64.685 Y20
G1 F720 X-75.059 Y20 E340.18462
G0 F18000 X-75.059 Y19.6
G1 F720 X-64.817 Y19.6 E340.6956
G0 F18000 X-64.897 Y19.2
G1 F720 X-75.059 Y19.2 E341.20258
G0 F18000 X-75.059 Y18.8
G1 F720 X-64.92 Y18.8 E341.70842
G0 F18000 X-64.919 Y18.4
G1 F720 X-75.059 Y18.4 E342.21431
G0 F18000 X-75.059 Y18
G1 F720 X-64.835 Y18 E342.72438
G0 F18000 X-64.748 Y17.6
G1 F720 X-75.059 Y17.6 E343.2388
G0 F18000 X-75.059 Y17.2
G1 F720 X-64.546 Y17.2 E343.7633
G0 F18000 X-64.341 Y16.8
G1 F720 X-75.059 Y16.8 E344.29802
G0 F18000 X-75.059 Y16.4
G1 F720 X-63.985 Y16.4 E344.85051
G0 F18000 X-63.543 Y16
G1 F720 X-75.059 Y16 E345.42504
G0 F18000 X-75.059 Y15.6
G1 F720 X-62.867 Y15.6 E346.0333
G0 F18000 X-60.151 Y15.6
G0 X-60.151 Y15.6
G1 F720 X-36.439 Y15.6 E347.2163
G0 F18000 X-36.439 Y16
G1 F720 X-59.445 Y16 E348.36407
G0 F18000 X-58.996 Y16.4
G1 F720 X-36.439 Y16.4 E349.48945
G0 F18000 X-36.439 Y16.8
G1 F720 X-58.688 Y16.8 E350.59945
G0 F18000 X-58.427 Y17.2
G1 F720 X-36.439 Y17.2 E351.69644
G0 F18000 X-36.439 Y17.6
G1 F720 X-58.278 Y17.6 E352.78599
G0 F18000 X-58.146 Y18
G1 F720 X-36.439 Y18 E353.86896
G0 F18000 X-36.439 Y18.4
G1 F720 X-58.094 Y18.4 E354.94933
G0 F18000 X-58.072 Y18.8
G1 F720 X-36.439 Y18.8 E356.0286
G0 F18000 X-36.439 Y19.2
G1 F720 X-58.101 Y19.2 E357.10933
G0 F18000 X-58.184 Y19.6
G1 F720 X-36.439 Y19.6 E358.19419
G0 F18000 X-36.439 Y20
G1 F720 X-58.301 Y20 E359.28489
G0 F18000 X-58.504 Y20.4
G1 F720 X-36.439 Y20.4 E360.38572
G0 F18000 X-36.439 Y20.8
G1 F720 X-58.749 Y20.8 E361.49877
G0 F18000 X-59.104 Y21.2
G1 F720 X-36.439 Y21.2 E362.62953
G0 F18000 X-36.439 Y21.6
G1 F720 X-49.637 Y21.6 E363.28798
G0 F18000 X-50.465 Y21.6
G1 F720 X-59.613 Y21.6 E363.74437
G0 F18000 X-60.446 Y22
G1 F720 X-51.754 Y22 E364.17802
G0 F18000 X-48.192 Y22
G1 F720 X-36.439 Y22 E364.76438
G0 F18000 X-36.439 Y22.4
G1 F720 X-47.59 Y22.4 E365.3207
G0 F18000 X-47.161 Y22.8
G1 F720 X-36.439 Y22.8 E365.85563
G0 F18000 X-36.439 Y23.2
G1 F720 X-46.807 Y23.2 E366.37289
G0 F18000 X-46.572 Y23.6
G1 F720 X-36.439 Y23.6 E366.87843
G0 F18000 X-36.439 Y24
G1 F720 X-46.373 Y24 E367.37404
G0 F18000 X-46.228 Y24.4
G1 F720 X-36.439 Y24.4 E367.86241
G0 F18000 X-36.439 Y24.8
G1 F720 X-46.147 Y24.8 E368.34675
G0 F18000 X-46.066 Y25.2
G1 F720 X-36.439 Y25.2 E368.82704
G0 F18000 X-36.439 Y25.6
G1 F720 X-46.084 Y25.6 E369.30823
G0 F18000 X-46.108 Y26
G1 F720 X-36.439 Y26 E369.79062
G0 F18000 X-36.439 Y26.4
G1 F720 X-46.173 Y26.4 E370.27625
G0 F18000 X-46.307 Y26.8
G1 F720 X-36.439 Y26.8 E370.76857
G0 F18000 X-36.439 Y27.2
G1 F720 X-46.441 Y27.2 E371.26757
G0 F18000 X-46.696 Y27.6
G1 F720 X-36.439 Y27.6 E371.77929
G0 F18000 X-36.439 Y28
G1 F720 X-46.96 Y28 E372.30419
G0 F18000 X-47.371 Y28.4
G1 F720 X-36.439 Y28.4 E372.84959
G0 F18000 X-36.439 Y28.8
G1 F720 X-47.848 Y28.8 E373.41878
G0 F18000 X-48.653 Y29.2
G1 F720 X-36.439 Y29.2 E374.02814
G0 F18000 X-36.439 Y29.6
G1 F720 X-59.336 Y29.6 E375.17048
G0 F18000 X-58.916 Y30
G1 F720 X-36.439 Y30 E376.29186
G0 F18000 X-36.439 Y30.4
G1 F720 X-58.61 Y30.4 E377.39798
G0 F18000 X-58.398 Y30.8
G1 F720 X-36.439 Y30.8 E378.49351
G0 F18000 X-36.439 Y31.2
G1 F720 X-58.231 Y31.2 E379.58072
G0 F18000 X-58.136 Y31.6
G1 F720 X-36.439 Y31.6 E380.66319
G0 F18000 X-36.439 Y32
G1 F720 X-58.085 Y32 E381.74311
G0 F18000 X-58.071 Y32.4
G1 F720 X-36.439 Y32.4 E382.82234
G0 F18000 X-36.439 Y32.8
G1 F720 X-58.123 Y32.8 E383.90416
G0 F18000 X-58.191 Y33.2
G1 F720 X-36.439 Y33.2 E384.98937
G0 F18000 X-36.439 Y33.6
G1 F720 X-58.358 Y33.6 E386.08291
G0 F18000 X-58.534 Y34
G1 F720 X-36.439 Y34 E387.18524
G0 F18000 X-36.439 Y34.4
G1 F720 X-58.841 Y34.4 E388.30288
G0 F18000 X-59.208 Y34.8
G1 F720 X-36.439 Y34.8 E389.43883
G0 F18000 X-36.439 Y35.2
G1 F720 X-59.73 Y35.2 E390.60082
G0 F18000 X-60.764 Y35.6
G1 F720 X-36.439 Y35.6 E391.8144
G0 F18000 X-36.439 Y15.2
G0 X-36.439 Y15.2
G1 F720 X-75.059 Y15.2 E393.74116
G0 F18000 X-75.059 Y14.8
G1 F720 X-36.439 Y14.8 E395.66792
G0 F18000 X-36.439 Y14.4
G1 F720 X-75.059 Y14.4 E397.59468
G0 F18000 X-75.059 Y14
G1 F720 X-36.439 Y14 E399.52144
G0 F18000 X-36.439 Y13.6
G1 F720 X-75.059 Y13.6 E401.4482
G0 F18000 X-75.059 Y13.2
G1 F720 X-36.439 Y13.2 E403.37496
G0 F18000 X-36.439 Y12.8
G1 F720 X-75.059 Y12.8 E405.30172
G0 F18000 X-75.059 Y12.4
G1 F720 X-36.439 Y12.4 E407.22847
G0 F18000 X-36.439 Y12
G1 F720 X-75.059 Y12 E409.15523
G0 F18000 X-75.059 Y11.6
G1 F720 X-36.439 Y11.6 E411.08199
G0 F18000 X-36.439 Y11.2
G1 F720 X-75.059 Y11.2 E413.00875
G0 F18000 X-75.059 Y10.8
G1 F720 X75.06 Y10.799 E420.49822
G0 F18000 X75.06 Y11.199
G1 F720 X11.44 Y11.2 E423.67224
G0 F18000 X11.44 Y11.6
G1 F720 X75.06 Y11.599 E426.84625
G0 F18000 X75.06 Y11.999
G1 F720 X11.44 Y12 E430.02027
G0 F18000 X11.44 Y12.4
G1 F720 X75.06 Y12.399 E433.19428
G0 F18000 X75.06 Y12.799
G1 F720 X11.44 Y12.8 E436.36829
G0 F18000 X11.44 Y13.2
G1 F720 X75.06 Y13.199 E439.54231
G0 F18000 X75.06 Y13.599
G1 F720 X11.44 Y13.6 E442.71632
G0 F18000 X11.44 Y14
G1 F720 X75.06 Y13.999 E445.89034
G0 F18000 X75.06 Y14.399
G1 F720 X11.44 Y14.4 E449.06435
G0 F18000 X11.44 Y14.8
G1 F720 X75.06 Y14.799 E452.23837
G0 F18000 X75.06 Y15.199
G1 F720 X11.44 Y15.2 E455.41238
G0 F18000 X11.44 Y15.6
G1 F720 X75.06 Y15.599 E458.5864
G0 F18000 X75.06 Y15.999
G1 F720 X11.44 Y16 E461.76041
G0 F18000 X11.44 Y16.4
G1 F720 X75.06 Y16.399 E464.93443
G0 F18000 X75.06 Y16.799
G1 F720 X11.44 Y16.8 E468.10844
G0 F18000 X11.44 Y17.2
G1 F720 X75.06 Y17.199 E471.28246
G0 F18000 X75.06 Y17.599
G1 F720 X11.44 Y17.6 E474.45647
G0 F18000 X11.44 Y18
G1 F720 X75.06 Y17.999 E477.63049
G0 F18000 X75.06 Y18.399
G1 F720 X11.44 Y18.4 E480.8045
G0 F18000 X11.44 Y18.8
G1 F720 X75.06 Y18.799 E483.97851
G0 F18000 X75.06 Y19.199
G1 F720 X11.44 Y19.2 E487.15253
G0 F18000 X11.44 Y19.6
G1 F720 X75.06 Y19.599 E490.32654
G0 F18000 X75.06 Y19.999
G1 F720 X11.44 Y20 E493.50056
G0 F18000 X11.44 Y20.4
G1 F720 X75.06 Y20.399 E496.67457
G0 F18000 X75.06 Y20.799
G1 F720 X11.44 Y20.8 E499.84859
G0 F18000 X11.44 Y21.2
G1 F720 X75.06 Y21.199 E503.0226
G0 F18000 X75.06 Y10.399
G0 X75.06 Y10.399
G1 F720 X-75.059 Y10.4 E510.51207
G0 F18000 X-75.059 Y10
G1 F720 X75.06 Y9.999 E518.00154
G0 F18000 X75.06 Y9.599
G1 F720 X-75.059 Y9.6 E525.491
G0 F18000 X-75.059 Y9.2
G1 F720 X75.06 Y9.199 E532.98047
G0 F18000 X75.06 Y8.799
G1 F720 X-75.059 Y8.8 E540.46994
G0 F18000 X-75.059 Y8.4
G1 F720 X75.06 Y8.399 E547.95941
G0 F18000 X75.06 Y7.999
G1 F720 X-75.059 Y8 E555.44887
G0 F18000 X-75.059 Y7.6
G1 F720 X75.06 Y7.599 E562.93834
G0 F18000 X75.06 Y7.199
G1 F720 X-75.059 Y7.2 E570.42781
G0 F18000 X-75.059 Y6.8
G1 F720 X75.06 Y6.799 E577.91728
G0 F18000 X75.06 Y6.399
G1 F720 X-75.059 Y6.4 E585.40674
G0 F18000 X-75.059 Y6
G1 F720 X75.06 Y5.999 E592.89621
G0 F18000 X75.06 Y5.599
G1 F720 X-75.059 Y5.6 E600.38568
G0 F18000 X-75.059 Y5.2
G1 F720 X75.06 Y5.199 E607.87515
G0 F18000 X75.06 Y4.799
G1 F720 X-75.059 Y4.8 E615.36461
G0 F18000 X-75.059 Y4.4
G1 F720 X75.06 Y4.399 E622.85408
G0 F18000 X75.06 Y3.999
G1 F720 X-75.059 Y4 E630.34355
G0 F18000 X-75.059 Y3.6
G1 F720 X75.06 Y3.599 E637.83301
G0 F18000 X75.06 Y3.199
G1 F720 X-75.059 Y3.2 E645.32248
G0 F18000 X-75.059 Y2.8
G1 F720 X75.06 Y2.799 E652.81195
G0 F18000 X75.06 Y2.399
G1 F720 X-75.059 Y2.4 E660.30142
G0 F18000 X-75.059 Y2
G1 F720 X75.06 Y1.999 E667.79088
G0 F18000 X75.06 Y1.599
G1 F720 X-75.059 Y1.6 E675.28035
G0 F18000 X-75.059 Y1.2
G1 F720 X75.06 Y1.199 E682.76982
G0 F18000 X75.06 Y0.799
G1 F720 X-75.059 Y0.8 E690.25929
G0 F18000 X-75.059 Y0.4
G1 F720 X75.06 Y0.399 E697.74875
G0 F18000 X75.06 Y0
G1 F720 X-75.059 Y0 E705.23822
G0 F18000 X-75.059 Y-0.399
G1 F720 X75.06 Y-0.4 E712.72769
G0 F18000 X75.06 Y-0.8
G1 F720 X-75.059 Y-0.799 E720.21716
G0 F18000 X-75.059 Y-1.199
G1 F720 X75.06 Y-1.2 E727.70662
G0 F18000 X75.06 Y-1.6
G1 F720 X-75.059 Y-1.599 E735.19609
G0 F18000 X-75.059 Y-1.999
G1 F720 X75.06 Y-2 E742.68556
G0 F18000 X75.06 Y-2.4
G1 F720 X-75.059 Y-2.399 E750.17502
G0 F18000 X-75.059 Y-2.799
G1 F720 X75.06 Y-2.8 E757.66449
G0 F18000 X75.06 Y-3.2
G1 F720 X-75.059 Y-3.199 E765.15396
G0 F18000 X-75.059 Y-3.599
G1 F720 X-50.742 Y-3.599 E766.36714
G0 F18000 X-52.024 Y-3.999
G1 F720 X-75.059 Y-3.999 E767.51636
G0 F18000 X-75.059 Y-4.399
G1 F720 X-52.74 Y-4.399 E768.62986
G0 F18000 X-53.209 Y-4.799
G1 F720 X-75.059 Y-4.799 E769.71996
G0 F18000 X-75.059 Y-5.199
G1 F720 X-53.617 Y-5.199 E770.78971
G0 F18000 X-53.891 Y-5.599
G1 F720 X-75.059 Y-5.599 E771.84578
G0 F18000 X-75.059 Y-5.999
G1 F720 X-54.165 Y-5.999 E772.88819
G0 F18000 X-54.338 Y-6.399
G1 F720 X-75.059 Y-6.399 E773.92196
G0 F18000 X-75.059 Y-6.799
G1 F720 X-54.48 Y-6.799 E774.94865
G0 F18000 X-54.622 Y-7.199
G1 F720 X-75.059 Y-7.199 E775.96826
G0 F18000 X-75.059 Y-7.599
G1 F720 X-54.671 Y-7.599 E776.98542
G0 F18000 X-54.701 Y-7.999
G1 F720 X-75.059 Y-7.999 E778.00109
G0 F18000 X-75.059 Y-8.399
G1 F720 X-54.732 Y-8.399 E779.0152
G0 F18000 X-54.685 Y-8.799
G1 F720 X-75.059 Y-8.799 E780.03167
G0 F18000 X-75.059 Y-9.199
G1 F720 X-54.61 Y-9.199 E781.05187
G0 F18000 X-54.536 Y-9.599
G1 F720 X-75.059 Y-9.599 E782.07577
G0 F18000 X-75.059 Y-9.999
G1 F720 X-54.38 Y-9.999 E783.10745
G0 F18000 X-54.189 Y-10.399
G1 F720 X-75.059 Y-10.399 E784.14866
G0 F18000 X-75.059 Y-10.799
G1 F720 X-53.997 Y-10.799 E785.19944
G0 F18000 X-53.67 Y-11.199
G1 F720 X-75.059 Y-11.199 E786.26655
G0 F18000 X-75.059 Y-11.599
G1 F720 X-53.328 Y-11.599 E787.35071
G0 F18000 X-52.854 Y-11.999
G1 F720 X-75.059 Y-11.999 E788.45852
G0 F18000 X-75.059 Y-12.399
G1 F720 X-52.271 Y-12.399 E789.59542
G0 F18000 X-51.251 Y-12.799
G1 F720 X-75.059 Y-12.799 E790.7832
G0 F18000 X-75.059 Y-13.199
G1 F720 X75.06 Y-13.2 E798.27267
G0 F18000 X75.06 Y-12.8
G1 F720 X51.255 Y-12.8 E799.46031
G0 F18000 X52.276 Y-12.4
G1 F720 X75.06 Y-12.4 E800.59701
G0 F18000 X75.06 Y-12
G1 F720 X52.852 Y-12 E801.70497
G0 F18000 X53.33 Y-11.6
G1 F720 X75.06 Y-11.6 E802.78908
G0 F18000 X75.06 Y-11.2
G1 F720 X53.669 Y-11.2 E803.85628
G0 F18000 X54.002 Y-10.8
G1 F720 X75.06 Y-10.8 E804.90687
G0 F18000 X75.06 Y-10.4
G1 F720 X54.19 Y-10.4 E805.94808
G0 F18000 X54.378 Y-10
G1 F720 X75.06 Y-10 E806.97991
G0 F18000 X75.06 Y-9.6
G1 F720 X54.539 Y-9.6 E808.00371
G0 F18000 X54.612 Y-9.2
G1 F720 X75.06 Y-9.2 E809.02386
G0 F18000 X75.06 Y-8.8
G1 F720 X54.684 Y-8.8 E810.04042
G0 F18000 X54.737 Y-8.4
G1 F720 X75.06 Y-8.4 E811.05434
G0 F18000 X75.06 Y-8
G1 F720 X54.703 Y-8 E812.06996
G0 F18000 X54.669 Y-7.6
G1 F720 X75.06 Y-7.6 E813.08727
G0 F18000 X75.06 Y-7.2
G1 F720 X54.625 Y-7.2 E814.10677
G0 F18000 X54.482 Y-6.8
G1 F720 X75.06 Y-6.8 E815.13342
G0 F18000 X75.06 Y-6.4
G1 F720 X54.339 Y-6.4 E816.16719
G0 F18000 X54.171 Y-6
G1 F720 X75.06 Y-6 E817.20935
G0 F18000 X75.06 Y-5.6
G1 F720 X53.893 Y-5.6 E818.26537
G0 F18000 X53.615 Y-5.2
G1 F720 X75.06 Y-5.2 E819.33527
G0 F18000 X75.06 Y-4.8
G1 F720 X53.211 Y-4.8 E820.42532
G0 F18000 X52.739 Y-4.4
G1 F720 X75.06 Y-4.4 E821.53892
G0 F18000 X75.06 Y-4
G1 F720 X52.027 Y-4 E822.68804
G0 F18000 X50.743 Y-3.6
G1 F720 X75.06 Y-3.6 E823.90122
G0 F18000 X75.06 Y-13.6
G0 X75.06 Y-13.6
G1 F720 X-75.059 Y-13.599 E831.39069
G0 F18000 X-75.059 Y-13.999
G1 F720 X75.06 Y-14 E838.88015
G0 F18000 X75.06 Y-14.4
G1 F720 X-75.059 Y-14.399 E846.36962
G0 F18000 X-75.059 Y-14.799
G1 F720 X75.06 Y-14.8 E853.85909
G0 F18000 X75.06 Y-15.2
G1 F720 X-75.059 Y-15.199 E861.34856
G0 F18000 X-75.059 Y-15.599
G1 F720 X75.06 Y-15.6 E868.83802
G0 F18000 X75.06 Y-16
G1 F720 X-75.059 Y-15.999 E876.32749
G0 F18000 X-75.059 Y-16.399
G1 F720 X75.06 Y-16.4 E883.81696
G0 F18000 X75.06 Y-16.8
G1 F720 X-75.059 Y-16.799 E891.30643
G0 F18000 X-75.059 Y-17.199
G1 F720 X75.06 Y-17.2 E898.79589
G0 F18000 X75.06 Y-17.6
G1 F720 X-75.059 Y-17.599 E906.28536
G0 F18000 X-75.059 Y-17.999
G1 F720 X75.06 Y-18 E913.77483
G0 F18000 X75.06 Y-18.4
G1 F720 X-75.059 Y-18.399 E921.26429
G0 F18000 X-75.059 Y-18.799
G1 F720 X75.06 Y-18.8 E928.75376
G0 F18000 X75.06 Y-19.2
G1 F720 X-75.059 Y-19.199 E936.24323
G0 F18000 X-75.059 Y-19.599
G1 F720 X75.06 Y-19.6 E943.7327
G0 F18000 X75.06 Y-20
G1 F720 X-75.059 Y-19.999 E951.22216
G0 F18000 X-75.059 Y-20.399
G1 F720 X75.06 Y-20.4 E958.71163
G0 F18000 X75.06 Y-20.8
G1 F720 X-75.059 Y-20.799 E966.2011
G0 F18000 X-75.059 Y-21.199
G1 F720 X75.06 Y-21.2 E973.69057
G0 F18000 X75.06 Y-21.6
G1 F720 X-75.059 Y-21.599 E981.18003
G0 F18000 X-75.059 Y-21.999
G1 F720 X75.06 Y-22 E988.6695
G0 F18000 X75.06 Y-22.4
G1 F720 X-75.059 Y-22.399 E996.15897
G0 F18000 X-75.059 Y-22.799
G1 F720 X75.06 Y-22.8 E1003.64844
G0 F18000 X75.06 Y-23.2
G1 F720 X-75.059 Y-23.199 E1011.1379
G0 F18000 X-75.059 Y-23.599
G1 F720 X75.06 Y-23.6 E1018.62737
G0 F18000 X75.06 Y-24
G1 F720 X-75.059 Y-23.999 E1026.11684
G0 F18000 X-75.059 Y-24.399
G1 F720 X75.06 Y-24.4 E1033.6063
G0 F18000 X75.06 Y-24.8
G1 F720 X-75.059 Y-24.799 E1041.09577
G0 F18000 X-75.059 Y-25.199
G1 F720 X75.06 Y-25.2 E1048.58524
G0 F18000 X75.06 Y-25.6
G1 F720 X-75.059 Y-25.599 E1056.07471
G0 F18000 X-75.059 Y-25.999
G1 F720 X75.06 Y-26 E1063.56417
G0 F18000 X75.06 Y-26.4
G1 F720 X51.878 Y-26.4 E1064.72073
G0 F18000 X52.581 Y-26.8
G1 F720 X75.06 Y-26.8 E1065.84221
G0 F18000 X75.06 Y-27.2
G1 F720 X53.106 Y-27.2 E1066.9375
G0 F18000 X53.512 Y-27.6
G1 F720 X75.06 Y-27.6 E1068.01253
G0 F18000 X75.06 Y-28
G1 F720 X53.846 Y-28 E1069.0709
G0 F18000 X54.08 Y-28.4
G1 F720 X75.06 Y-28.4 E1070.1176
G0 F18000 X75.06 Y-28.8
G1 F720 X54.315 Y-28.8 E1071.15257
G0 F18000 X54.457 Y-29.2
G1 F720 X75.06 Y-29.2 E1072.18046
G0 F18000 X75.06 Y-29.6
G1 F720 X54.566 Y-29.6 E1073.20291
G0 F18000 X54.676 Y-30
G1 F720 X75.06 Y-30 E1074.21987
G0 F18000 X75.06 Y-30.4
G1 F720 X54.705 Y-30.4 E1075.23539
G0 F18000 X54.708 Y-30.8
G1 F720 X75.06 Y-30.8 E1076.25075
G0 F18000 X75.06 Y-31.2
G1 F720 X54.711 Y-31.2 E1077.26597
G0 F18000 X54.643 Y-31.6
G1 F720 X75.06 Y-31.6 E1078.28458
G0 F18000 X75.06 Y-32
G1 F720 X54.539 Y-32 E1079.30837
G0 F18000 X54.435 Y-32.4
G1 F720 X75.06 Y-32.4 E1080.33736
G0 F18000 X75.06 Y-32.8
G1 F720 X54.249 Y-32.8 E1081.37562
G0 F18000 X54.022 Y-33.2
G1 F720 X75.06 Y-33.2 E1082.42521
G0 F18000 X75.06 Y-33.6
G1 F720 X53.796 Y-33.6 E1083.48608
G0 F18000 X53.407 Y-34
G1 F720 X75.06 Y-34 E1084.56635
G0 F18000 X75.06 Y-34.4
G1 F720 X53.012 Y-34.4 E1085.66633
G0 F18000 X52.399 Y-34.8
G1 F720 X75.06 Y-34.8 E1086.79689
G0 F18000 X75.06 Y-35.2
G1 F720 X51.569 Y-35.2 E1087.96886
G0 F18000 X48.409 Y-35.2
G0 X48.409 Y-35.2
G1 F720 X1.581 Y-35.2 E1090.30512
G0 F18000 X2.471 Y-34.8
G1 F720 X47.598 Y-34.8 E1092.55652
G0 F18000 X46.997 Y-34.4
G1 F720 X2.972 Y-34.4 E1094.75293
G0 F18000 X3.458 Y-34
G1 F720 X46.592 Y-34 E1096.9049
G0 F18000 X46.214 Y-33.6
G1 F720 X3.747 Y-33.6 E1099.02359
G0 F18000 X4.036 Y-33.2
G1 F720 X45.98 Y-33.2 E1101.11618
G0 F18000 X45.745 Y-32.8
G1 F720 X4.256 Y-32.8 E1103.18607
G0 F18000 X4.409 Y-32.4
G1 F720 X45.572 Y-32.4 E1105.2397
G0 F18000 X45.462 Y-32
G1 F720 X4.561 Y-32 E1107.28026
G0 F18000 X4.645 Y-31.6
G1 F720 X45.352 Y-31.6 E1109.31114
G0 F18000 X45.296 Y-31.2
G1 F720 X4.685 Y-31.2 E1111.33724
G0 F18000 X4.725 Y-30.8
G1 F720 X45.293 Y-30.8 E1113.36118
G0 F18000 X45.29 Y-30.4
G1 F720 X4.711 Y-30.4 E1115.38568
G0 F18000 X4.647 Y-30
G1 F720 X45.33 Y-30 E1117.41536
G0 F18000 X45.434 Y-29.6
G1 F720 X4.583 Y-29.6 E1119.45342
G0 F18000 X4.464 Y-29.2
G1 F720 X45.539 Y-29.2 E1121.50266
G0 F18000 X45.692 Y-28.8
G1 F720 X4.284 Y-28.8 E1123.56852
G0 F18000 X4.105 Y-28.4
G1 F720 X45.92 Y-28.4 E1125.65468
G0 F18000 X46.147 Y-28
G1 F720 X3.832 Y-28 E1127.76578
G0 F18000 X3.505 Y-27.6
G1 F720 X46.493 Y-27.6 E1129.91046
G0 F18000 X46.888 Y-27.2
G1 F720 X3.123 Y-27.2 E1132.0939
G0 F18000 X2.57 Y-26.8
G1 F720 X47.426 Y-26.8 E1134.33178
G0 F18000 X48.108 Y-26.4
G1 F720 X1.807 Y-26.4 E1136.64175
G0 F18000 X-1.802 Y-26.4
G1 F720 X-23.179 Y-26.4 E1137.70825
G0 F18000 X-22.365 Y-26.8
G1 F720 X-2.601 Y-26.8 E1138.69428
G0 F18000 X-3.093 Y-27.2
G1 F720 X-21.906 Y-27.2 E1139.63286
G0 F18000 X-21.447 Y-27.6
G1 F720 X-3.53 Y-27.6 E1140.52675
G0 F18000 X-3.818 Y-28
G1 F720 X-21.175 Y-28 E1141.39269
G0 F18000 X-20.907 Y-28.4
G1 F720 X-4.106 Y-28.4 E1142.2309
G0 F18000 X-4.292 Y-28.8
G1 F720 X-20.691 Y-28.8 E1143.04904
G0 F18000 X-20.553 Y-29.2
G1 F720 X-4.445 Y-29.2 E1143.85268
G0 F18000 X-4.598 Y-29.6
G1 F720 X-20.416 Y-29.6 E1144.64184
G0 F18000 X-20.33 Y-30
G1 F720 X-4.653 Y-30 E1145.42397
G0 F18000 X-4.694 Y-30.4
G1 F720 X-20.303 Y-30.4 E1146.2027
G0 F18000 X-20.277 Y-30.8
G1 F720 X-4.734 Y-30.8 E1146.97815
G0 F18000 X-4.693 Y-31.2
G1 F720 X-20.29 Y-31.2 E1147.75629
G0 F18000 X-20.368 Y-31.6
G1 F720 X-4.63 Y-31.6 E1148.54146
G0 F18000 X-4.566 Y-32
G1 F720 X-20.446 Y-32 E1149.33371
G0 F18000 X-20.564 Y-32.4
G1 F720 X-4.417 Y-32.4 E1150.13929
G0 F18000 X-4.237 Y-32.8
G1 F720 X-20.76 Y-32.8 E1150.96363
G0 F18000 X-20.956 Y-33.2
G1 F720 X-4.057 Y-33.2 E1151.80672
G0 F18000 X-3.746 Y-33.6
G1 F720 X-21.236 Y-33.6 E1152.6793
G0 F18000 X-21.586 Y-34
G1 F720 X-3.421 Y-34 E1153.58556
G0 F18000 X-2.982 Y-34.4
G1 F720 X-21.99 Y-34.4 E1154.53387
G0 F18000 X-22.587 Y-34.8
G1 F720 X-2.429 Y-34.8 E1155.53956
G0 F18000 X-1.541 Y-35.2
G1 F720 X-23.465 Y-35.2 E1156.63335
G0 F18000 X-26.612 Y-35.2
G0 X-26.612 Y-35.2
G1 F720 X-48.36 Y-35.2 E1157.71836
G0 F18000 X-47.581 Y-34.8
G1 F720 X-27.429 Y-34.8 E1158.72375
G0 F18000 X-27.975 Y-34.4
G1 F720 X-47.018 Y-34.4 E1159.67381
G0 F18000 X-46.576 Y-34
G1 F720 X-28.434 Y-34 E1160.57892
G0 F18000 X-28.755 Y-33.6
G1 F720 X-46.236 Y-33.6 E1161.45105
G0 F18000 X-45.977 Y-33.2
G1 F720 X-29.023 Y-33.2 E1162.29688
G0 F18000 X-29.272 Y-32.8
G1 F720 X-45.717 Y-32.8 E1163.11733
G0 F18000 X-45.584 Y-32.399
G1 F720 X-29.409 Y-32.4 E1163.9243
G0 F18000 X-29.545 Y-32
G1 F720 X-45.455 Y-31.999 E1164.71806
G0 F18000 X-45.329 Y-31.599
G1 F720 X-29.659 Y-31.6 E1165.49984
G0 F18000 X-29.686 Y-31.2
G1 F720 X-45.308 Y-31.199 E1166.27922
G0 F18000 X-45.288 Y-30.799
G1 F720 X-29.712 Y-30.799 E1167.05631
G0 F18000 X-29.726 Y-30.399
G1 F720 X-45.268 Y-30.399 E1167.8317
G0 F18000 X-45.345 Y-29.999
G1 F720 X-29.648 Y-30 E1168.61483
G0 F18000 X-29.57 Y-29.6
G1 F720 X-45.431 Y-29.599 E1169.40614
G0 F18000 X-45.518 Y-29.199
G1 F720 X-29.483 Y-29.2 E1170.20613
G0 F18000 X-29.287 Y-28.8
G1 F720 X-45.708 Y-28.799 E1171.02537
G0 F18000 X-45.913 Y-28.399
G1 F720 X-29.09 Y-28.4 E1171.86468
G0 F18000 X-28.849 Y-28
G1 F720 X-46.139 Y-27.999 E1172.72728
G0 F18000 X-46.5 Y-27.599
G1 F720 X-28.5 Y-27.6 E1173.6253
G0 F18000 X-28.15 Y-27.2
G1 F720 X-46.862 Y-27.199 E1174.55885
G0 F18000 X-47.436 Y-26.799
G1 F720 X-27.562 Y-26.8 E1175.55037
G0 F18000 X-26.828 Y-26.4
G1 F720 X-48.146 Y-26.399 E1176.61393
G0 F18000 X-51.834 Y-26.399
G0 X-51.834 Y-26.399
G1 F720 X-75.059 Y-26.399 E1177.77263
G0 F18000 X-75.059 Y-26.799
G1 F720 X-52.614 Y-26.799 E1178.89241
G0 F18000 X-53.091 Y-27.199
G1 F720 X-75.059 Y-27.199 E1179.9884
G0 F18000 X-75.059 Y-27.599
G1 F720 X-53.534 Y-27.599 E1181.06229
G0 F18000 X-53.827 Y-27.999
G1 F720 X-75.059 Y-27.999 E1182.12155
G0 F18000 X-75.059 Y-28.399
G1 F720 X-54.086 Y-28.399 E1183.1679
G0 F18000 X-54.317 Y-28.799
G1 F720 X-75.059 Y-28.799 E1184.20272
G0 F18000 X-75.059 Y-29.199
G1 F720 X-54.446 Y-29.199 E1185.23111
G0 F18000 X-54.575 Y-29.599
G1 F720 X-75.059 Y-29.599 E1186.25306
G0 F18000 X-75.059 Y-29.999
G1 F720 X-54.674 Y-29.999 E1187.27007
G0 F18000 X-54.695 Y-30.399
G1 F720 X-75.059 Y-30.399 E1188.28604
G0 F18000 X-75.059 Y-30.799
G1 F720 X-54.715 Y-30.799 E1189.301
G0 F18000 X-54.717 Y-31.199
G1 F720 X-75.059 Y-31.199 E1190.31587
G0 F18000 X-75.059 Y-31.599
G1 F720 X-54.631 Y-31.599 E1191.33503
G0 F18000 X-54.545 Y-31.999
G1 F720 X-75.059 Y-31.999 E1192.35848
G0 F18000 X-75.059 Y-32.399
G1 F720 X-54.443 Y-32.399 E1193.38701
G0 F18000 X-54.238 Y-32.8
G1 F720 X-75.059 Y-32.799 E1194.42578
G0 F18000 X-75.059 Y-33.199
G1 F720 X-54.034 Y-33.2 E1195.47472
G0 F18000 X-53.769 Y-33.6
G1 F720 X-75.059 Y-33.599 E1196.53688
G0 F18000 X-75.059 Y-33.999
G1 F720 X-53.406 Y-34 E1197.61715
G0 F18000 X-53.021 Y-34.4
G1 F720 X-75.059 Y-34.399 E1198.71663
G0 F18000 X-75.059 Y-34.799
G1 F720 X-52.404 Y-34.8 E1199.8469
G0 F18000 X-51.537 Y-35.2
G1 F720 X-75.059 Y-35.199 E1201.02041
G0 F18000 X-75.059 Y-35.599
G1 F720 X75.06 Y-35.6 E1208.50988
G0 F18000 X75.06 Y-36
G1 F720 X-75.059 Y-35.999 E1215.99935
G0 F18000 X-75.059 Y-36.399
G1 F720 X75.06 Y-36.4 E1223.48881
G0 F18000 X75.06 Y-36.8
G1 F720 X-75.059 Y-36.799 E1230.97828
G0 F18000 X-75.059 Y-37.199
G1 F720 X75.06 Y-37.2 E1238.46775
G0 F18000 X75.06 Y-37.6
G1 F720 X-75.059 Y-37.599 E1245.95722
G0 F18000 X-75.059 Y-37.999
G1 F720 X75.06 Y-38 E1253.44668
G0 F18000 X75.06 Y-38.4
G1 F720 X-75.059 Y-38.399 E1260.93615
G0 F18000 X-75.059 Y-38.799
G1 F720 X75.06 Y-38.8 E1268.42562
G0 F18000 X75.06 Y-39.2
G1 F720 X-75.059 Y-39.199 E1275.91509
G0 F18000 X-75.059 Y-39.599
G1 F720 X75.06 Y-39.6 E1283.40455
G0 F18000 X75.06 Y-40
G1 F720 X-75.059 Y-39.999 E1290.89402
G0 F18000 X-75.059 Y-40.399
G1 F720 X75.06 Y-40.4 E1298.38349
G0 F18000 X75.06 Y-40.8
G1 F720 X-75.059 Y-40.799 E1305.87295
G0 F18000 X-75.059 Y-41.199
G1 F720 X75.06 Y-41.2 E1313.36242
G0 F18000 X75.06 Y-41.6
G1 F720 X-75.059 Y-41.599 E1320.85189
G0 F18000 X-75.059 Y-41.999
G1 F720 X75.06 Y-42 E1328.34136
G0 F18000 X75.06 Y-42.4
G1 F720 X-75.059 Y-42.399 E1335.83082
G0 F18000 X-48.722 Y-12.799
G0 X-48.722 Y-12.799
G1 F720 X-26.289 Y-12.799 E1336.95001
G0 F18000 X-27.3 Y-12.399
G1 F720 X-47.767 Y-12.399 E1337.97111
G0 F18000 X-47.142 Y-11.999
G1 F720 X-27.845 Y-11.999 E1338.93385
G0 F18000 X-28.346 Y-11.599
G1 F720 X-46.673 Y-11.599 E1339.84818
G0 F18000 X-46.313 Y-11.199
G1 F720 X-28.666 Y-11.199 E1340.7286
G0 F18000 X-28.987 Y-10.799
G1 F720 X-46.039 Y-10.799 E1341.57932
G0 F18000 X-45.767 Y-10.399
G1 F720 X-29.196 Y-10.399 E1342.40605
G0 F18000 X-29.371 Y-9.999
G1 F720 X-45.625 Y-9.999 E1343.21697
G0 F18000 X-45.483 Y-9.599
G1 F720 X-29.546 Y-9.599 E1344.01207
G0 F18000 X-29.615 Y-9.199
G1 F720 X-45.351 Y-9.199 E1344.79714
G0 F18000 X-45.32 Y-8.799
G1 F720 X-29.676 Y-8.799 E1345.57762
G0 F18000 X-29.738 Y-8.399
G1 F720 X-45.289 Y-8.399 E1346.35347
G0 F18000 X-45.258 Y-7.999
G1 F720 X-29.707 Y-7.999 E1347.12931
G0 F18000 X-29.663 Y-7.599
G1 F720 X-45.332 Y-7.599 E1347.91104
G0 F18000 X-45.406 Y-7.199
G1 F720 X-29.619 Y-7.199 E1348.69865
G0 F18000 X-29.486 Y-6.799
G1 F720 X-45.481 Y-6.799 E1349.49665
G0 F18000 X-45.665 Y-6.399
G1 F720 X-29.331 Y-6.399 E1350.31156
G0 F18000 X-29.175 Y-5.999
G1 F720 X-45.857 Y-5.999 E1351.14382
G0 F18000 X-46.071 Y-5.599
G1 F720 X-28.894 Y-5.599 E1352.00079
G0 F18000 X-28.6 Y-5.199
G1 F720 X-46.413 Y-5.199 E1352.88948
G0 F18000 X-46.754 Y-4.799
G1 F720 X-28.221 Y-4.799 E1353.8141
G0 F18000 X-27.723 Y-4.399
G1 F720 X-47.287 Y-4.399 E1354.79015
G0 F18000 X-47.896 Y-3.999
G1 F720 X-27.03 Y-3.999 E1355.83116
G0 F18000 X-25.735 Y-3.599
G1 F720 X-49.068 Y-3.599 E1356.99525
G0 F18000 X-24.213 Y-3.599
G0 X-24.213 Y-3.599
G1 F720 X-0.841 Y-3.6 E1358.16128
G0 F18000 X-2.056 Y-4
G1 F720 X-22.94 Y-3.999 E1359.20319
G0 F18000 X-22.288 Y-4.399
G1 F720 X-2.742 Y-4.4 E1360.17834
G0 F18000 X-3.207 Y-4.8
G1 F720 X-21.744 Y-4.799 E1361.10316
G0 F18000 X-21.411 Y-5.199
G1 F720 X-3.604 Y-5.2 E1361.99155
G0 F18000 X-3.906 Y-5.6
G1 F720 X-21.089 Y-5.599 E1362.84881
G0 F18000 X-20.845 Y-5.999
G1 F720 X-4.135 Y-6 E1363.68248
G0 F18000 X-4.363 Y-6.4
G1 F720 X-20.67 Y-6.399 E1364.49604
G0 F18000 X-20.495 Y-6.799
G1 F720 X-4.484 Y-6.8 E1365.29483
G0 F18000 X-4.589 Y-7.2
G1 F720 X-20.398 Y-7.199 E1366.08354
G0 F18000 X-20.337 Y-7.599
G1 F720 X-4.695 Y-7.6 E1366.86393
G0 F18000 X-4.706 Y-8
G1 F720 X-20.276 Y-7.999 E1367.64072
G0 F18000 X-20.281 Y-8.399
G1 F720 X-4.705 Y-8.4 E1368.41781
G0 F18000 X-4.703 Y-8.8
G1 F720 X-20.324 Y-8.799 E1369.19714
G0 F18000 X-20.368 Y-9.199
G1 F720 X-4.617 Y-9.2 E1369.98296
G0 F18000 X-4.509 Y-9.6
G1 F720 X-20.473 Y-9.599 E1370.77941
G0 F18000 X-20.629 Y-9.999
G1 F720 X-4.4 Y-10 E1371.58908
G0 F18000 X-4.193 Y-10.4
G1 F720 X-20.785 Y-10.399 E1372.41686
G0 F18000 X-21.031 Y-10.799
G1 F720 X-3.96 Y-10.8 E1373.26853
G0 F18000 X-3.709 Y-11.2
G1 F720 X-21.324 Y-11.199 E1374.14735
G0 F18000 X-21.651 Y-11.599
G1 F720 X-3.304 Y-11.6 E1375.06268
G0 F18000 X-2.9 Y-12
G1 F720 X-22.151 Y-11.999 E1376.02312
G0 F18000 X-22.743 Y-12.399
G1 F720 X-2.222 Y-12.4 E1377.04692
G0 F18000 X-1.203 Y-12.8
G1 F720 X-23.654 Y-12.799 E1378.167
G0 F18000 X1.204 Y-12.8
G0 X1.204 Y-12.8
G1 F720 X48.72 Y-12.8 E1380.53758
G0 F18000 X47.768 Y-12.4
G1 F720 X2.226 Y-12.4 E1382.80968
G0 F18000 X2.909 Y-12
G1 F720 X47.147 Y-12 E1385.01673
G0 F18000 X46.674 Y-11.6
G1 F720 X3.306 Y-11.6 E1387.18037
G0 F18000 X3.703 Y-11.2
G1 F720 X46.318 Y-11.2 E1389.30644
G0 F18000 X46.04 Y-10.8
G1 F720 X3.963 Y-10.8 E1391.40567
G0 F18000 X4.192 Y-10.4
G1 F720 X45.77 Y-10.4 E1393.48
G0 F18000 X45.627 Y-10
G1 F720 X4.406 Y-10 E1395.53653
G0 F18000 X4.512 Y-9.6
G1 F720 X45.483 Y-9.6 E1397.58058
G0 F18000 X45.357 Y-9.2
G1 F720 X4.617 Y-9.2 E1399.6131
G0 F18000 X4.709 Y-8.8
G1 F720 X45.323 Y-8.8 E1401.63934
G0 F18000 X45.289 Y-8.4
G1 F720 X4.708 Y-8.4 E1403.66394
G0 F18000 X4.706 Y-8
G1 F720 X45.261 Y-8 E1405.68724
G0 F18000 X45.334 Y-7.6
G1 F720 X4.701 Y-7.6 E1407.71442
G0 F18000 X4.593 Y-7.2
G1 F720 X45.406 Y-7.2 E1409.75059
G0 F18000 X45.479 Y-6.8
G1 F720 X4.484 Y-6.8 E1411.79584
G0 F18000 X4.371 Y-6.4
G1 F720 X45.668 Y-6.4 E1413.85616
G0 F18000 X45.857 Y-6
G1 F720 X4.138 Y-6 E1415.93753
G0 F18000 X3.904 Y-5.6
G1 F720 X46.076 Y-5.6 E1418.0415
G0 F18000 X46.414 Y-5.2
G1 F720 X3.61 Y-5.2 E1420.177
G0 F18000 X3.206 Y-4.8
G1 F720 X46.752 Y-4.8 E1422.34952
G0 F18000 X47.287 Y-4.4
G1 F720 X2.749 Y-4.4 E1424.57153
G0 F18000 X2.05 Y-4
G1 F720 X47.9 Y-4 E1426.85899
G0 F18000 X49.108 Y-3.6
G1 F720 X0.828 Y-3.6 E1429.26769
G1 F6600 E1422.46769
G1 Z0.6
G0 F18000 X46.901 Y23.708
G0 X47.261 Y23.159
G0 X47.961 Y22.529
G0 X48.8 Y22.103
G0 X49.72 Y21.908
G0 X50.658 Y21.957
G0 X51.553 Y22.249
G0 X52.341 Y22.76
G0 X52.97 Y23.461
G0 X53.397 Y24.299
G0 X53.592 Y25.22
G0 X53.543 Y26.158
G0 X53.251 Y27.053
G0 X53.055 Y27.356
G0 X75.06 Y40.399
G0 X75.06 Y40.399
G1 Z0.3
G1 F6600 E1429.36769
G1 F720 X-75.059 Y40.4 E1436.85716
G0 F18000 X-75.059 Y40.8
G1 F720 X75.06 Y40.799 E1444.34662
G0 F18000 X75.06 Y41.199
G1 F720 X-75.059 Y41.2 E1451.83609
G0 F18000 X-75.059 Y41.6
G1 F720 X75.06 Y41.599 E1459.32556
G0 F18000 X75.06 Y41.999
G1 F720 X-75.059 Y42 E1466.81503
G0 F18000 X-75.059 Y42.4
G1 F720 X75.06 Y42.399 E1474.30449
; Layer Change GCode
; LAYER:1
G0 F18000 X-75.298 Y42.898 Z0.4
G0 X-75.698 Y42.9
G0 X-75.489 Y42.9
G0 X-75.489 Y42.9
G0 X-75.749 Y43.25
G0 X-75.749 Y43.25
G0 X-75.249 Y42.75
; TYPE:WALL-INNER
G1 F2400 X-75.249 Y42.75 E1474.30449
G1 X-75.249 Y-42.749 E1476.08181
G1 X75.25 Y-42.749 E1479.21032
G1 X75.25 Y42.75 E1480.98764
G1 X-75.249 Y42.75 E1484.11615
G0 F18000 X-75.749 Y43.25
; TYPE:WALL-OUTER
G1 F2100 X-75.749 Y43.25 E1484.11615
G1 X-75.749 Y-43.249 E1485.91426
G1 X75.75 Y-43.249 E1489.06355
G1 X75.75 Y43.25 E1490.86166
G1 X-75.749 Y43.25 E1494.01096
G0 F18000 X-75.489 Y42.9
G0 X-63.802 Y34.552
G0 X-63.802 Y34.552
; TYPE:WALL-INNER
G1 F2400 X-63.802 Y34.552 E1494.01096
G1 X-63.127 Y35.07 E1494.02864
G1 X-62.342 Y35.395 E1494.04631
G1 X-61.499 Y35.507 E1494.06398
G1 X-60.656 Y35.395 E1494.08166
G1 X-59.871 Y35.07 E1494.09932
G1 X-59.196 Y34.552 E1494.11701
G1 X-58.679 Y33.878 E1494.13467
G1 X-58.353 Y33.093 E1494.15234
G1 X-58.243 Y32.25 E1494.17001
G1 X-58.353 Y31.406 E1494.1877
G1 X-58.679 Y30.622 E1494.20535
G1 X-59.196 Y29.947 E1494.22303
G1 X-59.871 Y29.429 E1494.24072
G1 X-60.657 Y29.104 E1494.2584
G1 X-61.499 Y28.994 E1494.27605
G1 X-62.341 Y29.104 E1494.2937
G1 X-63.127 Y29.429 E1494.31138
G1 X-63.802 Y29.947 E1494.32907
G1 X-64.319 Y30.622 E1494.34674
G1 X-64.645 Y31.406 E1494.36439
G1 X-64.755 Y32.25 E1494.38209
G1 X-64.645 Y33.093 E1494.39976
G1 X-64.319 Y33.878 E1494.41743
G1 X-63.802 Y34.552 E1494.43509
G0 F18000 X-63.488 Y34.661
G0 X-62.328 Y35.344
G0 X-61.807 Y35.254
G0 X-61.544 Y35.348
G0 X-61.544 Y35.348
G0 X-61.499 Y35.002
; TYPE:WALL-OUTER
G1 F2100 X-61.499 Y35.002 E1494.43509
G1 X-60.787 Y34.908 E1494.45002
G1 X-60.123 Y34.633 E1494.46496
G1 X-59.553 Y34.195 E1494.4799
G1 X-59.116 Y33.626 E1494.49481
G1 X-58.84 Y32.962 E1494.50976
G1 X-58.747 Y32.25 E1494.52469
G1 X-58.84 Y31.537 E1494.53963
G1 X-59.116 Y30.874 E1494.55456
G1 X-59.553 Y30.304 E1494.56949
G1 X-60.123 Y29.866 E1494.58444
G1 X-60.787 Y29.591 E1494.59938
G1 X-61.499 Y29.498 E1494.6143
G1 X-62.211 Y29.591 E1494.62923
G1 X-62.875 Y29.866 E1494.64417
G1 X-63.445 Y30.304 E1494.65911
G1 X-63.882 Y30.874 E1494.67404
G1 X-64.158 Y31.537 E1494.68897
G1 X-64.251 Y32.25 E1494.70392
G1 X-64.158 Y32.962 E1494.71884
G1 X-63.882 Y33.626 E1494.73379
G1 X-63.445 Y34.195 E1494.74871
G1 X-62.875 Y34.633 E1494.76365
G1 X-62.211 Y34.908 E1494.77859
G1 X-61.499 Y35.002 E1494.79352
G0 F18000 X-61.544 Y35.348
G0 X-61.579 Y35.381
G0 X-60.67 Y35.344
G0 X-59.898 Y35.025
G0 X-59.233 Y34.515
G0 X-58.724 Y33.852
G0 X-58.404 Y33.079
G0 X-58.391 Y32.451
G0 X-53.113 Y27.6
G0 X-53.113 Y27.6
; TYPE:WALL-INNER
G1 F2400 X-53.113 Y27.6 E1494.79352
G1 X-52.463 Y28.334 E1494.8139
G1 X-51.646 Y28.876 E1494.83428
G1 X-50.716 Y29.187 E1494.85467
G1 X-49.737 Y29.247 E1494.87505
G1 X-48.777 Y29.051 E1494.89542
G1 X-47.899 Y28.614 E1494.91581
G1 X-47.164 Y27.964 E1494.93621
G1 X-46.623 Y27.147 E1494.95658
G1 X-46.311 Y26.217 E1494.97697
G1 X-46.251 Y25.238 E1494.99736
G1 X-46.447 Y24.277 E1495.01774
G1 X-46.885 Y23.399 E1495.03814
G1 X-47.533 Y22.665 E1495.05849
G1 X-48.351 Y22.123 E1495.07889
G1 X-49.282 Y21.812 E1495.0993
G1 X-50.261 Y21.752 E1495.11969
G1 X-51.221 Y21.948 E1495.14005
G1 X-52.099 Y22.385 E1495.16044
G1 X-52.834 Y23.035 E1495.18084
G1 X-53.375 Y23.852 E1495.20121
G1 X-53.687 Y24.782 E1495.2216
G1 X-53.747 Y25.761 E1495.24199
G1 X-53.551 Y26.722 E1495.26238
G1 X-53.113 Y27.6 E1495.28277
G0 F18000 X-52.742 Y27.765
G0 X-52.429 Y28.294
G0 X-51.622 Y28.828
G0 X-50.706 Y29.135
G0 X-49.862 Y29.059
G0 X-49.792 Y29.092
G0 X-49.792 Y29.092
G0 X-49.772 Y28.744
; TYPE:WALL-OUTER
G1 F2100 X-49.772 Y28.744 E1495.28277
G1 X-48.941 Y28.574 E1495.3004
G1 X-48.181 Y28.196 E1495.31805
G1 X-47.545 Y27.633 E1495.33571
G1 X-47.076 Y26.926 E1495.35334
G1 X-46.806 Y26.12 E1495.37101
G1 X-46.754 Y25.273 E1495.38865
G1 X-46.924 Y24.441 E1495.40631
G1 X-47.303 Y23.681 E1495.42396
G1 X-47.864 Y23.046 E1495.44157
G1 X-48.572 Y22.576 E1495.45924
G1 X-49.378 Y22.307 E1495.4769
G1 X-50.226 Y22.255 E1495.49456
G1 X-51.057 Y22.425 E1495.51219
G1 X-51.817 Y22.803 E1495.52984
G1 X-52.453 Y23.366 E1495.5475
G1 X-52.922 Y24.073 E1495.56513
G1 X-53.192 Y24.879 E1495.5828
G1 X-53.244 Y25.726 E1495.60044
G1 X-53.074 Y26.558 E1495.6181
G1 X-52.695 Y27.318 E1495.63575
G1 X-52.132 Y27.953 E1495.65339
G1 X-51.425 Y28.423 E1495.67104
G1 X-50.62 Y28.692 E1495.68868
G1 X-49.772 Y28.744 E1495.70634
G0 F18000 X-49.792 Y29.092
G0 X-49.722 Y29.156
G0 X-49.742 Y29.194
G0 X-50.706 Y29.135
G0 X-51.622 Y28.828
G0 X-52.429 Y28.294
G0 X-53.069 Y27.57
G0 X-53.502 Y26.704
G0 X-53.694 Y25.756
G0 X-53.632 Y25.467
G0 X-58.809 Y20.584
G0 X-58.809 Y20.584
; TYPE:WALL-INNER
G1 F2400 X-58.809 Y20.584 E1495.70634
G1 X-58.425 Y19.826 E1495.72401
G1 X-58.252 Y18.994 E1495.74167
G1 X-58.299 Y18.145 E1495.75935
G1 X-58.565 Y17.337 E1495.77703
G1 X-59.031 Y16.626 E1495.7947
G1 X-59.664 Y16.059 E1495.81237
G1 X-60.423 Y15.676 E1495.83004
G1 X-61.255 Y15.503 E1495.84771
G1 X-62.103 Y15.55 E1495.86536
G1 X-62.911 Y15.815 E1495.88304
G1 X-63.622 Y16.28 E1495.9007
G1 X-64.189 Y16.915 E1495.91839
G1 X-64.573 Y17.674 E1495.93608
G1 X-64.746 Y18.506 E1495.95374
G1 X-64.698 Y19.355 E1495.97142
G1 X-64.433 Y20.162 E1495.98908
G1 X-63.968 Y20.873 E1496.00674
G1 X-63.333 Y21.44 E1496.02443
G1 X-62.575 Y21.823 E1496.04209
G1 X-61.743 Y21.997 E1496.05976
G1 X-60.893 Y21.949 E1496.07745
G1 X-60.087 Y21.684 E1496.09509
G1 X-59.374 Y21.219 E1496.11279
G1 X-58.809 Y20.584 E1496.13045
G0 F18000 X-59.159 Y20.732
G0 X-59.409 Y21.178
G0 X-60.11 Y21.636
G0 X-60.903 Y21.897
G0 X-61.722 Y21.813
G0 X-61.776 Y21.836
G0 X-61.776 Y21.836
G0 X-61.705 Y21.494
; TYPE:WALL-OUTER
G1 F2100 X-61.705 Y21.494 E1496.13045
G1 X-60.987 Y21.454 E1496.1454
G1 X-60.306 Y21.229 E1496.16031
G1 X-59.703 Y20.836 E1496.17527
G1 X-59.226 Y20.3 E1496.19019
G1 X-58.901 Y19.659 E1496.20513
G1 X-58.755 Y18.956 E1496.22005
G1 X-58.794 Y18.238 E1496.235
G1 X-59.019 Y17.556 E1496.24993
G1 X-59.413 Y16.955 E1496.26487
G1 X-59.948 Y16.476 E1496.2798
G1 X-60.59 Y16.152 E1496.29475
G1 X-61.293 Y16.006 E1496.30967
G1 X-62.01 Y16.045 E1496.3246
G1 X-62.692 Y16.27 E1496.33953
G1 X-63.293 Y16.663 E1496.35445
G1 X-63.772 Y17.199 E1496.3694
G1 X-64.097 Y17.841 E1496.38436
G1 X-64.243 Y18.543 E1496.39926
G1 X-64.203 Y19.261 E1496.41421
G1 X-63.978 Y19.943 E1496.42914
G1 X-63.585 Y20.544 E1496.44407
G1 X-63.049 Y21.023 E1496.45901
G1 X-62.408 Y21.347 E1496.47394
G1 X-61.705 Y21.494 E1496.48887
G1 F6600 E1489.68887
G1 Z0.7
G0 F18000 X-61.776 Y21.836
G0 X-61.814 Y21.931
G0 X-60.903 Y21.897
G0 X-60.11 Y21.636
G0 X-59.409 Y21.178
G0 X-58.852 Y20.554
G0 X-58.475 Y19.809
G0 X-58.304 Y18.99
G0 X-58.35 Y18.154
G0 X-58.612 Y17.36
G0 X-59.071 Y16.66
G0 X-59.531 Y16.26
G0 X-51.41 Y-3.917
G0 X-51.41 Y-3.917
; TYPE:WALL-INNER
G1 Z0.4
G1 F6600 E1496.58887
G1 F2400 X-51.41 Y-3.917 E1496.58887
G1 X-50.241 Y-3.7 E1496.61358
G1 X-49.055 Y-3.792 E1496.63831
G1 X-47.934 Y-4.188 E1496.66303
G1 X-46.953 Y-4.86 E1496.68775
G1 X-46.18 Y-5.764 E1496.71247
G1 X-45.667 Y-6.837 E1496.73719
G1 X-45.449 Y-8.007 E1496.76193
G1 X-45.541 Y-9.193 E1496.78666
G1 X-45.938 Y-10.315 E1496.8114
G1 X-46.61 Y-11.296 E1496.83612
G1 X-47.514 Y-12.069 E1496.86085
G1 X-48.588 Y-12.582 E1496.88559
G1 X-49.757 Y-12.799 E1496.9103
G1 X-50.943 Y-12.707 E1496.93503
G1 X-52.064 Y-12.311 E1496.95975
G1 X-53.045 Y-11.638 E1496.98448
G1 X-53.818 Y-10.735 E1497.00919
G1 X-54.331 Y-9.662 E1497.03391
G1 X-54.549 Y-8.491 E1497.05867
G1 X-54.457 Y-7.305 E1497.0834
G1 X-54.06 Y-6.184 E1497.10812
G1 X-53.388 Y-5.203 E1497.13284
G1 X-52.484 Y-4.43 E1497.15756
G1 X-51.41 Y-3.917 E1497.1823
G0 F18000 X-50.214 Y-4.203
; TYPE:WALL-OUTER
G1 F2100 X-50.214 Y-4.203 E1497.1823
G1 X-49.16 Y-4.285 E1497.20428
G1 X-48.163 Y-4.637 E1497.22626
G1 X-47.29 Y-5.235 E1497.24826
G1 X-46.603 Y-6.039 E1497.27024
G1 X-46.146 Y-6.994 E1497.29225
G1 X-45.952 Y-8.034 E1497.31424
G1 X-46.034 Y-9.088 E1497.33622
G1 X-46.387 Y-10.086 E1497.35822
G1 X-46.985 Y-10.959 E1497.38022
G1 X-47.789 Y-11.646 E1497.4022
G1 X-48.744 Y-12.103 E1497.42421
G1 X-49.784 Y-12.296 E1497.4462
G1 X-50.838 Y-12.214 E1497.46818
G1 X-51.835 Y-11.862 E1497.49015
G1 X-52.708 Y-11.263 E1497.51216
G1 X-53.395 Y-10.46 E1497.53413
G1 X-53.852 Y-9.505 E1497.55614
G1 X-54.046 Y-8.464 E1497.57815
G1 X-53.964 Y-7.41 E1497.60013
G1 X-53.611 Y-6.413 E1497.62211
G1 X-53.013 Y-5.54 E1497.64411
G1 X-52.209 Y-4.853 E1497.66609
G1 X-51.254 Y-4.396 E1497.6881
G1 X-50.214 Y-4.203 E1497.71009
G0 F18000 X-50.277 Y-3.859
G0 X-36.249 Y11.25
G0 X-36.249 Y11.25
; TYPE:WALL-INNER
G1 F2400 X-36.249 Y11.25 E1497.71009
G1 X-36.249 Y39.75 E1498.30254
G1 X11.25 Y39.75 E1499.28993
G1 X11.25 Y11.25 E1499.88237
G1 X-36.249 Y11.25 E1500.86976
G0 F18000 X-36.099 Y39.25
G0 X-36.099 Y39.25
G0 X-35.749 Y39.25
; TYPE:WALL-OUTER
G1 F2100 X-35.749 Y39.25 E1500.86976
G1 X10.75 Y39.25 E1501.83636
G1 X10.75 Y11.75 E1502.40802
G1 X-35.749 Y11.75 E1503.37462
G1 X-35.749 Y39.25 E1503.94628
G1 F6600 E1497.14628
G1 Z0.7
G0 F18000 X-36.099 Y39.25
G0 X-36.042 Y39.001
G0 X-36.14 Y11.359
G0 X-29.729 Y11.304
G0 X-26.27 Y-3.874
G0 X-26.27 Y-3.874
; TYPE:WALL-INNER
G1 Z0.4
G1 F6600 E1504.04628
G1 F2400 X-26.27 Y-3.874 E1504.04628
G1 X-25.094 Y-3.694 E1504.07101
G1 X-23.911 Y-3.824 E1504.09575
G1 X-22.803 Y-4.257 E1504.12048
G1 X-21.846 Y-4.961 E1504.14518
G1 X-21.101 Y-5.889 E1504.16992
G1 X-20.624 Y-6.978 E1504.19463
G1 X-20.444 Y-8.154 E1504.21936
G1 X-20.574 Y-9.336 E1504.24408
G1 X-21.006 Y-10.444 E1504.2688
G1 X-21.71 Y-11.404 E1504.29355
G1 X-22.639 Y-12.147 E1504.31828
G1 X-23.728 Y-12.625 E1504.343
G1 X-24.904 Y-12.805 E1504.36773
G1 X-26.087 Y-12.675 E1504.39247
G1 X-27.195 Y-12.242 E1504.4172
G1 X-28.153 Y-11.538 E1504.44191
G1 X-28.896 Y-10.61 E1504.46663
G1 X-29.374 Y-9.52 E1504.49137
G1 X-29.554 Y-8.345 E1504.51608
G1 X-29.424 Y-7.163 E1504.5408
G1 X-28.992 Y-6.055 E1504.56552
G1 X-28.287 Y-5.095 E1504.59028
G1 X-27.359 Y-4.352 E1504.61499
G1 X-26.27 Y-3.874 E1504.63971
G0 F18000 X-25.083 Y-4.198
; TYPE:WALL-OUTER
G1 F2100 X-25.083 Y-4.198 E1504.63971
G1 X-24.032 Y-4.314 E1504.66169
G1 X-23.046 Y-4.699 E1504.6837
G1 X-22.195 Y-5.325 E1504.70566
G1 X-21.532 Y-6.15 E1504.72766
G1 X-21.108 Y-7.119 E1504.74965
G1 X-20.948 Y-8.165 E1504.77164
G1 X-21.064 Y-9.216 E1504.79362
G1 X-21.448 Y-10.201 E1504.8156
G1 X-22.074 Y-11.055 E1504.83761
G1 X-22.9 Y-11.716 E1504.8596
G1 X-23.869 Y-12.141 E1504.8816
G1 X-24.915 Y-12.301 E1504.90359
G1 X-25.966 Y-12.185 E1504.92557
G1 X-26.952 Y-11.8 E1504.94758
G1 X-27.804 Y-11.174 E1504.96956
G1 X-28.465 Y-10.349 E1504.99153
G1 X-28.89 Y-9.379 E1505.01355
G1 X-29.05 Y-8.334 E1505.03552
G1 X-28.934 Y-7.283 E1505.0575
G1 X-28.55 Y-6.298 E1505.07948
G1 X-27.923 Y-5.444 E1505.1015
G1 X-27.098 Y-4.783 E1505.12348
G1 X-26.129 Y-4.358 E1505.14547
G1 X-25.083 Y-4.198 E1505.16747
G0 F18000 X-25.135 Y-3.853
G0 X-25.034 Y-3.87
G0 X-25.092 Y-3.746
G0 X-23.924 Y-3.875
G0 X-23.773 Y-4.104
G0 X-4.518 Y-7.672
G0 X-4.518 Y-7.672
; TYPE:WALL-INNER
G1 F2400 X-4.518 Y-7.672 E1505.16747
G1 X-4.215 Y-6.522 E1505.19219
G1 X-3.625 Y-5.49 E1505.2169
G1 X-2.787 Y-4.646 E1505.24163
G1 X-1.759 Y-4.046 E1505.26637
G1 X-0.612 Y-3.734 E1505.29108
G1 X0.577 Y-3.73 E1505.3158
G1 X1.727 Y-4.033 E1505.34052
G1 X2.759 Y-4.624 E1505.36524
G1 X3.604 Y-5.461 E1505.38996
G1 X4.203 Y-6.489 E1505.4147
G1 X4.516 Y-7.637 E1505.43943
G1 X4.52 Y-8.827 E1505.46417
G1 X4.217 Y-9.977 E1505.48889
G1 X3.626 Y-11.009 E1505.51361
G1 X2.788 Y-11.853 E1505.53834
G1 X1.76 Y-12.452 E1505.56307
G1 X0.613 Y-12.765 E1505.58778
G1 X-0.576 Y-12.769 E1505.6125
G1 X-1.726 Y-12.466 E1505.63722
G1 X-2.758 Y-11.875 E1505.66194
G1 X-3.603 Y-11.038 E1505.68667
G1 X-4.202 Y-10.009 E1505.71142
G1 X-4.514 Y-8.862 E1505.73613
G1 X-4.518 Y-7.672 E1505.76087
G0 F18000 X-4.355 Y-7.549
G0 X-4.167 Y-6.543
G0 X-3.583 Y-5.522
G0 X-2.755 Y-4.687
G0 X-1.739 Y-4.095
G0 X-0.604 Y-3.786
G0 X0.57 Y-3.782
G0 X0.582 Y-3.827
G0 X0.512 Y-3.881
G0 X0.512 Y-3.881
G0 X0.513 Y-4.23
; TYPE:WALL-OUTER
G1 F2100 X0.513 Y-4.23 E1505.76087
G1 X1.536 Y-4.5 E1505.78286
G1 X2.454 Y-5.025 E1505.80484
G1 X3.205 Y-5.77 E1505.82683
G1 X3.738 Y-6.684 E1505.84883
G1 X4.016 Y-7.705 E1505.87082
G1 X4.02 Y-8.763 E1505.89282
G1 X3.75 Y-9.786 E1505.91481
G1 X3.225 Y-10.704 E1505.93679
G1 X2.479 Y-11.454 E1505.95878
G1 X1.565 Y-11.987 E1505.98078
G1 X0.545 Y-12.265 E1506.00276
G1 X-0.512 Y-12.269 E1506.02473
G1 X-1.535 Y-11.999 E1506.04672
G1 X-2.453 Y-11.474 E1506.06871
G1 X-3.204 Y-10.729 E1506.0907
G1 X-3.737 Y-9.814 E1506.11271
G1 X-4.014 Y-8.794 E1506.13468
G1 X-4.018 Y-7.736 E1506.15667
G1 X-3.748 Y-6.713 E1506.17867
G1 X-3.224 Y-5.795 E1506.20064
G1 X-2.478 Y-5.045 E1506.22263
G1 X-1.564 Y-4.511 E1506.24463
G1 X-0.544 Y-4.234 E1506.26661
G1 X0.513 Y-4.23 E1506.28858
G1 F6600 E1499.48858
G1 Z0.7
G0 F18000 X0.512 Y-3.881
G0 X0.514 Y-3.77
G0 X1.706 Y-4.081
G0 X2.727 Y-4.666
G0 X3.563 Y-5.493
G0 X4.154 Y-6.509
G0 X4.464 Y-7.645
G0 X4.468 Y-8.82
G0 X4.169 Y-9.956
G0 X3.584 Y-10.978
G0 X2.755 Y-11.812
G0 X1.74 Y-12.403
G0 X0.605 Y-12.713
G0 X0.256 Y-12.715
G0 X-0.131 Y-26.195
G0 X-0.131 Y-26.195
; TYPE:WALL-INNER
G1 Z0.4
G1 F6600 E1506.38858
G1 F2400 X-0.131 Y-26.195 E1506.38858
G1 X1.052 Y-26.316 E1506.4133
G1 X2.163 Y-26.739 E1506.43801
G1 X3.127 Y-27.436 E1506.46274
G1 X3.879 Y-28.358 E1506.48747
G1 X4.366 Y-29.443 E1506.51219
G1 X4.554 Y-30.617 E1506.53691
G1 X4.434 Y-31.8 E1506.56163
G1 X4.011 Y-32.912 E1506.58636
G1 X3.314 Y-33.876 E1506.61109
G1 X2.392 Y-34.628 E1506.63582
G1 X1.307 Y-35.115 E1506.66054
G1 X0.132 Y-35.304 E1506.68528
G1 X-1.051 Y-35.183 E1506.71
G1 X-2.162 Y-34.76 E1506.73471
G1 X-3.126 Y-34.063 E1506.75944
G1 X-3.877 Y-33.141 E1506.78416
G1 X-4.364 Y-32.056 E1506.80889
G1 X-4.553 Y-30.882 E1506.8336
G1 X-4.432 Y-29.698 E1506.85834
G1 X-4.009 Y-28.587 E1506.88306
G1 X-3.313 Y-27.622 E1506.90779
G1 X-2.39 Y-26.871 E1506.93253
G1 X-1.305 Y-26.384 E1506.95725
G1 X-0.131 Y-26.195 E1506.98197
G0 F18000 X-0.116 Y-26.699
; TYPE:WALL-OUTER
G1 F2100 X-0.116 Y-26.699 E1506.98197
G1 X0.935 Y-26.807 E1507.00393
G1 X1.924 Y-27.183 E1507.02592
G1 X2.781 Y-27.803 E1507.04791
G1 X3.45 Y-28.623 E1507.06991
G1 X3.883 Y-29.588 E1507.0919
G1 X4.05 Y-30.632 E1507.11388
G1 X3.943 Y-31.684 E1507.13586
G1 X3.567 Y-32.673 E1507.15785
G1 X2.947 Y-33.53 E1507.17984
G1 X2.127 Y-34.199 E1507.20184
G1 X1.162 Y-34.632 E1507.22383
G1 X0.117 Y-34.8 E1507.24583
G1 X-0.934 Y-34.692 E1507.26779
G1 X-1.923 Y-34.316 E1507.28979
G1 X-2.78 Y-33.696 E1507.31177
G1 X-3.448 Y-32.876 E1507.33376
G1 X-3.881 Y-31.911 E1507.35575
G1 X-4.049 Y-30.867 E1507.37773
G1 X-3.941 Y-29.815 E1507.39971
G1 X-3.565 Y-28.826 E1507.42171
G1 X-2.946 Y-27.968 E1507.4437
G1 X-2.125 Y-27.3 E1507.4657
G1 X-1.16 Y-26.867 E1507.48769
G1 X-0.116 Y-26.699 E1507.50967
G0 F18000 X-0.171 Y-26.355
G0 X-0.293 Y-26.375
G0 X-0.129 Y-26.247
G0 X-10.298 Y-28.093
G0 X-20.531 Y-29.852
G0 X-20.531 Y-29.852
; TYPE:WALL-INNER
G1 F2400 X-20.531 Y-29.852 E1507.50967
G1 X-20.452 Y-31.038 E1507.53438
G1 X-20.681 Y-32.206 E1507.55912
G1 X-21.205 Y-33.273 E1507.58383
G1 X-21.988 Y-34.169 E1507.60857
G1 X-22.975 Y-34.832 E1507.63328
G1 X-24.101 Y-35.217 E1507.65802
G1 X-25.288 Y-35.297 E1507.68275
G1 X-26.455 Y-35.067 E1507.70748
G1 X-27.523 Y-34.543 E1507.73221
G1 X-28.419 Y-33.761 E1507.75693
G1 X-29.082 Y-32.773 E1507.78166
G1 X-29.466 Y-31.647 E1507.80639
G1 X-29.546 Y-30.46 E1507.83112
G1 X-29.317 Y-29.293 E1507.85585
G1 X-28.793 Y-28.226 E1507.88056
G1 X-28.01 Y-27.329 E1507.90531
G1 X-27.022 Y-26.667 E1507.93003
G1 X-25.897 Y-26.282 E1507.95475
G1 X-24.71 Y-26.202 E1507.97948
G1 X-23.543 Y-26.432 E1508.0042
G1 X-22.475 Y-26.956 E1508.02893
G1 X-21.579 Y-27.738 E1508.05366
G1 X-20.916 Y-28.726 E1508.07839
G1 X-20.531 Y-29.852 E1508.10313
G0 F18000 X-20.746 Y-29.672
G0 X-20.963 Y-28.75
G0 X-21.619 Y-27.773
G0 X-22.505 Y-27
G0 X-23.561 Y-26.482
G0 X-24.776 Y-26.346
G0 X-24.764 Y-26.358
G0 X-24.764 Y-26.358
G0 X-24.742 Y-26.705
; TYPE:WALL-OUTER
G1 F2100 X-24.742 Y-26.705 E1508.10313
G1 X-23.704 Y-26.91 E1508.12512
G1 X-22.754 Y-27.376 E1508.14712
G1 X-21.958 Y-28.071 E1508.16908
G1 X-21.368 Y-28.95 E1508.19109
G1 X-21.026 Y-29.951 E1508.21308
G1 X-20.955 Y-31.006 E1508.23506
G1 X-21.159 Y-32.045 E1508.25707
G1 X-21.625 Y-32.994 E1508.27905
G1 X-22.321 Y-33.79 E1508.30103
G1 X-23.199 Y-34.38 E1508.32302
G1 X-24.2 Y-34.722 E1508.34501
G1 X-25.256 Y-34.794 E1508.36701
G1 X-26.294 Y-34.589 E1508.389
G1 X-27.244 Y-34.123 E1508.411
G1 X-28.04 Y-33.428 E1508.43297
G1 X-28.63 Y-32.549 E1508.45497
G1 X-28.971 Y-31.548 E1508.47696
G1 X-29.043 Y-30.492 E1508.49896
G1 X-28.839 Y-29.454 E1508.52095
G1 X-28.373 Y-28.505 E1508.54293
G1 X-27.677 Y-27.708 E1508.56492
G1 X-26.798 Y-27.119 E1508.58692
G1 X-25.798 Y-26.777 E1508.60889
G1 X-24.742 Y-26.705 E1508.63089
G1 F6600 E1501.83089
G1 Z0.7
G0 F18000 X-24.764 Y-26.358
G0 X-25.345 Y-26.47
G0 X-25.887 Y-26.334
G0 X-26.308 Y-26.658
G0 X-45.457 Y-30.382
G0 X-45.457 Y-30.382
; TYPE:WALL-INNER
G1 Z0.4
G1 F6600 E1508.73089
G1 F2400 X-45.457 Y-30.382 E1508.73089
G1 X-45.517 Y-31.57 E1508.75562
G1 X-45.881 Y-32.702 E1508.78034
G1 X-46.528 Y-33.701 E1508.80508
G1 X-47.41 Y-34.498 E1508.82979
G1 X-48.469 Y-35.042 E1508.85454
G1 X-49.631 Y-35.291 E1508.87924
G1 X-50.819 Y-35.231 E1508.90397
G1 X-51.951 Y-34.867 E1508.92869
G1 X-52.95 Y-34.22 E1508.95343
G1 X-53.748 Y-33.339 E1508.97814
G1 X-54.29 Y-32.28 E1509.00287
G1 X-54.541 Y-31.117 E1509.0276
G1 X-54.481 Y-29.928 E1509.05235
G1 X-54.115 Y-28.797 E1509.07706
G1 X-53.47 Y-27.798 E1509.10178
G1 X-52.588 Y-27.001 E1509.12649
G1 X-51.529 Y-26.457 E1509.15124
G1 X-50.366 Y-26.208 E1509.17596
G1 X-49.179 Y-26.268 E1509.20067
G1 X-48.047 Y-26.632 E1509.22539
G1 X-47.047 Y-27.278 E1509.25013
G1 X-46.249 Y-28.16 E1509.27486
G1 X-45.708 Y-29.219 E1509.29958
G1 X-45.457 Y-30.382 E1509.32431
G0 F18000 X-45.61 Y-30.257
G0 X-45.757 Y-29.237
G0 X-46.293 Y-28.191
G0 X-47.081 Y-27.318
G0 X-48.07 Y-26.68
G0 X-49.189 Y-26.32
G0 X-50.441 Y-26.335
G0 X-50.399 Y-26.37
G0 X-50.399 Y-26.37
G0 X-50.325 Y-26.711
; TYPE:WALL-OUTER
G1 F2100 X-50.325 Y-26.711 E1509.32431
G1 X-49.27 Y-26.764 E1509.34627
G1 X-48.263 Y-27.088 E1509.36826
G1 X-47.374 Y-27.662 E1509.39026
G1 X-46.664 Y-28.447 E1509.41226
G1 X-46.183 Y-29.388 E1509.43423
G1 X-45.96 Y-30.423 E1509.45624
G1 X-46.013 Y-31.479 E1509.47822
G1 X-46.337 Y-32.486 E1509.50021
G1 X-46.912 Y-33.374 E1509.5222
G1 X-47.697 Y-34.083 E1509.54419
G1 X-48.638 Y-34.567 E1509.56618
G1 X-49.672 Y-34.788 E1509.58816
G1 X-50.728 Y-34.735 E1509.61014
G1 X-51.735 Y-34.411 E1509.63213
G1 X-52.623 Y-33.836 E1509.65413
G1 X-53.333 Y-33.052 E1509.67611
G1 X-53.815 Y-32.111 E1509.69809
G1 X-54.038 Y-31.076 E1509.7201
G1 X-53.985 Y-30.019 E1509.7421
G1 X-53.66 Y-29.013 E1509.76408
G1 X-53.086 Y-28.125 E1509.78606
G1 X-52.301 Y-27.416 E1509.80804
G1 X-51.36 Y-26.932 E1509.83004
G1 X-50.325 Y-26.711 E1509.85204
G0 F18000 X-50.399 Y-26.37
G0 X-50.203 Y-26.376
G0 X-50.361 Y-26.26
G0 X-49.189 Y-26.32
G0 X-49.378 Y-26.409
G0 X-27.689 Y-27.272
G0 X-26.998 Y-26.714
G0 X-25.887 Y-26.334
G0 X-24.714 Y-26.255
G0 X-23.561 Y-26.482
G0 X-22.505 Y-27
G0 X-22.044 Y-27.497
G0 X-3.649 Y-28.229
G0 X-3.275 Y-27.658
G0 X-2.362 Y-26.916
G0 X-1.29 Y-26.435
G0 X-0.129 Y-26.247
G0 X1.039 Y-26.367
G0 X2.137 Y-26.785
G0 X3.091 Y-27.474
G0 X3.834 Y-28.385
G0 X3.876 Y-28.528
G0 X45.478 Y-30.185
G0 X45.478 Y-30.185
; TYPE:WALL-INNER
G1 F2400 X45.478 Y-30.185 E1509.85204
G1 X45.779 Y-29.034 E1509.87677
G1 X46.367 Y-28 E1509.9015
G1 X47.203 Y-27.153 E1509.92624
G1 X48.229 Y-26.551 E1509.95097
G1 X49.375 Y-26.236 E1509.97567
G1 X50.565 Y-26.228 E1510.00041
G1 X51.716 Y-26.528 E1510.02514
G1 X52.75 Y-27.116 E1510.04986
G1 X53.596 Y-27.952 E1510.07459
G1 X54.198 Y-28.978 E1510.09932
G1 X54.513 Y-30.124 E1510.12402
G1 X54.522 Y-31.314 E1510.14876
G1 X54.221 Y-32.465 E1510.17349
G1 X53.633 Y-33.499 E1510.19822
G1 X52.797 Y-34.346 E1510.22296
G1 X51.772 Y-34.947 E1510.24766
G1 X50.625 Y-35.263 E1510.27239
G1 X49.435 Y-35.271 E1510.29713
G1 X48.284 Y-34.971 E1510.32185
G1 X47.25 Y-34.383 E1510.34658
G1 X46.404 Y-33.547 E1510.3713
G1 X45.802 Y-32.521 E1510.39603
G1 X45.487 Y-31.375 E1510.42074
G1 X45.478 Y-30.185 E1510.44548
G0 F18000 X45.64 Y-30.061
G0 X45.828 Y-29.054
G0 X46.409 Y-28.032
G0 X47.235 Y-27.195
G0 X48.25 Y-26.599
G0 X49.383 Y-26.287
G0 X50.558 Y-26.281
G0 X50.57 Y-26.326
G0 X50.5 Y-26.38
G0 X50.5 Y-26.38
G0 X50.502 Y-26.729
; TYPE:WALL-OUTER
G1 F2100 X50.502 Y-26.729 E1510.44548
G1 X51.526 Y-26.995 E1510.46747
G1 X52.445 Y-27.518 E1510.48945
G1 X53.198 Y-28.261 E1510.51144
G1 X53.733 Y-29.174 E1510.53344
G1 X54.014 Y-30.193 E1510.55541
G1 X54.021 Y-31.251 E1510.5774
G1 X53.754 Y-32.275 E1510.5994
G1 X53.231 Y-33.195 E1510.6214
G1 X52.488 Y-33.948 E1510.64339
G1 X51.576 Y-34.482 E1510.66536
G1 X50.556 Y-34.764 E1510.68736
G1 X49.498 Y-34.77 E1510.70935
G1 X48.474 Y-34.504 E1510.73135
G1 X47.555 Y-33.981 E1510.75333
G1 X46.802 Y-33.238 E1510.77532
G1 X46.267 Y-32.325 E1510.79731
G1 X45.986 Y-31.306 E1510.81929
G1 X45.979 Y-30.248 E1510.84128
G1 X46.246 Y-29.224 E1510.86328
G1 X46.769 Y-28.304 E1510.88528
G1 X47.512 Y-27.551 E1510.90727
G1 X48.425 Y-27.016 E1510.92927
G1 X49.444 Y-26.735 E1510.95124
G1 X50.502 Y-26.729 E1510.97323
G0 F18000 X50.5 Y-26.38
G0 X49.783 Y-12.801
G0 X49.783 Y-12.801
; TYPE:WALL-INNER
G1 F2400 X49.783 Y-12.801 E1510.97323
G1 X48.613 Y-12.59 E1510.99795
G1 X47.536 Y-12.082 E1511.0227
G1 X46.628 Y-11.314 E1511.04742
G1 X45.95 Y-10.337 E1511.07214
G1 X45.548 Y-9.218 E1511.09686
G1 X45.448 Y-8.032 E1511.1216
G1 X45.661 Y-6.861 E1511.14634
G1 X46.168 Y-5.786 E1511.17105
G1 X46.935 Y-4.877 E1511.19577
G1 X47.913 Y-4.2 E1511.2205
G1 X49.032 Y-3.797 E1511.24522
G1 X50.217 Y-3.698 E1511.26994
G1 X51.388 Y-3.909 E1511.29468
G1 X52.464 Y-4.417 E1511.31941
G1 X53.372 Y-5.185 E1511.34413
G1 X54.05 Y-6.162 E1511.36885
G1 X54.452 Y-7.281 E1511.39357
G1 X54.552 Y-8.467 E1511.41831
G1 X54.341 Y-9.637 E1511.44303
G1 X53.833 Y-10.713 E1511.46776
G1 X53.065 Y-11.622 E1511.4925
G1 X52.087 Y-12.299 E1511.51722
G1 X50.968 Y-12.702 E1511.54195
G1 X49.783 Y-12.801 E1511.56667
G0 F18000 X49.784 Y-12.748
G0 X50.956 Y-12.651
G0 X52.063 Y-12.252
G0 X53.029 Y-11.583
G0 X53.789 Y-10.685
G0 X54.29 Y-9.621
G0 X54.499 Y-8.464
G0 X54.401 Y-7.293
G0 X54.003 Y-6.187
G0 X53.333 Y-5.221
G0 X52.436 Y-4.461
G0 X51.372 Y-3.96
G0 X50.169 Y-3.741
G0 X50.165 Y-3.854
G0 X50.165 Y-3.854
G0 X50.193 Y-4.202
; TYPE:WALL-OUTER
G1 F2100 X50.193 Y-4.202 E1511.56667
G1 X51.235 Y-4.39 E1511.58868
G1 X52.191 Y-4.841 E1511.61065
G1 X52.999 Y-5.524 E1511.63264
G1 X53.602 Y-6.393 E1511.65463
G1 X53.959 Y-7.388 E1511.67661
G1 X54.048 Y-8.443 E1511.69862
G1 X53.86 Y-9.484 E1511.72061
G1 X53.409 Y-10.44 E1511.74258
G1 X52.726 Y-11.249 E1511.76459
G1 X51.856 Y-11.851 E1511.78658
G1 X50.861 Y-12.209 E1511.80856
G1 X49.807 Y-12.297 E1511.83055
G1 X48.766 Y-12.109 E1511.85254
G1 X47.809 Y-11.658 E1511.87453
G1 X47.001 Y-10.975 E1511.89652
G1 X46.398 Y-10.106 E1511.91851
G1 X46.041 Y-9.111 E1511.94049
G1 X45.952 Y-8.056 E1511.96249
G1 X46.141 Y-7.015 E1511.98449
G1 X46.592 Y-6.059 E1512.00646
G1 X47.274 Y-5.25 E1512.02846
G1 X48.144 Y-4.648 E1512.05045
G1 X49.139 Y-4.29 E1512.07243
G1 X50.193 Y-4.202 E1512.09442
G1 F6600 E1505.29442
G1 Z0.7
G0 F18000 X50.165 Y-3.854
G0 X49.707 Y21.755
G0 X49.707 Y21.755
; TYPE:WALL-INNER
G1 Z0.4
G1 F6600 E1512.19442
G1 F2400 X49.707 Y21.755 E1512.19442
G1 X48.748 Y21.958 E1512.21479
G1 X47.874 Y22.402 E1512.23517
G1 X47.145 Y23.059 E1512.25557
G1 X46.61 Y23.881 E1512.27596
G1 X46.307 Y24.813 E1512.29633
G1 X46.255 Y25.792 E1512.31671
G1 X46.459 Y26.751 E1512.33709
G1 X46.903 Y27.625 E1512.35747
G1 X47.558 Y28.355 E1512.37786
G1 X48.381 Y28.89 E1512.39827
G1 X49.314 Y29.193 E1512.41866
G1 X50.293 Y29.244 E1512.43904
G1 X51.252 Y29.041 E1512.45941
G1 X52.126 Y28.597 E1512.47979
G1 X52.855 Y27.941 E1512.50018
G1 X53.389 Y27.119 E1512.52055
G1 X53.694 Y26.186 E1512.54096
G1 X53.745 Y25.207 E1512.56134
G1 X53.542 Y24.248 E1512.58172
G1 X53.097 Y23.374 E1512.6021
G1 X52.442 Y22.644 E1512.62249
G1 X51.619 Y22.11 E1512.64289
G1 X50.686 Y21.806 E1512.66328
G1 X49.707 Y21.755 E1512.68366
G0 F18000 X49.71 Y21.806
G0 X50.676 Y21.858
G0 X51.596 Y22.158
G0 X52.408 Y22.685
G0 X53.054 Y23.404
G0 X53.492 Y24.266
G0 X53.693 Y25.212
G0 X53.642 Y26.176
G0 X53.342 Y27.097
G0 X52.815 Y27.906
G0 X52.096 Y28.553
G0 X51.234 Y28.992
G0 X50.243 Y29.201
G0 X50.236 Y29.09
G0 X50.236 Y29.09
G0 X50.254 Y28.741
; TYPE:WALL-OUTER
G1 F2100 X50.254 Y28.741 E1512.68366
G1 X51.084 Y28.566 E1512.7013
G1 X51.841 Y28.181 E1512.71895
G1 X52.472 Y27.613 E1512.7366
G1 X52.934 Y26.902 E1512.75422
G1 X53.198 Y26.094 E1512.77189
G1 X53.242 Y25.246 E1512.78955
G1 X53.067 Y24.416 E1512.80718
G1 X52.681 Y23.659 E1512.82484
G1 X52.114 Y23.027 E1512.84249
G1 X51.402 Y22.565 E1512.86014
G1 X50.594 Y22.302 E1512.8778
G1 X49.746 Y22.258 E1512.89545
G1 X48.916 Y22.433 E1512.91308
G1 X48.159 Y22.818 E1512.93074
G1 X47.528 Y23.386 E1512.94839
G1 X47.065 Y24.098 E1512.96604
G1 X46.803 Y24.905 E1512.98368
G1 X46.758 Y25.753 E1513.00133
G1 X46.934 Y26.583 E1513.01897
G1 X47.319 Y27.34 E1513.03662
G1 X47.886 Y27.972 E1513.05427
G1 X48.598 Y28.435 E1513.07193
G1 X49.406 Y28.697 E1513.08959
G1 X50.254 Y28.741 E1513.10724
G0 F18000 X50.5 Y29.649
; TYPE:FILL
G1 F2400 X50.5 Y42.309 E1513.37041
G0 F18000 X50 Y42.309
G1 F2400 X50 Y29.669 E1513.63316
G0 F18000 X49.5 Y29.642
G1 F2400 X49.5 Y42.309 E1513.89648
G0 F18000 X49 Y42.309
G1 F2400 X49 Y29.552 E1514.16167
G0 F18000 X48.5 Y29.39
G1 F2400 X48.5 Y42.309 E1514.43022
G0 F18000 X48 Y42.309
G1 F2400 X48 Y29.166 E1514.70343
G0 F18000 X47.5 Y28.841
G1 F2400 X47.5 Y42.309 E1514.9834
G0 F18000 X47 Y42.309
G1 F2400 X47 Y28.391 E1515.27272
G0 F18000 X46.5 Y27.8
G1 F2400 X46.5 Y42.309 E1515.57433
G0 F18000 X46 Y42.309
G1 F2400 X46 Y26.706 E1515.89868
G0 F18000 X46 Y24.334
G0 X46 Y24.334
G1 F2400 X46 Y-5.303 E1516.51476
G0 F18000 X46.5 Y-4.711
G1 F2400 X46.5 Y23.242 E1517.09584
G0 F18000 X47 Y22.596
G1 F2400 X47 Y-4.296 E1517.65486
G0 F18000 X47.5 Y-3.949
G1 F2400 X47.5 Y22.145 E1518.19729
G0 F18000 X48 Y21.842
G1 F2400 X48 Y-3.7 E1518.72824
G0 F18000 X48.5 Y-3.52
G1 F2400 X48.5 Y21.588 E1519.25018
G0 F18000 X49 Y21.454
G1 F2400 X49 Y-3.358 E1519.76596
G0 F18000 X49.5 Y-3.316
G1 F2400 X49.5 Y21.348 E1520.27866
G0 F18000 X50 Y21.328
G1 F2400 X50 Y-3.274 E1520.79008
G0 F18000 X50.5 Y-3.301
G1 F2400 X50.5 Y21.355 E1521.30262
G0 F18000 X51 Y21.445
G1 F2400 X51 Y-3.391 E1521.8189
G0 F18000 X51.5 Y-3.482
G1 F2400 X51.5 Y21.608 E1522.34046
G0 F18000 X52 Y21.832
G1 F2400 X52 Y-3.71 E1522.87142
G0 F18000 X52.5 Y-3.946
G1 F2400 X52.5 Y22.156 E1523.41401
G0 F18000 X53 Y22.606
G1 F2400 X53 Y-4.294 E1523.9732
G0 F18000 X53.5 Y-4.717
G1 F2400 X53.5 Y23.193 E1524.55338
G0 F18000 X54 Y24.286
G1 F2400 X54 Y-5.317 E1525.16876
G0 F18000 X54.5 Y-6.111
G1 F2400 X54.5 Y42.309 E1526.17529
G0 F18000 X54 Y42.309
G1 F2400 X54 Y26.664 E1526.50051
G0 F18000 X53.5 Y27.755
G1 F2400 X53.5 Y42.309 E1526.80306
G0 F18000 X53 Y42.309
G1 F2400 X53 Y28.402 E1527.09215
G0 F18000 X52.5 Y28.852
G1 F2400 X52.5 Y42.309 E1527.37189
G0 F18000 X52 Y42.309
G1 F2400 X52 Y29.155 E1527.64533
G0 F18000 X51.5 Y29.409
G1 F2400 X51.5 Y42.309 E1527.91349
G0 F18000 X51 Y42.309
G1 F2400 X51 Y29.543 E1528.17886
G0 F18000 X55 Y42.309
G0 X55 Y42.309
G1 F2400 X54.999 Y-42.308 E1529.93784
G0 F18000 X54.499 Y-42.308
G1 F2400 X54.499 Y-32.863 E1530.13418
G0 F18000 X53.999 Y-33.742
G1 F2400 X53.999 Y-42.308 E1530.31225
G0 F18000 X53.499 Y-42.308
G1 F2400 X53.499 Y-34.259 E1530.47957
G0 F18000 X52.999 Y-34.736
G1 F2400 X52.999 Y-42.308 E1530.63697
G0 F18000 X52.499 Y-42.308
G1 F2400 X52.499 Y-35.029 E1530.78828
G0 F18000 X51.999 Y-35.323
G1 F2400 X51.999 Y-42.308 E1530.93349
G0 F18000 X51.499 Y-42.308
G1 F2400 X51.499 Y-35.478 E1531.07547
G0 F18000 X50.999 Y-35.615
G1 F2400 X50.999 Y-42.308 E1531.2146
G0 F18000 X50.499 Y-42.308
G1 F2400 X50.499 Y-35.703 E1531.3519
G0 F18000 X49.999 Y-35.706
G1 F2400 X49.999 Y-42.308 E1531.48914
G0 F18000 X49.499 Y-42.308
G1 F2400 X49.499 Y-35.709 E1531.62632
G0 F18000 X48.999 Y-35.611
G1 F2400 X48.999 Y-42.308 E1531.76553
G0 F18000 X48.499 Y-42.308
G1 F2400 X48.499 Y-35.481 E1531.90745
G0 F18000 X47.999 Y-35.315
G1 F2400 X47.999 Y-42.308 E1532.05281
G0 F18000 X47.499 Y-42.308
G1 F2400 X47.499 Y-35.03 E1532.20411
G0 F18000 X46.999 Y-34.746
G1 F2400 X46.999 Y-42.308 E1532.3613
G0 F18000 X46.499 Y-42.308
G1 F2400 X46.499 Y-34.26 E1532.5286
G0 F18000 X45.999 Y-33.727
G1 F2400 X45.999 Y-42.308 E1532.70698
G0 F18000 X45.499 Y-42.308
G1 F2400 X45.499 Y-32.875 E1532.90307
G0 F18000 X45.5 Y-28.634
G0 X45.5 Y-28.634
G1 F2400 X45.5 Y-10.386 E1533.2824
G0 F18000 X46 Y-11.18
G1 F2400 X46 Y-27.755 E1533.62695
G0 F18000 X46.5 Y-27.238
G1 F2400 X46.5 Y-11.78 E1533.94829
G0 F18000 X47 Y-12.203
G1 F2400 X47 Y-26.761 E1534.25091
G0 F18000 X47.5 Y-26.467
G1 F2400 X47.5 Y-12.551 E1534.54019
G0 F18000 X48 Y-12.786
G1 F2400 X48 Y-26.174 E1534.8185
G0 F18000 X48.5 Y-26.019
G1 F2400 X48.5 Y-13.015 E1535.08882
G0 F18000 X49 Y-13.105
G1 F2400 X49 Y-25.882 E1535.35442
G0 F18000 X49.5 Y-25.794
G1 F2400 X49.5 Y-13.196 E1535.61631
G0 F18000 X50 Y-13.223
G1 F2400 X50 Y-25.791 E1535.87756
G0 F18000 X50.5 Y-25.788
G1 F2400 X50.5 Y-13.181 E1536.13963
G0 F18000 X51 Y-13.139
G1 F2400 X51 Y-25.886 E1536.40461
G0 F18000 X51.5 Y-26.016
G1 F2400 X51.5 Y-12.977 E1536.67566
G0 F18000 X52 Y-12.797
G1 F2400 X52 Y-26.182 E1536.9539
G0 F18000 X52.5 Y-26.467
G1 F2400 X52.5 Y-12.548 E1537.24325
G0 F18000 X53 Y-12.201
G1 F2400 X53 Y-26.751 E1537.5457
G0 F18000 X53.5 Y-27.237
G1 F2400 X53.5 Y-11.787 E1537.86687
G0 F18000 X54 Y-11.196
G1 F2400 X54 Y-27.77 E1538.21141
G0 F18000 X54.5 Y-28.622
G1 F2400 X54.5 Y-10.33 E1538.59165
G0 F18000 X54.054 Y-10.125
G0 X54.29 Y-9.621
G0 X54.499 Y-8.464
G0 X54.401 Y-7.293
G0 X54.003 Y-6.187
G0 X53.333 Y-5.221
G0 X52.436 Y-4.461
G0 X51.372 Y-3.96
G0 X50.214 Y-3.751
G0 X49.044 Y-3.848
G0 X47.937 Y-4.247
G0 X46.971 Y-4.916
G0 X46.212 Y-5.814
G0 X45.943 Y-6.375
G0 X45.5 Y-6.17
G0 X45.5 Y-6.17
G1 F2400 X45.5 Y42.309 E1539.59941
G0 F18000 X45 Y42.309
G1 F2400 X44.999 Y-42.308 E1541.3584
G0 F18000 X44.499 Y-42.308
G1 F2400 X44.5 Y42.309 E1543.11738
G0 F18000 X44 Y42.309
G1 F2400 X43.999 Y-42.308 E1544.87636
G0 F18000 X43.499 Y-42.308
G1 F2400 X43.5 Y42.309 E1546.63535
G0 F18000 X43 Y42.309
G1 F2400 X42.999 Y-42.308 E1548.39433
G0 F18000 X42.499 Y-42.308
G1 F2400 X42.5 Y42.309 E1550.15331
G0 F18000 X42 Y42.309
G1 F2400 X41.999 Y-42.308 E1551.9123
G0 F18000 X41.499 Y-42.308
G1 F2400 X41.5 Y42.309 E1553.67128
G0 F18000 X41 Y42.309
G1 F2400 X40.999 Y-42.308 E1555.43026
G0 F18000 X40.499 Y-42.308
G1 F2400 X40.5 Y42.309 E1557.18924
G0 F18000 X40 Y42.309
G1 F2400 X39.999 Y-42.308 E1558.94823
G0 F18000 X39.499 Y-42.308
G1 F2400 X39.5 Y42.309 E1560.70721
G0 F18000 X39 Y42.309
G1 F2400 X38.999 Y-42.308 E1562.46619
G0 F18000 X38.499 Y-42.308
G1 F2400 X38.5 Y42.309 E1564.22518
G0 F18000 X38 Y42.309
G1 F2400 X37.999 Y-42.308 E1565.98416
G0 F18000 X37.499 Y-42.308
G1 F2400 X37.5 Y42.309 E1567.74314
G0 F18000 X37 Y42.309
G1 F2400 X36.999 Y-42.308 E1569.50213
G0 F18000 X36.499 Y-42.308
G1 F2400 X36.5 Y42.309 E1571.26111
G0 F18000 X36 Y42.309
G1 F2400 X35.999 Y-42.308 E1573.02009
G0 F18000 X35.499 Y-42.308
G1 F2400 X35.5 Y42.309 E1574.77907
G0 F18000 X35 Y42.309
G1 F2400 X34.999 Y-42.308 E1576.53806
G0 F18000 X34.499 Y-42.308
G1 F2400 X34.5 Y42.309 E1578.29704
G0 F18000 X34 Y42.309
G1 F2400 X33.999 Y-42.308 E1580.05602
G0 F18000 X33.499 Y-42.308
G1 F2400 X33.5 Y42.309 E1581.81501
G0 F18000 X33 Y42.309
G1 F2400 X32.999 Y-42.308 E1583.57399
G0 F18000 X32.499 Y-42.308
G1 F2400 X32.5 Y42.309 E1585.33297
G0 F18000 X32 Y42.309
G1 F2400 X31.999 Y-42.308 E1587.09196
G0 F18000 X31.499 Y-42.308
G1 F2400 X31.5 Y42.309 E1588.85094
G0 F18000 X31 Y42.309
G1 F2400 X30.999 Y-42.308 E1590.60992
G0 F18000 X30.499 Y-42.308
G1 F2400 X30.5 Y42.309 E1592.36891
G0 F18000 X30 Y42.309
G1 F2400 X29.999 Y-42.308 E1594.12789
G0 F18000 X29.499 Y-42.308
G1 F2400 X29.5 Y42.31 E1595.88689
G0 F18000 X29 Y42.31
G1 F2400 X28.999 Y-42.308 E1597.6459
G0 F18000 X28.499 Y-42.308
G1 F2400 X28.5 Y42.31 E1599.4049
G0 F18000 X28 Y42.31
G1 F2400 X27.999 Y-42.308 E1601.1639
G0 F18000 X27.499 Y-42.308
G1 F2400 X27.5 Y42.31 E1602.92291
G0 F18000 X27 Y42.31
G1 F2400 X26.999 Y-42.308 E1604.68191
G0 F18000 X26.499 Y-42.308
G1 F2400 X26.5 Y42.31 E1606.44091
G0 F18000 X26 Y42.31
G1 F2400 X25.999 Y-42.308 E1608.19992
G0 F18000 X25.499 Y-42.308
G1 F2400 X25.5 Y42.31 E1609.95892
G0 F18000 X25 Y42.31
G1 F2400 X24.999 Y-42.308 E1611.71793
G0 F18000 X24.499 Y-42.308
G1 F2400 X24.5 Y42.31 E1613.47693
G0 F18000 X24 Y42.31
G1 F2400 X23.999 Y-42.308 E1615.23593
G0 F18000 X23.499 Y-42.308
G1 F2400 X23.5 Y42.31 E1616.99494
G0 F18000 X23 Y42.31
G1 F2400 X22.999 Y-42.308 E1618.75394
G0 F18000 X22.499 Y-42.308
G1 F2400 X22.5 Y42.31 E1620.51295
G0 F18000 X22 Y42.31
G1 F2400 X21.999 Y-42.308 E1622.27195
G0 F18000 X21.499 Y-42.308
G1 F2400 X21.5 Y42.31 E1624.03095
G0 F18000 X21 Y42.31
G1 F2400 X20.999 Y-42.308 E1625.78996
G0 F18000 X20.499 Y-42.308
G1 F2400 X20.5 Y42.31 E1627.54896
G0 F18000 X20 Y42.31
G1 F2400 X19.999 Y-42.308 E1629.30796
G0 F18000 X19.499 Y-42.308
G1 F2400 X19.5 Y42.31 E1631.06697
G0 F18000 X19 Y42.31
G1 F2400 X18.999 Y-42.308 E1632.82597
G0 F18000 X18.499 Y-42.308
G1 F2400 X18.5 Y42.31 E1634.58498
G0 F18000 X18 Y42.31
G1 F2400 X17.999 Y-42.308 E1636.34398
G0 F18000 X17.499 Y-42.308
G1 F2400 X17.5 Y42.31 E1638.10298
G0 F18000 X17 Y42.31
G1 F2400 X16.999 Y-42.308 E1639.86199
G0 F18000 X16.499 Y-42.308
G1 F2400 X16.5 Y42.31 E1641.62099
G0 F18000 X16 Y42.31
G1 F2400 X15.999 Y-42.308 E1643.38
G0 F18000 X15.499 Y-42.308
G1 F2400 X15.5 Y42.31 E1645.139
G0 F18000 X15 Y42.31
G1 F2400 X14.999 Y-42.308 E1646.898
G0 F18000 X14.499 Y-42.308
G1 F2400 X14.5 Y42.31 E1648.65701
G0 F18000 X14 Y42.31
G1 F2400 X13.999 Y-42.308 E1650.41601
G0 F18000 X13.499 Y-42.308
G1 F2400 X13.5 Y42.31 E1652.17501
G0 F18000 X13 Y42.31
G1 F2400 X12.999 Y-42.308 E1653.93402
G0 F18000 X12.499 Y-42.308
G1 F2400 X12.5 Y42.31 E1655.69302
G0 F18000 X12 Y42.31
G1 F2400 X11.999 Y-42.308 E1657.45203
G0 F18000 X11.499 Y-42.308
G1 F2400 X11.5 Y10.809 E1658.5562
G0 F18000 X11 Y10.809
G1 F2400 X10.999 Y-42.308 E1659.66037
G0 F18000 X10.499 Y-42.308
G1 F2400 X10.5 Y10.809 E1660.76455
G0 F18000 X10 Y10.809
G1 F2400 X9.999 Y-42.308 E1661.86872
G0 F18000 X9.499 Y-42.308
G1 F2400 X9.5 Y10.809 E1662.9729
G0 F18000 X9 Y10.809
G1 F2400 X8.999 Y-42.308 E1664.07707
G0 F18000 X8.499 Y-42.308
G1 F2400 X8.5 Y10.809 E1665.18124
G0 F18000 X8 Y10.809
G1 F2400 X7.999 Y-42.308 E1666.28542
G0 F18000 X7.499 Y-42.308
G1 F2400 X7.5 Y10.809 E1667.38959
G0 F18000 X7 Y10.81
G1 F2400 X6.999 Y-42.308 E1668.49379
G0 F18000 X6.499 Y-42.308
G1 F2400 X6.5 Y10.81 E1669.59798
G0 F18000 X6 Y10.81
G1 F2400 X5.999 Y-42.308 E1670.70218
G0 F18000 X5.499 Y-42.308
G1 F2400 X5.5 Y10.81 E1671.80637
G0 F18000 X5 Y10.81
G1 F2400 X4.999 Y-42.308 E1672.91057
G0 F18000 X4.499 Y-42.308
G1 F2400 X4.499 Y-32.864 E1673.10689
G0 F18000 X3.999 Y-33.677
G1 F2400 X3.999 Y-42.308 E1673.2863
G0 F18000 X3.499 Y-42.308
G1 F2400 X3.499 Y-34.292 E1673.45294
G0 F18000 X2.999 Y-34.699
G1 F2400 X2.999 Y-42.308 E1673.61111
G0 F18000 X2.499 Y-42.308
G1 F2400 X2.499 Y-35.061 E1673.76176
G0 F18000 X1.999 Y-35.286
G1 F2400 X1.999 Y-42.308 E1673.90773
G0 F18000 X1.499 Y-42.308
G1 F2400 X1.499 Y-35.511 E1674.04902
G0 F18000 X0.999 Y-35.61
G1 F2400 X0.999 Y-42.308 E1674.18826
G0 F18000 X0.499 Y-42.308
G1 F2400 X0.499 Y-35.69 E1674.32583
G0 F18000 X0 Y-35.732
G1 F2400 X0 Y-42.309 E1674.46255
G0 F18000 X-0.5 Y-42.309
G1 F2400 X-0.5 Y-35.681 E1674.60033
G0 F18000 X-1 Y-35.631
G1 F2400 X-1 Y-42.309 E1674.73915
G0 F18000 X-1.5 Y-42.309
G1 F2400 X-1.5 Y-35.483 E1674.88104
G0 F18000 X-2 Y-35.292
G1 F2400 X-2 Y-42.309 E1675.02691
G0 F18000 X-2.5 Y-42.309
G1 F2400 X-2.5 Y-35.058 E1675.17764
G0 F18000 X-3 Y-34.696
G1 F2400 X-3 Y-42.309 E1675.3359
G0 F18000 X-3.5 Y-42.309
G1 F2400 X-3.5 Y-34.299 E1675.5024
G0 F18000 X-4 Y-33.685
G1 F2400 X-4 Y-42.309 E1675.68168
G0 F18000 X-4.5 Y-42.309
G1 F2400 X-4.5 Y-32.825 E1675.87883
G0 F18000 X-4.5 Y-28.643
G0 X-4.5 Y-28.643
G1 F2400 X-4.5 Y-10.37 E1676.25868
G0 F18000 X-4 Y-11.229
G1 F2400 X-4 Y-27.824 E1676.60365
G0 F18000 X-3.5 Y-27.208
G1 F2400 X-3.5 Y-11.758 E1676.92482
G0 F18000 X-3 Y-12.242
G1 F2400 X-3 Y-26.801 E1677.22746
G0 F18000 X-2.5 Y-26.439
G1 F2400 X-2.5 Y-12.529 E1677.51662
G0 F18000 X-2 Y-12.816
G1 F2400 X-2 Y-26.214 E1677.79513
G0 F18000 X-1.5 Y-25.989
G1 F2400 X-1.5 Y-12.98 E1678.06556
G0 F18000 X-1 Y-13.112
G1 F2400 X-1 Y-25.889 E1678.33116
G0 F18000 X-0.5 Y-25.809
G1 F2400 X-0.5 Y-13.209 E1678.59308
G0 F18000 X0 Y-13.207
G1 F2400 X0 Y-25.767 E1678.85417
G0 F18000 X0.499 Y-25.817
G1 F2400 X0.499 Y-13.206 E1679.11633
G0 F18000 X0.999 Y-13.115
G1 F2400 X0.999 Y-25.868 E1679.38143
G0 F18000 X1.499 Y-26.015
G1 F2400 X1.499 Y-12.979 E1679.65242
G0 F18000 X1.999 Y-12.821
G1 F2400 X1.999 Y-26.206 E1679.93066
G0 F18000 X2.499 Y-26.44
G1 F2400 X2.499 Y-12.53 E1680.21981
G0 F18000 X2.999 Y-12.239
G1 F2400 X2.999 Y-26.801 E1680.52252
G0 F18000 X3.499 Y-27.198
G1 F2400 X3.499 Y-11.761 E1680.84342
G0 F18000 X3.999 Y-11.241
G1 F2400 X3.999 Y-27.811 E1681.18787
G0 F18000 X4.499 Y-28.668
G1 F2400 X4.499 Y-10.368 E1681.56828
G0 F18000 X4.499 Y-6.124
G0 X4.499 Y-6.124
G1 F2400 X4.5 Y10.81 E1681.9203
G0 F18000 X4 Y10.81
G1 F2400 X3.999 Y-5.265 E1682.25446
G0 F18000 X3.499 Y-4.738
G1 F2400 X3.5 Y10.81 E1682.57767
G0 F18000 X3 Y10.81
G1 F2400 X2.999 Y-4.255 E1682.89083
G0 F18000 X2.499 Y-3.968
G1 F2400 X2.5 Y10.81 E1683.19803
G0 F18000 X2 Y10.81
G1 F2400 X1.999 Y-3.681 E1683.49926
G0 F18000 X1.499 Y-3.517
G1 F2400 X1.5 Y10.81 E1683.79709
G0 F18000 X1 Y10.81
G1 F2400 X0.999 Y-3.386 E1684.09219
G0 F18000 X0.499 Y-3.29
G1 F2400 X0.5 Y10.81 E1684.38529
G0 F18000 X0 Y10.81
G1 F2400 X0 Y-3.292 E1684.67844
G0 F18000 X-0.5 Y-3.293
G1 F2400 X-0.499 Y10.81 E1684.97161
G0 F18000 X-0.999 Y10.81
G1 F2400 X-1 Y-3.384 E1685.26667
G0 F18000 X-1.5 Y-3.52
G1 F2400 X-1.499 Y10.81 E1685.56455
G0 F18000 X-1.999 Y10.81
G1 F2400 X-2 Y-3.677 E1685.8657
G0 F18000 X-2.5 Y-3.969
G1 F2400 X-2.499 Y10.81 E1686.17292
G0 F18000 X-2.999 Y10.81
G1 F2400 X-3 Y-4.261 E1686.48621
G0 F18000 X-3.5 Y-4.741
G1 F2400 X-3.499 Y10.81 E1686.80948
G0 F18000 X-3.999 Y10.81
G1 F2400 X-4 Y-5.261 E1687.14356
G0 F18000 X-4.5 Y-6.135
G1 F2400 X-4.499 Y10.81 E1687.4958
G0 F18000 X-4.999 Y10.81
G1 F2400 X-5 Y-42.309 E1688.60002
G0 F18000 X-5.5 Y-42.309
G1 F2400 X-5.499 Y10.81 E1689.70423
G0 F18000 X-5.999 Y10.81
G1 F2400 X-6 Y-42.309 E1690.80845
G0 F18000 X-6.5 Y-42.309
G1 F2400 X-6.499 Y10.81 E1691.91266
G0 F18000 X-6.999 Y10.81
G1 F2400 X-7 Y-42.309 E1693.01688
G0 F18000 X-7.5 Y-42.309
G1 F2400 X-7.499 Y10.81 E1694.1211
G0 F18000 X-7.999 Y10.81
G1 F2400 X-8 Y-42.309 E1695.22531
G0 F18000 X-8.5 Y-42.309
G1 F2400 X-8.499 Y10.81 E1696.32953
G0 F18000 X-8.999 Y10.81
G1 F2400 X-9 Y-42.309 E1697.43374
G0 F18000 X-9.5 Y-42.309
G1 F2400 X-9.499 Y10.81 E1698.53796
G0 F18000 X-9.999 Y10.81
G1 F2400 X-10 Y-42.309 E1699.64217
G0 F18000 X-10.5 Y-42.309
G1 F2400 X-10.499 Y10.81 E1700.74639
G0 F18000 X-10.999 Y10.81
G1 F2400 X-11 Y-42.309 E1701.85061
G0 F18000 X-11.5 Y-42.309
G1 F2400 X-11.499 Y10.81 E1702.95482
G0 F18000 X-11.999 Y10.81
G1 F2400 X-12 Y-42.309 E1704.05904
G0 F18000 X-12.5 Y-42.309
G1 F2400 X-12.499 Y10.81 E1705.16325
G0 F18000 X-12.999 Y10.809
G1 F2400 X-13 Y-42.309 E1706.26745
G0 F18000 X-13.5 Y-42.309
G1 F2400 X-13.499 Y10.809 E1707.37164
G0 F18000 X-13.999 Y10.809
G1 F2400 X-14 Y-42.309 E1708.47584
G0 F18000 X-14.5 Y-42.309
G1 F2400 X-14.499 Y10.809 E1709.58003
G0 F18000 X-14.999 Y10.809
G1 F2400 X-15 Y-42.309 E1710.68423
G0 F18000 X-15.5 Y-42.309
G1 F2400 X-15.499 Y10.809 E1711.78842
G0 F18000 X-15.999 Y10.809
G1 F2400 X-16 Y-42.309 E1712.89262
G0 F18000 X-16.5 Y-42.309
G1 F2400 X-16.5 Y10.809 E1713.99681
G0 F18000 X-17 Y10.809
G1 F2400 X-17 Y-42.309 E1715.10101
G0 F18000 X-17.5 Y-42.309
G1 F2400 X-17.5 Y10.809 E1716.2052
G0 F18000 X-18 Y10.809
G1 F2400 X-18 Y-42.309 E1717.3094
G0 F18000 X-18.5 Y-42.309
G1 F2400 X-18.5 Y10.809 E1718.41359
G0 F18000 X-19 Y10.809
G1 F2400 X-19 Y-42.309 E1719.51779
G0 F18000 X-19.5 Y-42.309
G1 F2400 X-19.5 Y10.809 E1720.62198
G0 F18000 X-20 Y10.809
G1 F2400 X-20 Y-42.309 E1721.72618
G0 F18000 X-20.5 Y-42.309
G1 F2400 X-20.5 Y-32.838 E1721.92306
G0 F18000 X-21 Y-33.709
G1 F2400 X-21 Y-42.309 E1722.10183
G0 F18000 X-21.5 Y-42.309
G1 F2400 X-21.5 Y-34.28 E1722.26873
G0 F18000 X-22 Y-34.707
G1 F2400 X-22 Y-42.309 E1722.42676
G0 F18000 X-22.5 Y-42.309
G1 F2400 X-22.5 Y-35.043 E1722.5778
G0 F18000 X-23 Y-35.306
G1 F2400 X-23 Y-42.309 E1722.72338
G0 F18000 X-23.5 Y-42.309
G1 F2400 X-23.5 Y-35.477 E1722.8654
G0 F18000 X-24 Y-35.648
G1 F2400 X-24 Y-42.309 E1723.00386
G0 F18000 X-24.5 Y-42.309
G1 F2400 X-24.5 Y-35.685 E1723.14156
G0 F18000 X-25 Y-35.718
G1 F2400 X-25 Y-42.309 E1723.27857
G0 F18000 X-25.5 Y-42.309
G1 F2400 X-25.5 Y-35.703 E1723.4159
G0 F18000 X-26 Y-35.604
G1 F2400 X-26 Y-42.309 E1723.55528
G0 F18000 X-26.5 Y-42.309
G1 F2400 X-26.5 Y-35.506 E1723.69669
G0 F18000 X-27 Y-35.289
G1 F2400 X-27 Y-42.309 E1723.84262
G0 F18000 X-27.5 Y-42.309
G1 F2400 X-27.5 Y-35.044 E1723.99364
G0 F18000 X-28 Y-34.71
G1 F2400 X-28 Y-42.309 E1724.15161
G0 F18000 X-28.5 Y-42.309
G1 F2400 X-28.5 Y-34.273 E1724.31866
G0 F18000 X-29 Y-33.683
G1 F2400 X-29 Y-42.309 E1724.49797
G0 F18000 X-29.5 Y-42.309
G1 F2400 X-29.5 Y-32.907 E1724.69342
G0 F18000 X-29.5 Y-28.668
G0 X-29.5 Y-28.668
G1 F2400 X-29.5 Y-10.326 E1725.0747
G0 F18000 X-29 Y-11.183
G1 F2400 X-29 Y-27.794 E1725.42001
G0 F18000 X-28.5 Y-27.221
G1 F2400 X-28.5 Y-11.808 E1725.7404
G0 F18000 X-28 Y-12.196
G1 F2400 X-28 Y-26.792 E1726.04382
G0 F18000 X-27.5 Y-26.457
G1 F2400 X-27.5 Y-12.563 E1726.33264
G0 F18000 X-27 Y-12.79
G1 F2400 X-27 Y-26.194 E1726.61128
G0 F18000 X-26.5 Y-26.023
G1 F2400 X-26.5 Y-12.985 E1726.88231
G0 F18000 X-26 Y-13.126
G1 F2400 X-26 Y-25.852 E1727.14685
G0 F18000 X-25.5 Y-25.814
G1 F2400 X-25.5 Y-13.181 E1727.40946
G0 F18000 X-25 Y-13.235
G1 F2400 X-25 Y-25.78 E1727.67024
G0 F18000 X-24.5 Y-25.795
G1 F2400 X-24.5 Y-13.187 E1727.93233
G0 F18000 X-24 Y-13.11
G1 F2400 X-24 Y-25.893 E1728.19806
G0 F18000 X-23.5 Y-25.991
G1 F2400 X-23.5 Y-13.004 E1728.46803
G0 F18000 X-23 Y-12.784
G1 F2400 X-23 Y-26.207 E1728.74706
G0 F18000 X-22.5 Y-26.452
G1 F2400 X-22.5 Y-12.565 E1729.03574
G0 F18000 X-22 Y-12.198
G1 F2400 X-22 Y-26.784 E1729.33894
G0 F18000 X-21.5 Y-27.221
G1 F2400 X-21.5 Y-11.799 E1729.65953
G0 F18000 X-21 Y-11.18
G1 F2400 X-21 Y-27.809 E1730.00521
G0 F18000 X-20.5 Y-28.58
G1 F2400 X-20.5 Y-10.357 E1730.38402
G0 F18000 X-20.5 Y-6.165
G0 X-20.5 Y-6.165
G1 F2400 X-20.5 Y10.809 E1730.73687
G0 F18000 X-21 Y10.809
G1 F2400 X-21 Y-5.312 E1731.07198
G0 F18000 X-21.5 Y-4.689
G1 F2400 X-21.5 Y10.809 E1731.39415
G0 F18000 X-22 Y10.809
G1 F2400 X-22 Y-4.3 E1731.70823
G0 F18000 X-22.5 Y-3.932
G1 F2400 X-22.5 Y10.809 E1732.01466
G0 F18000 X-23 Y10.809
G1 F2400 X-23 Y-3.706 E1732.31639
G0 F18000 X-23.5 Y-3.511
G1 F2400 X-23.5 Y10.809 E1732.61407
G0 F18000 X-24 Y10.809
G1 F2400 X-24 Y-3.371 E1732.90884
G0 F18000 X-24.5 Y-3.316
G1 F2400 X-24.5 Y10.809 E1733.20246
G0 F18000 X-25 Y10.809
G1 F2400 X-25 Y-3.262 E1733.49496
G0 F18000 X-25.5 Y-3.31
G1 F2400 X-25.5 Y10.809 E1733.78846
G0 F18000 X-26 Y10.809
G1 F2400 X-26 Y-3.387 E1734.08356
G0 F18000 X-26.5 Y-3.494
G1 F2400 X-26.5 Y10.809 E1734.38089
G0 F18000 X-27 Y10.809
G1 F2400 X-27 Y-3.713 E1734.68277
G0 F18000 X-27.5 Y-3.933
G1 F2400 X-27.5 Y10.809 E1734.98922
G0 F18000 X-28 Y10.809
G1 F2400 X-28 Y-4.301 E1735.30332
G0 F18000 X-28.5 Y-4.7
G1 F2400 X-28.5 Y10.809 E1735.62571
