; Generated with MatterSlice 1.0
; filamentDiameter = 1.75
; extrusionWidth = 0.5
; firstLayerExtrusionWidth = 0.4
; layerThickness = 0.2
; firstLayerThickness = 0.3
; automatic settings before start_gcode
G21 ; set units to millimeters
M107 ; fan off
T0 ; set the active extruder to 0
; settings from start_gcode
M104 S210
M190 S50
M109 S210
G28
; automatic settings after start_gcode
T0 ; set the active extruder to 0
G90 ; use absolute coordinates
G92 E0 ; reset the expected extruder position
M82 ; use absolute distance for extrusion
; Layer count: 9
; Layer Change GCode
; LAYER:0
G4 P0
M107
G0 F18000 X80.1 Y50.1 Z0.6
; TYPE:SKIRT
G1 Z0.3
G1 F6600 E0
G1 F720 X-80.099 Y50.1 E7.99236
G1 X-80.099 Y-50.099 E12.99131
G1 X80.1 Y-50.099 E20.98367
G1 X80.1 Y50.1 E25.98262
G0 F18000 X79.7 Y49.7
G1 F720 X-79.699 Y49.7 E33.93507
G1 X-79.699 Y-49.699 E38.8941
G1 X79.7 Y-49.699 E46.84655
G1 X79.7 Y49.7 E51.80559
G1 F6600 E45.00559
G1 Z0.6
G0 F18000 X-76.299 Y46.3
; TYPE:WALL-OUTER
G1 Z0.3
G1 F6600 E51.90559
G1 F720 X-76.299 Y46.3 E51.90559
G1 X-76.299 Y-46.299 E56.52537
G1 X76.3 Y-46.299 E64.13857
G1 X76.3 Y46.3 E68.75835
G1 X-76.299 Y46.3 E76.37154
G0 F18000 X-75.899 Y45.9
; TYPE:WALL-INNER
G1 F720 X-75.899 Y45.9 E76.37154
G1 X-75.899 Y-45.899 E80.95141
G1 X75.9 Y-45.899 E88.5247
G1 X75.9 Y45.9 E93.10457
G1 X-75.899 Y45.9 E100.67785
G0 F18000 X-23.499 Y36.2
G0 X-23.499 Y36.2
G0 X-23.199 Y36.2
; TYPE:WALL-OUTER
G1 F720 X-23.199 Y36.2 E100.67785
G1 X23.2 Y36.2 E102.99271
G1 X23.2 Y8.8 E104.3597
G1 X-23.199 Y8.8 E106.67455
G1 X-23.199 Y36.2 E108.04154
G0 F18000 X-23.599 Y36.6
; TYPE:WALL-INNER
G1 F720 X-23.599 Y36.6 E108.04154
G1 X23.6 Y36.6 E110.39631
G1 X23.6 Y8.4 E111.80322
G1 X-23.599 Y8.4 E114.15798
G1 X-23.599 Y36.6 E115.56489
G0 F18000 X-25.122 Y-6.842
G0 X-25.136 Y-7.242
G0 X-25.127 Y-6.953
G0 X-25.127 Y-6.953
G0 X-25.082 Y-7.248
; TYPE:WALL-OUTER
G1 F720 X-25.082 Y-7.248 E115.56489
G1 X-24.044 Y-7.363 E115.61699
G1 X-23.071 Y-7.743 E115.6691
G1 X-22.229 Y-8.361 E115.72121
G1 X-21.575 Y-9.176 E115.77335
G1 X-21.156 Y-10.133 E115.82547
G1 X-20.998 Y-11.166 E115.8776
G1 X-21.113 Y-12.204 E115.9297
G1 X-21.492 Y-13.177 E115.9818
G1 X-22.11 Y-14.02 E116.03395
G1 X-22.927 Y-14.673 E116.08613
G1 X-23.883 Y-15.093 E116.13822
G1 X-24.916 Y-15.251 E116.19036
G1 X-25.954 Y-15.136 E116.24246
G1 X-26.927 Y-14.756 E116.29458
G1 X-27.769 Y-14.138 E116.34668
G1 X-28.422 Y-13.322 E116.39883
G1 X-28.842 Y-12.365 E116.45097
G1 X-29 Y-11.333 E116.50305
G1 X-28.885 Y-10.295 E116.55516
G1 X-28.506 Y-9.322 E116.60725
G1 X-27.887 Y-8.479 E116.65943
G1 X-27.072 Y-7.826 E116.71153
G1 X-26.115 Y-7.406 E116.76367
G1 X-25.082 Y-7.248 E116.81581
G0 F18000 X-25.091 Y-6.845
; TYPE:WALL-INNER
G1 F720 X-25.091 Y-6.845 E116.81581
G1 X-23.947 Y-6.971 E116.87323
G1 X-22.876 Y-7.39 E116.9306
G1 X-21.95 Y-8.07 E116.98792
G1 X-21.23 Y-8.967 E117.0453
G1 X-20.769 Y-10.02 E117.10265
G1 X-20.595 Y-11.157 E117.16004
G1 X-20.721 Y-12.3 E117.21741
G1 X-21.139 Y-13.371 E117.27477
G1 X-21.819 Y-14.299 E117.33216
G1 X-22.718 Y-15.018 E117.38959
G1 X-23.77 Y-15.48 E117.44692
G1 X-24.907 Y-15.654 E117.5043
G1 X-26.051 Y-15.528 E117.56172
G1 X-27.122 Y-15.109 E117.6191
G1 X-28.048 Y-14.429 E117.67642
G1 X-28.767 Y-13.531 E117.73381
G1 X-29.229 Y-12.478 E117.79118
G1 X-29.403 Y-11.342 E117.84851
G1 X-29.277 Y-10.199 E117.90588
G1 X-28.859 Y-9.127 E117.96329
G1 X-28.178 Y-8.2 E118.02067
G1 X-27.281 Y-7.481 E118.07803
G1 X-26.228 Y-7.019 E118.1354
G1 X-25.091 Y-6.845 E118.19278
G0 F18000 X-49.507 Y-6.955
G0 X-49.907 Y-6.957
G0 X-50.267 Y-6.959
G0 X-50.267 Y-6.959
G0 X-50.212 Y-7.254
; TYPE:WALL-OUTER
G1 F720 X-50.212 Y-7.254 E118.19278
G1 X-49.17 Y-7.335 E118.24492
G1 X-48.186 Y-7.682 E118.29698
G1 X-47.324 Y-8.273 E118.34912
G1 X-46.645 Y-9.067 E118.40124
G1 X-46.194 Y-10.009 E118.45335
G1 X-46.003 Y-11.036 E118.50546
G1 X-46.084 Y-12.078 E118.55761
G1 X-46.432 Y-13.063 E118.60972
G1 X-47.023 Y-13.925 E118.66187
G1 X-47.817 Y-14.604 E118.71399
G1 X-48.76 Y-15.055 E118.76614
G1 X-49.786 Y-15.245 E118.8182
G1 X-50.828 Y-15.164 E118.87034
G1 X-51.812 Y-14.817 E118.92239
G1 X-52.674 Y-14.225 E118.97457
G1 X-53.353 Y-13.432 E119.02665
G1 X-53.804 Y-12.49 E119.07875
G1 X-53.995 Y-11.462 E119.13092
G1 X-53.914 Y-10.42 E119.18306
G1 X-53.566 Y-9.436 E119.23513
G1 X-52.975 Y-8.574 E119.28728
G1 X-52.181 Y-7.895 E119.3394
G1 X-51.238 Y-7.444 E119.39155
G1 X-50.212 Y-7.254 E119.44361
G0 F18000 X-50.233 Y-6.851
; TYPE:WALL-INNER
G1 F720 X-50.233 Y-6.851 E119.44361
G1 X-49.087 Y-6.94 E119.50095
G1 X-48.003 Y-7.323 E119.55831
G1 X-47.054 Y-7.973 E119.6157
G1 X-46.307 Y-8.847 E119.67306
G1 X-45.811 Y-9.884 E119.73041
G1 X-45.6 Y-11.015 E119.78781
G1 X-45.689 Y-12.161 E119.84515
G1 X-46.073 Y-13.246 E119.90257
G1 X-46.723 Y-14.195 E119.95996
G1 X-47.597 Y-14.942 E120.01732
G1 X-48.635 Y-15.438 E120.07471
G1 X-49.765 Y-15.648 E120.13206
G1 X-50.911 Y-15.559 E120.1894
G1 X-51.995 Y-15.176 E120.24676
G1 X-52.944 Y-14.525 E120.30417
G1 X-53.691 Y-13.652 E120.3615
G1 X-54.187 Y-12.615 E120.41885
G1 X-54.398 Y-11.483 E120.4763
G1 X-54.309 Y-10.336 E120.53369
G1 X-53.925 Y-9.253 E120.59102
G1 X-53.275 Y-8.304 E120.6484
G1 X-52.401 Y-7.557 E120.70577
G1 X-51.363 Y-7.061 E120.76316
G1 X-50.233 Y-6.851 E120.8205
G1 F6600 E114.0205
G1 Z0.6
G0 F18000 X-50.232 Y-6.851
G0 X-50.232 Y-6.853
G0 X-51.362 Y-7.062
G0 X-52.4 Y-7.559
G0 X-53.273 Y-8.306
G0 X-53.924 Y-9.254
G0 X-54.307 Y-10.337
G0 X-54.396 Y-11.483
G0 X-54.186 Y-12.614
G0 X-53.689 Y-13.651
G0 X-52.942 Y-14.523
G0 X-51.994 Y-15.175
G0 X-50.911 Y-15.557
G0 X-50.29 Y-15.606
G0 X-50.381 Y-29.357
G0 X-50.384 Y-29.757
G0 X-50.383 Y-29.469
G0 X-50.383 Y-29.469
G0 X-50.321 Y-29.761
; TYPE:WALL-OUTER
G1 Z0.3
G1 F6600 E120.9205
G1 F720 X-50.321 Y-29.761 E120.9205
G1 X-49.279 Y-29.814 E120.97255
G1 X-48.285 Y-30.134 E121.02465
G1 X-47.406 Y-30.7 E121.07681
G1 X-46.706 Y-31.475 E121.12891
G1 X-46.23 Y-32.405 E121.18103
G1 X-46.01 Y-33.427 E121.23319
G1 X-46.063 Y-34.47 E121.28529
G1 X-46.383 Y-35.464 E121.33739
G1 X-46.95 Y-36.342 E121.38953
G1 X-47.725 Y-37.042 E121.44163
G1 X-48.655 Y-37.519 E121.49378
G1 X-49.676 Y-37.738 E121.54588
G1 X-50.719 Y-37.685 E121.59798
G1 X-51.713 Y-37.365 E121.65008
G1 X-52.591 Y-36.798 E121.70222
G1 X-53.292 Y-36.024 E121.75432
G1 X-53.768 Y-35.094 E121.80644
G1 X-53.988 Y-34.072 E121.8586
G1 X-53.935 Y-33.029 E121.9107
G1 X-53.614 Y-32.035 E121.96281
G1 X-53.048 Y-31.157 E122.01493
G1 X-52.273 Y-30.457 E122.06703
G1 X-51.343 Y-29.98 E122.11917
G1 X-50.321 Y-29.761 E122.17132
G0 F18000 X-50.354 Y-29.359
; TYPE:WALL-INNER
G1 F720 X-50.354 Y-29.359 E122.17132
G1 X-49.206 Y-29.417 E122.22867
G1 X-48.112 Y-29.769 E122.286
G1 X-47.145 Y-30.393 E122.34342
G1 X-46.374 Y-31.246 E122.40078
G1 X-45.85 Y-32.27 E122.45817
G1 X-45.608 Y-33.394 E122.51553
G1 X-45.666 Y-34.543 E122.57293
G1 X-46.018 Y-35.637 E122.63026
G1 X-46.643 Y-36.603 E122.68767
G1 X-47.496 Y-37.374 E122.74503
G1 X-48.52 Y-37.899 E122.80244
G1 X-49.643 Y-38.14 E122.85974
G1 X-50.792 Y-38.082 E122.91714
G1 X-51.886 Y-37.73 E122.97448
G1 X-52.852 Y-37.105 E123.03188
G1 X-53.624 Y-36.253 E123.08924
G1 X-54.148 Y-35.229 E123.14662
G1 X-54.39 Y-34.105 E123.20399
G1 X-54.332 Y-32.956 E123.26138
G1 X-53.979 Y-31.862 E123.31873
G1 X-53.355 Y-30.896 E123.37611
G1 X-52.502 Y-30.125 E123.43347
G1 X-51.478 Y-29.6 E123.49088
G1 X-50.354 Y-29.359 E123.54823
G0 F18000 X-25.429 Y-29.453
G0 X-25.029 Y-29.455
G0 X-24.764 Y-29.457
G0 X-24.764 Y-29.457
G0 X-24.745 Y-29.756
; TYPE:WALL-OUTER
G1 F720 X-24.745 Y-29.756 E123.54823
G1 X-23.721 Y-29.958 E123.60031
G1 X-22.782 Y-30.418 E123.65247
G1 X-21.996 Y-31.105 E123.70455
G1 X-21.413 Y-31.972 E123.75668
G1 X-21.075 Y-32.961 E123.80882
G1 X-21.006 Y-34.003 E123.86092
G1 X-21.207 Y-35.028 E123.91303
G1 X-21.667 Y-35.966 E123.96515
G1 X-22.355 Y-36.752 E124.01727
G1 X-23.221 Y-37.335 E124.06935
G1 X-24.21 Y-37.673 E124.12149
G1 X-25.253 Y-37.743 E124.17365
G1 X-26.277 Y-37.541 E124.22572
G1 X-27.216 Y-37.081 E124.27789
G1 X-28.002 Y-36.394 E124.32997
G1 X-28.585 Y-35.527 E124.38209
G1 X-28.922 Y-34.538 E124.43422
G1 X-28.992 Y-33.495 E124.48637
G1 X-28.791 Y-32.471 E124.53843
G1 X-28.331 Y-31.533 E124.59056
G1 X-27.643 Y-30.746 E124.64271
G1 X-26.776 Y-30.164 E124.6948
G1 X-25.788 Y-29.826 E124.7469
G1 X-24.745 Y-29.756 E124.79905
G0 F18000 X-24.72 Y-29.353
; TYPE:WALL-INNER
G1 F720 X-24.72 Y-29.353 E124.79905
G1 X-23.592 Y-29.576 E124.85642
G1 X-22.559 Y-30.082 E124.9138
G1 X-21.693 Y-30.838 E124.97116
G1 X-21.052 Y-31.793 E125.02854
G1 X-20.68 Y-32.882 E125.08595
G1 X-20.603 Y-34.028 E125.14326
G1 X-20.824 Y-35.157 E125.20065
G1 X-21.331 Y-36.189 E125.25801
G1 X-22.088 Y-37.055 E125.3154
G1 X-23.042 Y-37.696 E125.37274
G1 X-24.131 Y-38.068 E125.43015
G1 X-25.278 Y-38.146 E125.48751
G1 X-26.406 Y-37.923 E125.54488
G1 X-27.439 Y-37.417 E125.60226
G1 X-28.305 Y-36.661 E125.65961
G1 X-28.946 Y-35.706 E125.717
G1 X-29.317 Y-34.617 E125.77439
G1 X-29.395 Y-33.47 E125.83175
G1 X-29.174 Y-32.342 E125.8891
G1 X-28.667 Y-31.31 E125.94646
G1 X-27.91 Y-30.443 E126.00388
G1 X-26.955 Y-29.803 E126.06124
G1 X-25.867 Y-29.431 E126.1186
G1 X-24.72 Y-29.353 E126.17596
G0 F18000 X-1.288 Y-29.448
G0 X-0.888 Y-29.45
G0 X-0.161 Y-29.454
G0 X-0.161 Y-29.454
G0 X-0.115 Y-29.749
; TYPE:WALL-OUTER
G1 F720 X-0.115 Y-29.749 E126.17596
G1 X0.924 Y-29.856 E126.22807
G1 X1.9 Y-30.227 E126.28016
G1 X2.746 Y-30.839 E126.33225
G1 X3.407 Y-31.649 E126.38441
G1 X3.834 Y-32.602 E126.43651
G1 X4 Y-33.633 E126.48861
G1 X3.894 Y-34.672 E126.54072
G1 X3.523 Y-35.649 E126.59286
G1 X2.911 Y-36.495 E126.64495
G1 X2.101 Y-37.156 E126.69711
G1 X1.148 Y-37.583 E126.74921
G1 X0.116 Y-37.75 E126.80136
G1 X-0.923 Y-37.643 E126.85347
G1 X-1.899 Y-37.272 E126.90557
G1 X-2.745 Y-36.66 E126.95766
G1 X-3.405 Y-35.85 E127.00979
G1 X-3.832 Y-34.897 E127.06189
G1 X-3.999 Y-33.866 E127.11399
G1 X-3.892 Y-32.826 E127.16615
G1 X-3.521 Y-31.85 E127.21825
G1 X-2.91 Y-31.003 E127.27035
G1 X-2.099 Y-30.343 E127.32252
G1 X-1.146 Y-29.916 E127.37462
G1 X-0.115 Y-29.749 E127.42672
G0 F18000 X-0.127 Y-29.346
; TYPE:WALL-INNER
G1 F720 X-0.127 Y-29.346 E127.42672
G1 X1.017 Y-29.463 E127.4841
G1 X2.091 Y-29.872 E127.54143
G1 X3.023 Y-30.546 E127.59881
G1 X3.75 Y-31.437 E127.65619
G1 X4.221 Y-32.487 E127.7136
G1 X4.403 Y-33.621 E127.7709
G1 X4.287 Y-34.765 E127.82827
G1 X3.878 Y-35.84 E127.88565
G1 X3.204 Y-36.772 E127.94303
G1 X2.313 Y-37.499 E128.0004
G1 X1.264 Y-37.97 E128.05777
G1 X0.127 Y-38.153 E128.11523
G1 X-1.016 Y-38.036 E128.17255
G1 X-2.09 Y-37.627 E128.22988
G1 X-3.022 Y-36.953 E128.28727
G1 X-3.748 Y-36.062 E128.34461
G1 X-4.219 Y-35.013 E128.40198
G1 X-4.402 Y-33.878 E128.45933
G1 X-4.285 Y-32.733 E128.51675
G1 X-3.876 Y-31.659 E128.57409
G1 X-3.203 Y-30.726 E128.63148
G1 X-2.31 Y-30 E128.6889
G1 X-1.262 Y-29.529 E128.74622
G1 X-0.127 Y-29.346 E128.80358
G0 F18000 X0.261 Y-15.614
G0 X0.591 Y-15.613
G0 X1.701 Y-15.31
G0 X2.694 Y-14.732
G0 X3.504 Y-13.916
G0 X4.075 Y-12.918
G0 X4.368 Y-11.807
G0 X4.364 Y-10.659
G0 X4.061 Y-9.548
G0 X3.483 Y-8.555
G0 X2.666 Y-7.746
G0 X1.668 Y-7.175
G0 X0.508 Y-6.873
G0 X0.506 Y-6.981
G0 X0.506 Y-6.981
G0 X0.507 Y-7.28
; TYPE:WALL-OUTER
G1 F720 X0.507 Y-7.28 E128.80358
G1 X1.517 Y-7.546 E128.85569
G1 X2.423 Y-8.065 E128.90778
G1 X3.166 Y-8.8 E128.95992
G1 X3.691 Y-9.703 E129.01203
G1 X3.966 Y-10.712 E129.06421
G1 X3.97 Y-11.757 E129.11634
G1 X3.704 Y-12.767 E129.16845
G1 X3.184 Y-13.673 E129.22057
G1 X2.448 Y-14.415 E129.27271
G1 X1.546 Y-14.94 E129.32478
G1 X0.538 Y-15.215 E129.3769
G1 X-0.506 Y-15.219 E129.42899
G1 X-1.516 Y-14.953 E129.4811
G1 X-2.422 Y-14.434 E129.53319
G1 X-3.165 Y-13.698 E129.58536
G1 X-3.69 Y-12.795 E129.63748
G1 X-3.964 Y-11.787 E129.68959
G1 X-3.968 Y-10.742 E129.74173
G1 X-3.702 Y-9.733 E129.79378
G1 X-3.184 Y-8.826 E129.84589
G1 X-2.447 Y-8.084 E129.89807
G1 X-1.545 Y-7.558 E129.95016
G1 X-0.537 Y-7.284 E130.00228
G1 X0.507 Y-7.28 E130.05436
G0 F18000 X0.558 Y-6.88
; TYPE:WALL-INNER
G1 F720 X0.558 Y-6.88 E130.05436
G1 X1.67 Y-7.173 E130.11174
G1 X2.667 Y-7.744 E130.16906
G1 X3.485 Y-8.553 E130.22645
G1 X4.063 Y-9.547 E130.28382
G1 X4.366 Y-10.658 E130.34127
G1 X4.37 Y-11.808 E130.39865
G1 X4.077 Y-12.92 E130.45602
G1 X3.505 Y-13.918 E130.51341
G1 X2.695 Y-14.734 E130.57077
G1 X1.702 Y-15.312 E130.62809
G1 X0.593 Y-15.615 E130.68545
G1 X-0.557 Y-15.619 E130.74282
G1 X-1.669 Y-15.326 E130.80019
G1 X-2.666 Y-14.755 E130.85751
G1 X-3.484 Y-13.945 E130.91495
G1 X-4.062 Y-12.95 E130.97235
G1 X-4.364 Y-11.841 E131.0297
G1 X-4.368 Y-10.691 E131.08707
G1 X-4.075 Y-9.58 E131.14439
G1 X-3.505 Y-8.581 E131.20178
G1 X-2.694 Y-7.765 E131.25917
G1 X-1.701 Y-7.186 E131.31652
G1 X-0.591 Y-6.884 E131.37391
G1 X0.558 Y-6.88 E131.43124
G0 F18000 X49.462 Y-6.953
G0 X49.862 Y-6.954
G0 X50.167 Y-6.955
G0 X50.167 Y-6.955
G0 X50.191 Y-7.253
; TYPE:WALL-OUTER
G1 F720 X50.191 Y-7.253 E131.43124
G1 X51.219 Y-7.438 E131.48335
G1 X52.164 Y-7.883 E131.53546
G1 X52.961 Y-8.558 E131.58757
G1 X53.557 Y-9.417 E131.63973
G1 X53.91 Y-10.399 E131.69179
G1 X53.998 Y-11.441 E131.74396
G1 X53.812 Y-12.468 E131.79603
G1 X53.367 Y-13.413 E131.84814
G1 X52.692 Y-14.211 E131.90029
G1 X51.833 Y-14.806 E131.95242
G1 X50.85 Y-15.16 E132.00454
G1 X49.809 Y-15.246 E132.05666
G1 X48.782 Y-15.061 E132.10872
G1 X47.836 Y-14.616 E132.16088
G1 X47.039 Y-13.941 E132.21298
G1 X46.443 Y-13.082 E132.26514
G1 X46.09 Y-12.1 E132.31721
G1 X46.002 Y-11.058 E132.36938
G1 X46.189 Y-10.03 E132.4215
G1 X46.634 Y-9.086 E132.47357
G1 X47.308 Y-8.288 E132.52568
G1 X48.167 Y-7.693 E132.57782
G1 X49.15 Y-7.339 E132.62994
G1 X50.191 Y-7.253 E132.68205
G0 F18000 X50.21 Y-6.85
; TYPE:WALL-INNER
G1 F720 X50.21 Y-6.85 E132.68205
G1 X51.342 Y-7.054 E132.73944
G1 X52.382 Y-7.544 E132.7968
G1 X53.26 Y-8.287 E132.85418
G1 X53.916 Y-9.232 E132.91157
G1 X54.304 Y-10.313 E132.96887
G1 X54.401 Y-11.46 E133.0263
G1 X54.196 Y-12.591 E133.08365
G1 X53.706 Y-13.631 E133.141
G1 X52.963 Y-14.51 E133.19842
G1 X52.018 Y-15.165 E133.25579
G1 X50.936 Y-15.554 E133.31315
G1 X49.79 Y-15.649 E133.37052
G1 X48.659 Y-15.445 E133.42786
G1 X47.618 Y-14.955 E133.48526
G1 X46.74 Y-14.212 E133.54264
G1 X46.084 Y-13.267 E133.60003
G1 X45.696 Y-12.186 E133.65733
G1 X45.599 Y-11.039 E133.71476
G1 X45.805 Y-9.907 E133.77217
G1 X46.295 Y-8.868 E133.82948
G1 X47.037 Y-7.989 E133.88687
G1 X47.982 Y-7.334 E133.94423
G1 X49.064 Y-6.945 E134.00159
G1 X50.21 Y-6.85 E134.05896
G1 F6600 E127.25896
G1 Z0.6
G0 F18000 X50.209 Y-6.852
G0 X51.341 Y-7.056
G0 X52.381 Y-7.546
G0 X53.259 Y-8.289
G0 X53.914 Y-9.233
G0 X54.302 Y-10.314
G0 X54.398 Y-11.459
G0 X54.194 Y-12.59
G0 X53.704 Y-13.63
G0 X52.961 Y-14.509
G0 X52.017 Y-15.163
G0 X50.935 Y-15.552
G0 X50.319 Y-15.603
G0 X50.492 Y-29.372
G0 X50.497 Y-29.772
G0 X50.494 Y-29.48
G0 X50.494 Y-29.48
G0 X50.496 Y-29.779
; TYPE:WALL-OUTER
G1 Z0.3
G1 F6600 E134.15896
G1 F720 X50.496 Y-29.779 E134.15896
G1 X51.507 Y-30.042 E134.21108
G1 X52.415 Y-30.558 E134.26319
G1 X53.158 Y-31.292 E134.31529
G1 X53.687 Y-32.194 E134.36746
G1 X53.964 Y-33.2 E134.41952
G1 X53.971 Y-34.245 E134.47166
G1 X53.707 Y-35.256 E134.52379
G1 X53.191 Y-36.165 E134.57593
G1 X52.457 Y-36.908 E134.62804
G1 X51.556 Y-37.436 E134.68014
G1 X50.549 Y-37.714 E134.73226
G1 X49.504 Y-37.72 E134.7844
G1 X48.493 Y-37.457 E134.83651
G1 X47.585 Y-36.941 E134.88862
G1 X46.842 Y-36.207 E134.94072
G1 X46.313 Y-35.305 E134.99289
G1 X46.036 Y-34.299 E135.04495
G1 X46.029 Y-33.254 E135.09709
G1 X46.293 Y-32.243 E135.14922
G1 X46.809 Y-31.334 E135.20136
G1 X47.543 Y-30.591 E135.25347
G1 X48.445 Y-30.062 E135.30564
G1 X49.451 Y-29.785 E135.3577
G1 X50.496 Y-29.779 E135.40983
G0 F18000 X50.546 Y-29.379
; TYPE:WALL-INNER
G1 F720 X50.546 Y-29.379 E135.40983
G1 X51.659 Y-29.668 E135.4672
G1 X52.658 Y-30.236 E135.52453
G1 X53.477 Y-31.044 E135.58193
G1 X54.059 Y-32.037 E135.63936
G1 X54.363 Y-33.145 E135.69668
G1 X54.372 Y-34.295 E135.75405
G1 X54.081 Y-35.408 E135.81145
G1 X53.513 Y-36.408 E135.86882
G1 X52.704 Y-37.227 E135.92626
G1 X51.713 Y-37.807 E135.98354
G1 X50.604 Y-38.114 E136.04095
G1 X49.454 Y-38.12 E136.09833
G1 X48.341 Y-37.831 E136.1557
G1 X47.342 Y-37.263 E136.21303
G1 X46.523 Y-36.455 E136.27043
G1 X45.941 Y-35.462 E136.32785
G1 X45.637 Y-34.354 E136.38517
G1 X45.628 Y-33.204 E136.44255
G1 X45.919 Y-32.091 E136.49994
G1 X46.487 Y-31.091 E136.55732
G1 X47.295 Y-30.272 E136.61472
G1 X48.288 Y-29.69 E136.67214
G1 X49.396 Y-29.385 E136.72947
G1 X50.546 Y-29.379 E136.78685
G1 F6600 E129.98685
G1 Z0.6
G0 F18000 X50.361 Y-15.601
G0 X50.935 Y-15.552
G0 X52.017 Y-15.163
G0 X52.961 Y-14.509
G0 X53.704 Y-13.63
G0 X54.194 Y-12.59
G0 X54.398 Y-11.459
G0 X54.302 Y-10.314
G0 X53.914 Y-9.233
G0 X53.259 Y-8.289
G0 X52.381 Y-7.546
G0 X51.341 Y-7.056
G0 X50.245 Y-6.858
G0 X49.927 Y16.923
G0 X50.184 Y16.9
G0 X51.627 Y17.138
G0 X52.96 Y17.742
G0 X54.092 Y18.671
G0 X54.943 Y19.86
G0 X55.457 Y21.23
G0 X55.599 Y22.684
G0 X55.361 Y24.128
G0 X54.757 Y25.459
G0 X53.829 Y26.591
G0 X52.639 Y27.442
G0 X51.271 Y27.956
G0 X49.778 Y28.103
G0 X49.78 Y27.993
G0 X49.78 Y27.993
G0 X49.828 Y27.699
; TYPE:WALL-OUTER
G1 Z0.3
G1 F6600 E136.88685
G1 F720 X49.828 Y27.699 E136.88685
G1 X51.18 Y27.565 E136.95463
G1 X52.45 Y27.088 E137.02231
G1 X53.555 Y26.297 E137.09011
G1 X54.416 Y25.248 E137.15782
G1 X54.977 Y24.012 E137.22553
G1 X55.199 Y22.672 E137.2933
G1 X55.066 Y21.32 E137.36108
G1 X54.589 Y20.049 E137.4288
G1 X53.798 Y18.945 E137.49656
G1 X52.749 Y18.083 E137.5643
G1 X51.512 Y17.522 E137.63206
G1 X50.172 Y17.3 E137.69983
G1 X48.82 Y17.434 E137.76761
G1 X47.55 Y17.911 E137.83529
G1 X46.445 Y18.702 E137.90309
G1 X45.584 Y19.751 E137.9708
G1 X45.023 Y20.987 E138.03851
G1 X44.801 Y22.327 E138.10628
G1 X44.934 Y23.679 E138.17406
G1 X45.412 Y24.95 E138.2418
G1 X46.203 Y26.054 E138.30956
G1 X47.251 Y26.916 E138.37726
G1 X48.488 Y27.477 E138.44502
G1 X49.828 Y27.699 E138.51279
G0 F18000 X49.815 Y28.102
; TYPE:WALL-INNER
G1 F720 X49.815 Y28.102 E138.51279
G1 X51.271 Y27.958 E138.58578
G1 X52.64 Y27.444 E138.65874
G1 X53.831 Y26.592 E138.73179
G1 X54.759 Y25.461 E138.80478
G1 X55.363 Y24.129 E138.87775
G1 X55.602 Y22.685 E138.95077
G1 X55.459 Y21.229 E139.02376
G1 X54.945 Y19.859 E139.09676
G1 X54.093 Y18.669 E139.16978
G1 X52.962 Y17.74 E139.2428
G1 X51.629 Y17.136 E139.31581
G1 X50.185 Y16.897 E139.38883
G1 X48.729 Y17.041 E139.46183
G1 X47.36 Y17.555 E139.53478
G1 X46.169 Y18.407 E139.60784
G1 X45.241 Y19.538 E139.68083
G1 X44.637 Y20.87 E139.7538
G1 X44.398 Y22.314 E139.82682
G1 X44.541 Y23.77 E139.89981
G1 X45.056 Y25.14 E139.97283
G1 X45.908 Y26.329 E140.0458
G1 X47.038 Y27.259 E140.11882
G1 X48.371 Y27.863 E140.19183
G1 X49.815 Y28.102 E140.26485
G0 F18000 X49.535 Y28.399
; TYPE:BOTTOM-FILL
G1 F720 X23.939 Y28.4 E141.54184
G0 F18000 X23.939 Y28.8
G1 F720 X75.56 Y28.799 E144.11722
G0 F18000 X75.56 Y28.399
G1 F720 X50.25 Y28.399 E145.37994
G0 F18000 X52.127 Y27.999
G0 X52.127 Y27.999
G1 F720 X75.56 Y27.999 E146.54902
G0 F18000 X75.56 Y27.599
G1 F720 X53.006 Y27.599 E147.67425
G0 F18000 X53.565 Y27.199
G1 F720 X75.56 Y27.199 E148.77158
G0 F18000 X75.56 Y26.799
G1 F720 X54.101 Y26.799 E149.84217
G0 F18000 X54.429 Y26.399
G1 F720 X75.56 Y26.399 E150.8964
G0 F18000 X75.56 Y25.999
G1 F720 X54.757 Y25.999 E151.93427
G0 F18000 X55.069 Y25.599
G1 F720 X75.56 Y25.599 E152.95657
G0 F18000 X75.56 Y25.199
G1 F720 X55.25 Y25.199 E153.96984
G0 F18000 X55.432 Y24.799
G1 F720 X75.56 Y24.799 E154.97403
G0 F18000 X75.56 Y24.399
G1 F720 X55.613 Y24.399 E155.96919
G0 F18000 X55.729 Y23.999
G1 F720 X75.56 Y23.999 E156.95856
G0 F18000 X75.56 Y23.599
G1 F720 X55.795 Y23.599 E157.94464
G0 F18000 X55.861 Y23.199
G1 F720 X75.56 Y23.199 E158.92743
G0 F18000 X75.56 Y22.799
G1 F720 X55.927 Y22.799 E159.90692
G0 F18000 X55.915 Y22.399
G1 F720 X75.56 Y22.399 E160.88702
G0 F18000 X75.56 Y21.999
G1 F720 X55.876 Y21.999 E161.86906
G0 F18000 X55.837 Y21.599
G1 F720 X75.56 Y21.599 E162.85304
G0 F18000 X75.56 Y21.199
G1 F720 X55.798 Y21.199 E163.83897
G0 F18000 X55.662 Y20.799
G1 F720 X75.56 Y20.799 E164.83169
G0 F18000 X75.56 Y20.399
G1 F720 X55.511 Y20.399 E165.83193
G0 F18000 X55.361 Y19.999
G1 F720 X75.56 Y19.999 E166.83967
G0 F18000 X75.56 Y19.599
G1 F720 X55.177 Y19.599 E167.85658
G0 F18000 X54.891 Y19.199
G1 F720 X75.56 Y19.199 E168.88776
G0 F18000 X75.56 Y18.799
G1 F720 X54.605 Y18.799 E169.93321
G0 F18000 X54.302 Y18.399
G1 F720 X75.56 Y18.399 E170.99377
G0 F18000 X75.56 Y17.999
G1 F720 X53.815 Y17.999 E172.07864
G0 F18000 X53.328 Y17.599
G1 F720 X75.56 Y17.599 E173.1878
G0 F18000 X75.56 Y17.199
G1 F720 X52.593 Y17.199 E174.33362
G0 F18000 X51.684 Y16.799
G1 F720 X75.56 Y16.799 E175.5248
G0 F18000 X75.56 Y16.399
G1 F720 X23.94 Y16.4 E178.10013
G0 F18000 X23.94 Y16.8
G1 F720 X48.402 Y16.799 E179.32055
G0 F18000 X47.338 Y17.199
G1 F720 X23.94 Y17.2 E180.48788
G0 F18000 X23.94 Y17.6
G1 F720 X46.713 Y17.599 E181.62403
G0 F18000 X46.154 Y17.999
G1 F720 X23.94 Y18 E182.73229
G0 F18000 X23.94 Y18.4
G1 F720 X45.734 Y18.399 E183.8196
G0 F18000 X45.406 Y18.799
G1 F720 X23.94 Y18.8 E184.89054
G0 F18000 X23.94 Y19.2
G1 F720 X45.078 Y19.199 E185.94512
G0 F18000 X44.84 Y19.599
G1 F720 X23.94 Y19.6 E186.98782
G0 F18000 X23.94 Y20
G1 F720 X44.659 Y19.999 E188.0215
G0 F18000 X44.477 Y20.399
G1 F720 X23.94 Y20.4 E189.0461
G0 F18000 X23.94 Y20.8
G1 F720 X44.304 Y20.799 E190.06206
G0 F18000 X44.238 Y21.199
G1 F720 X23.94 Y21.2 E191.07473
G0 F18000 X23.94 Y21.6
G1 F720 X44.172 Y21.599 E192.08411
G0 F18000 X44.106 Y21.999
G1 F720 X23.94 Y22 E193.09019
G0 F18000 X23.94 Y22.4
G1 F720 X44.066 Y22.399 E194.09429
G0 F18000 X44.105 Y22.799
G1 F720 X23.939 Y22.8 E195.10037
G0 F18000 X23.939 Y23.2
G1 F720 X44.144 Y23.199 E196.1084
G0 F18000 X44.183 Y23.599
G1 F720 X23.939 Y23.6 E197.11838
G0 F18000 X23.939 Y24
G1 F720 X44.264 Y23.999 E198.1324
G0 F18000 X44.414 Y24.399
G1 F720 X23.939 Y24.4 E199.1539
G0 F18000 X23.939 Y24.8
G1 F720 X44.565 Y24.799 E200.18294
G0 F18000 X44.715 Y25.199
G1 F720 X23.939 Y25.2 E201.21945
G0 F18000 X23.939 Y25.6
G1 F720 X44.968 Y25.599 E202.2686
G0 F18000 X45.254 Y25.999
G1 F720 X23.939 Y26 E203.332
G0 F18000 X23.939 Y26.4
G1 F720 X45.541 Y26.399 E204.40973
G0 F18000 X45.945 Y26.799
G1 F720 X23.939 Y26.8 E205.50762
G0 F18000 X23.939 Y27.2
G1 F720 X46.432 Y27.199 E206.6298
G0 F18000 X46.97 Y27.599
G1 F720 X23.939 Y27.6 E207.77882
G0 F18000 X23.939 Y28
G1 F720 X47.851 Y27.999 E208.97179
G0 F18000 X23.939 Y29.2
G0 X23.939 Y29.2
G1 F720 X75.56 Y29.199 E211.54718
G0 F18000 X75.56 Y29.599
G1 F720 X23.939 Y29.6 E214.12256
G0 F18000 X23.939 Y30
G1 F720 X75.56 Y29.999 E216.69794
G0 F18000 X75.56 Y30.399
G1 F720 X23.939 Y30.4 E219.27332
G0 F18000 X23.939 Y30.8
G1 F720 X75.56 Y30.799 E221.8487
G0 F18000 X75.56 Y31.199
G1 F720 X23.939 Y31.2 E224.42409
G0 F18000 X23.939 Y31.6
G1 F720 X75.56 Y31.599 E226.99947
G0 F18000 X75.56 Y31.999
G1 F720 X23.939 Y32 E229.57485
G0 F18000 X23.939 Y32.4
G1 F720 X75.56 Y32.399 E232.15023
G0 F18000 X75.56 Y32.799
G1 F720 X23.939 Y32.8 E234.72561
G0 F18000 X23.939 Y33.2
G1 F720 X75.56 Y33.199 E237.301
G0 F18000 X75.56 Y33.599
G1 F720 X23.939 Y33.6 E239.87638
G0 F18000 X23.939 Y34
G1 F720 X75.56 Y33.999 E242.45176
G0 F18000 X75.56 Y34.399
G1 F720 X23.939 Y34.4 E245.02714
G0 F18000 X23.939 Y34.8
G1 F720 X75.56 Y34.799 E247.60253
G0 F18000 X75.56 Y35.199
G1 F720 X23.939 Y35.2 E250.17791
G0 F18000 X23.939 Y35.6
G1 F720 X75.56 Y35.599 E252.75329
G0 F18000 X75.56 Y35.999
G1 F720 X23.939 Y36 E255.32867
G0 F18000 X23.939 Y36.4
G1 F720 X75.56 Y36.399 E257.90405
G0 F18000 X75.56 Y36.799
G1 F720 X23.939 Y36.8 E260.47944
G0 F18000 X23.94 Y15.999
G0 X23.94 Y15.999
G1 F720 X75.56 Y15.999 E263.05477
G0 F18000 X75.56 Y15.599
G1 F720 X23.94 Y15.599 E265.6301
G0 F18000 X23.94 Y15.199
G1 F720 X75.56 Y15.199 E268.20543
G0 F18000 X75.56 Y14.799
G1 F720 X23.94 Y14.799 E270.78076
G0 F18000 X23.94 Y14.399
G1 F720 X75.56 Y14.399 E273.3561
G0 F18000 X75.56 Y13.999
G1 F720 X23.94 Y13.999 E275.93143
G0 F18000 X23.94 Y13.599
G1 F720 X75.56 Y13.599 E278.50676
G0 F18000 X75.56 Y13.199
G1 F720 X23.94 Y13.199 E281.08209
G0 F18000 X23.94 Y12.799
G1 F720 X75.56 Y12.799 E283.65743
G0 F18000 X75.56 Y12.399
G1 F720 X23.94 Y12.399 E286.23276
G0 F18000 X23.94 Y11.999
G1 F720 X75.56 Y11.999 E288.80809
G0 F18000 X75.56 Y11.599
G1 F720 X23.94 Y11.599 E291.38342
G0 F18000 X23.94 Y11.199
G1 F720 X75.56 Y11.199 E293.95876
G0 F18000 X75.56 Y10.799
G1 F720 X23.94 Y10.799 E296.53409
G0 F18000 X23.94 Y10.399
G1 F720 X75.56 Y10.399 E299.10942
G0 F18000 X75.56 Y9.999
G1 F720 X23.94 Y9.999 E301.68475
G0 F18000 X23.94 Y9.599
G1 F720 X75.56 Y9.599 E304.26008
G0 F18000 X75.56 Y9.199
G1 F720 X23.94 Y9.199 E306.83542
G0 F18000 X23.94 Y8.799
G1 F720 X75.56 Y8.799 E309.41075
G0 F18000 X75.56 Y8.399
G1 F720 X23.94 Y8.399 E311.98608
G0 F18000 X3.788 Y-8.4
G0 X3.788 Y-8.4
G1 F720 X46.245 Y-8.4 E314.10427
G0 F18000 X45.951 Y-8.8
G1 F720 X4.021 Y-8.8 E316.19617
G0 F18000 X4.254 Y-9.2
G1 F720 X45.762 Y-9.2 E318.26701
G0 F18000 X45.574 Y-9.6
G1 F720 X4.429 Y-9.6 E320.31974
G0 F18000 X4.538 Y-10
G1 F720 X45.443 Y-10 E322.3605
G0 F18000 X45.37 Y-10.4
G1 F720 X4.647 Y-10.4 E324.39218
G0 F18000 X4.706 Y-10.8
G1 F720 X45.297 Y-10.8 E326.41727
G0 F18000 X45.272 Y-11.2
G1 F720 X4.707 Y-11.2 E328.44107
G0 F18000 X4.708 Y-11.6
G1 F720 X45.306 Y-11.6 E330.46651
G0 F18000 X45.34 Y-12
G1 F720 X4.67 Y-12 E332.49554
G0 F18000 X4.564 Y-12.4
G1 F720 X45.412 Y-12.4 E334.53346
G0 F18000 X45.555 Y-12.8
G1 F720 X4.459 Y-12.8 E336.58375
G0 F18000 X4.307 Y-13.2
G1 F720 X45.698 Y-13.2 E338.64875
G0 F18000 X45.901 Y-13.6
G1 F720 X4.078 Y-13.6 E340.73531
G0 F18000 X3.849 Y-14
G1 F720 X46.179 Y-14 E342.84716
G0 F18000 X46.457 Y-14.4
G1 F720 X3.504 Y-14.4 E344.9901
G0 F18000 X3.107 Y-14.8
G1 F720 X46.911 Y-14.8 E347.17549
G0 F18000 X47.383 Y-15.2
G1 F720 X2.569 Y-15.2 E349.41127
G0 F18000 X1.882 Y-15.6
G1 F720 X48.193 Y-15.6 E351.72173
G0 F18000 X51.812 Y-15.6
G1 F720 X75.56 Y-15.6 E352.90652
G0 F18000 X75.56 Y-15.2
G1 F720 X52.564 Y-15.2 E354.0538
G0 F18000 X53.141 Y-14.8
G1 F720 X75.56 Y-14.8 E355.17229
G0 F18000 X75.56 Y-14.4
G1 F720 X53.5 Y-14.4 E356.27287
G0 F18000 X53.838 Y-14
G1 F720 X75.56 Y-14 E357.35658
G0 F18000 X75.56 Y-13.6
G1 F720 X54.096 Y-13.6 E358.42742
G0 F18000 X54.284 Y-13.2
G1 F720 X75.56 Y-13.2 E359.48889
G0 F18000 X75.56 Y-12.8
G1 F720 X54.473 Y-12.8 E360.54092
G0 F18000 X54.575 Y-12.4
G1 F720 X75.56 Y-12.4 E361.58787
G0 F18000 X75.56 Y-12
G1 F720 X54.648 Y-12 E362.63117
G0 F18000 X54.721 Y-11.6
G1 F720 X75.56 Y-11.6 E363.67083
G0 F18000 X75.56 Y-11.2
G1 F720 X54.72 Y-11.2 E364.71055
G0 F18000 X54.686 Y-10.8
G1 F720 X75.56 Y-10.8 E365.75195
G0 F18000 X75.56 Y-10.4
G1 F720 X54.652 Y-10.4 E366.79506
G0 F18000 X54.554 Y-10
G1 F720 X75.56 Y-10 E367.84305
G0 F18000 X75.56 Y-9.6
G1 F720 X54.41 Y-9.6 E368.89823
G0 F18000 X54.267 Y-9.2
G1 F720 X75.56 Y-9.2 E369.96054
G0 F18000 X75.56 Y-8.8
G1 F720 X54.032 Y-8.8 E371.03458
G0 F18000 X53.754 Y-8.4
G1 F720 X75.56 Y-8.4 E372.12248
G0 F18000 X75.56 Y-8
G1 F720 X53.447 Y-8 E373.22571
G0 F18000 X52.975 Y-7.6
G1 F720 X75.56 Y-7.6 E374.35248
G0 F18000 X75.56 Y-7.2
G1 F720 X52.451 Y-7.2 E375.50539
G0 F18000 X51.602 Y-6.8
G1 F720 X75.56 Y-6.8 E376.70066
G0 F18000 X75.56 Y-6.4
G1 F720 X-75.559 Y-6.399 E384.24002
G0 F18000 X-75.559 Y-6.799
G1 F720 X-51.606 Y-6.799 E385.43504
G0 F18000 X-52.443 Y-7.199
G1 F720 X-75.559 Y-7.199 E386.5883
G0 F18000 X-75.559 Y-7.599
G1 F720 X-52.975 Y-7.599 E387.71502
G0 F18000 X-53.443 Y-7.999
G1 F720 X-75.559 Y-7.999 E388.81839
G0 F18000 X-75.559 Y-8.399
G1 F720 X-53.754 Y-8.399 E389.90625
G0 F18000 X-54.028 Y-8.799
G1 F720 X-75.559 Y-8.799 E390.98043
G0 F18000 X-75.559 Y-9.199
G1 F720 X-54.267 Y-9.199 E392.04269
G0 F18000 X-54.409 Y-9.599
G1 F720 X-75.559 Y-9.599 E393.09787
G0 F18000 X-75.559 Y-9.999
G1 F720 X-54.551 Y-9.999 E394.14597
G0 F18000 X-54.655 Y-10.399
G1 F720 X-75.559 Y-10.399 E395.18887
G0 F18000 X-75.559 Y-10.799
G1 F720 X-54.686 Y-10.799 E396.23023
G0 F18000 X-54.717 Y-11.199
G1 F720 X-75.559 Y-11.199 E397.27004
G0 F18000 X-75.559 Y-11.599
G1 F720 X-54.722 Y-11.599 E398.3096
G0 F18000 X-54.647 Y-11.999
G1 F720 X-75.559 Y-11.999 E399.35291
G0 F18000 X-75.559 Y-12.399
G1 F720 X-54.573 Y-12.399 E400.3999
G0 F18000 X-54.476 Y-12.799
G1 F720 X-75.559 Y-12.799 E401.45174
G0 F18000 X-75.559 Y-13.199
G1 F720 X-54.284 Y-13.199 E402.51315
G0 F18000 X-54.093 Y-13.599
G1 F720 X-75.559 Y-13.599 E403.58409
G0 F18000 X-75.559 Y-13.999
G1 F720 X-53.841 Y-13.999 E404.66761
G0 F18000 X-53.499 Y-14.399
G1 F720 X-75.559 Y-14.399 E405.76819
G0 F18000 X-75.559 Y-14.799
G1 F720 X-53.146 Y-14.799 E406.88638
G0 F18000 X-52.563 Y-15.199
G1 F720 X-75.559 Y-15.199 E408.03365
G0 F18000 X-75.559 Y-15.599
G1 F720 X-51.816 Y-15.599 E409.21819
G0 F18000 X-48.185 Y-15.599
G0 X-48.185 Y-15.599
G1 F720 X-26.8 Y-15.599 E410.2851
G0 F18000 X-27.572 Y-15.199
G1 F720 X-47.376 Y-15.199 E411.27312
G0 F18000 X-46.907 Y-14.799
G1 F720 X-28.117 Y-14.799 E412.21056
G0 F18000 X-28.506 Y-14.399
G1 F720 X-46.45 Y-14.399 E413.10579
G0 F18000 X-46.176 Y-13.999
G1 F720 X-28.826 Y-13.999 E413.97138
G0 F18000 X-29.108 Y-13.599
G1 F720 X-45.902 Y-13.599 E414.80924
G0 F18000 X-45.696 Y-13.199
G1 F720 X-29.283 Y-13.199 E415.62809
G0 F18000 X-29.459 Y-12.799
G1 F720 X-45.554 Y-12.799 E416.43107
G0 F18000 X-45.412 Y-12.399
G1 F720 X-29.584 Y-12.399 E417.22073
G0 F18000 X-29.646 Y-11.999
G1 F720 X-45.335 Y-11.999 E418.00346
G0 F18000 X-45.304 Y-11.599
G1 F720 X-29.707 Y-11.599 E418.7816
G0 F18000 X-29.728 Y-11.199
G1 F720 X-45.274 Y-11.199 E419.55719
G0 F18000 X-45.294 Y-10.799
G1 F720 X-29.685 Y-10.799 E420.33593
G0 F18000 X-29.641 Y-10.399
G1 F720 X-45.369 Y-10.399 E421.1206
G0 F18000 X-45.443 Y-9.999
G1 F720 X-29.564 Y-9.999 E421.91281
G0 F18000 X-29.409 Y-9.599
G1 F720 X-45.57 Y-9.599 E422.71908
G0 F18000 X-45.761 Y-9.199
G1 F720 X-29.253 Y-9.199 E423.54267
G0 F18000 X-29.041 Y-8.799
G1 F720 X-45.952 Y-8.799 E424.38636
G0 F18000 X-46.242 Y-8.399
G1 F720 X-28.747 Y-8.399 E425.25919
G0 F18000 X-28.452 Y-7.999
G1 F720 X-46.583 Y-7.999 E426.16375
G0 F18000 X-46.995 Y-7.599
G1 F720 X-27.972 Y-7.599 E427.11281
G0 F18000 X-27.473 Y-7.199
G1 F720 X-47.579 Y-7.199 E428.1159
G0 F18000 X-48.462 Y-6.799
G1 F720 X-26.574 Y-6.799 E429.2079
G0 F18000 X-23.451 Y-6.799
G0 X-23.451 Y-6.799
G1 F720 X-1.576 Y-6.8 E430.29925
G0 F18000 X-2.399 Y-7.2
G1 F720 X-22.56 Y-7.199 E431.30509
G0 F18000 X-22.016 Y-7.599
G1 F720 X-3.008 Y-7.6 E432.2534
G0 F18000 X-3.406 Y-8
G1 F720 X-21.571 Y-7.999 E433.15965
G0 F18000 X-21.25 Y-8.399
G1 F720 X-3.792 Y-8.4 E434.03064
G0 F18000 X-4.02 Y-8.8
G1 F720 X-20.932 Y-8.799 E434.87438
G0 F18000 X-20.757 Y-9.199
G1 F720 X-4.248 Y-9.2 E435.69802
G0 F18000 X-4.431 Y-9.6
G1 F720 X-20.582 Y-9.599 E436.50379
G0 F18000 X-20.429 Y-9.999
G1 F720 X-4.536 Y-10 E437.2967
G0 F18000 X-4.642 Y-10.4
G1 F720 X-20.367 Y-10.399 E438.08122
G0 F18000 X-20.306 Y-10.799
G1 F720 X-4.707 Y-10.8 E438.85946
G0 F18000 X-4.705 Y-11.2
G1 F720 X-20.259 Y-11.199 E439.63545
G0 F18000 X-20.302 Y-11.599
G1 F720 X-4.704 Y-11.6 E440.41364
G0 F18000 X-4.672 Y-12
G1 F720 X-20.346 Y-11.999 E441.19562
G0 F18000 X-20.395 Y-12.399
G1 F720 X-4.563 Y-12.4 E441.98548
G0 F18000 X-4.454 Y-12.8
G1 F720 X-20.551 Y-12.799 E442.78856
G0 F18000 X-20.707 Y-13.199
G1 F720 X-4.309 Y-13.2 E443.60666
G0 F18000 X-4.077 Y-13.6
G1 F720 X-20.884 Y-13.599 E444.44517
G0 F18000 X-21.177 Y-13.999
G1 F720 X-3.844 Y-14 E445.30991
G0 F18000 X-3.506 Y-14.4
G1 F720 X-21.471 Y-14.399 E446.20619
G0 F18000 X-21.901 Y-14.799
G1 F720 X-3.102 Y-14.8 E447.14408
G0 F18000 X-2.572 Y-15.2
G1 F720 X-22.401 Y-15.199 E448.13335
G0 F18000 X-23.199 Y-15.599
G1 F720 X-1.873 Y-15.6 E449.19731
G0 F18000 X-1.678 Y-15.319
G0 X-1.667 Y-15.324
G0 X-0.556 Y-15.617
G0 X0.591 Y-15.613
G0 X1.701 Y-15.31
G0 X2.694 Y-14.732
G0 X3.504 Y-13.916
G0 X4.075 Y-12.918
G0 X4.368 Y-11.807
G0 X4.364 Y-10.659
G0 X4.061 Y-9.548
G0 X3.483 Y-8.555
G0 X3.209 Y-8.284
G0 X3.408 Y-8
G0 X3.408 Y-8
G1 F720 X46.583 Y-8 E451.35132
G0 F18000 X46.999 Y-7.6
G1 F720 X3.003 Y-7.6 E453.54629
G0 F18000 X2.4 Y-7.2
G1 F720 X47.576 Y-7.2 E455.80013
G0 F18000 X48.458 Y-6.8
G1 F720 X1.587 Y-6.8 E458.13853
G1 F6600 E451.33853
G1 Z0.6
G0 F18000 X1.582 Y-7.152
G0 X2.666 Y-7.746
G0 X3.483 Y-8.555
G0 X4.061 Y-9.548
G0 X4.364 Y-10.659
G0 X4.368 Y-11.807
G0 X4.075 Y-12.918
G0 X3.504 Y-13.916
G0 X2.694 Y-14.732
G0 X1.701 Y-15.31
G0 X1.47 Y-15.366
G0 X1.283 Y-29.2
G0 X1.283 Y-29.2
G1 Z0.3
G1 F6600 E458.23853
G1 F720 X48.783 Y-29.2 E460.60832
G0 F18000 X47.767 Y-29.6
G1 F720 X2.293 Y-29.6 E462.87702
G0 F18000 X2.847 Y-30
G1 F720 X47.086 Y-30 E465.08412
G0 F18000 X46.69 Y-30.4
G1 F720 X3.342 Y-30.4 E467.24676
G0 F18000 X3.669 Y-30.8
G1 F720 X46.296 Y-30.8 E469.37343
G0 F18000 X46.033 Y-31.2
G1 F720 X3.995 Y-31.2 E471.47071
G0 F18000 X4.195 Y-31.6
G1 F720 X45.806 Y-31.6 E473.54669
G0 F18000 X45.591 Y-32
G1 F720 X4.374 Y-32 E475.60302
G0 F18000 X4.551 Y-32.4
G1 F720 X45.486 Y-32.4 E477.64527
G0 F18000 X45.382 Y-32.8
G1 F720 X4.615 Y-32.8 E479.67915
G0 F18000 X4.679 Y-33.2
G1 F720 X45.288 Y-33.2 E481.70514
G0 F18000 X45.291 Y-33.6
G1 F720 X4.743 Y-33.6 E483.72808
G0 F18000 X4.705 Y-34
G1 F720 X45.294 Y-34 E485.75308
G0 F18000 X45.297 Y-34.4
G1 F720 X4.665 Y-34.4 E487.78022
G0 F18000 X4.625 Y-34.8
G1 F720 X45.407 Y-34.8 E489.81484
G0 F18000 X45.516 Y-35.2
G1 F720 X4.485 Y-35.2 E491.86188
G0 F18000 X4.332 Y-35.6
G1 F720 X45.627 Y-35.6 E493.9221
G0 F18000 X45.862 Y-36
G1 F720 X4.18 Y-36 E496.00162
G0 F18000 X3.891 Y-36.4
G1 F720 X46.097 Y-36.4 E498.10729
G0 F18000 X46.389 Y-36.8
G1 F720 X3.602 Y-36.8 E500.24194
G0 F18000 X3.217 Y-37.2
G1 F720 X46.794 Y-37.2 E502.41601
G0 F18000 X47.247 Y-37.6
G1 F720 X2.727 Y-37.6 E504.63712
G0 F18000 X2.026 Y-38
G1 F720 X47.95 Y-38 E506.92828
G0 F18000 X49.18 Y-38.4
G1 F720 X0.733 Y-38.4 E509.34531
G0 F18000 X-0.799 Y-38.4
G1 F720 X-24.047 Y-38.4 E510.50515
G0 F18000 X-22.885 Y-38
G1 F720 X-2.065 Y-38 E511.54387
G0 F18000 X-2.706 Y-37.6
G1 F720 X-22.288 Y-37.6 E512.52082
G0 F18000 X-21.761 Y-37.2
G1 F720 X-3.258 Y-37.2 E513.44394
G0 F18000 X-3.583 Y-36.8
G1 F720 X-21.411 Y-36.8 E514.33338
G0 F18000 X-21.062 Y-36.4
G1 F720 X-3.909 Y-36.4 E515.18915
G0 F18000 X-4.147 Y-36
G1 F720 X-20.858 Y-36 E516.02286
G0 F18000 X-20.662 Y-35.6
G1 F720 X-4.327 Y-35.6 E516.83782
G0 F18000 X-4.507 Y-35.2
G1 F720 X-20.486 Y-35.2 E517.63501
G0 F18000 X-20.407 Y-34.8
G1 F720 X-4.598 Y-34.8 E518.42373
G0 F18000 X-4.661 Y-34.4
G1 F720 X-20.329 Y-34.4 E519.20541
G0 F18000 X-20.263 Y-34
G1 F720 X-4.725 Y-34 E519.9806
G0 F18000 X-4.714 Y-33.6
G1 F720 X-20.29 Y-33.6 E520.75769
G0 F18000 X-20.316 Y-33.2
G1 F720 X-4.673 Y-33.2 E521.53812
G0 F18000 X-4.633 Y-32.8
G1 F720 X-20.347 Y-32.8 E522.3221
G0 F18000 X-20.484 Y-32.4
G1 F720 X-4.522 Y-32.4 E523.11845
G0 F18000 X-4.369 Y-32
G1 F720 X-20.622 Y-32 E523.92931
G0 F18000 X-20.772 Y-31.6
G1 F720 X-4.216 Y-31.6 E524.75529
G0 F18000 X-3.962 Y-31.2
G1 F720 X-21.04 Y-31.2 E525.60732
G0 F18000 X-21.308 Y-30.8
G1 F720 X-3.674 Y-30.8 E526.48708
G0 F18000 X-3.339 Y-30.4
G1 F720 X-21.676 Y-30.4 E527.40192
G0 F18000 X-22.134 Y-30
G1 F720 X-2.847 Y-30 E528.36415
G0 F18000 X-2.247 Y-29.6
G1 F720 X-22.77 Y-29.6 E529.38805
G0 F18000 X-23.744 Y-29.2
G1 F720 X-1.357 Y-29.2 E530.50494
G0 F18000 X-26.244 Y-29.2
G0 X-26.244 Y-29.2
G1 F720 X-48.769 Y-29.199 E531.62872
G0 F18000 X-47.745 Y-29.599
G1 F720 X-27.263 Y-29.6 E532.65057
G0 F18000 X-27.86 Y-30
G1 F720 X-47.127 Y-29.999 E533.6118
G0 F18000 X-46.681 Y-30.399
G1 F720 X-28.324 Y-30.4 E534.52764
G0 F18000 X-28.673 Y-30.8
G1 F720 X-46.32 Y-30.799 E535.40805
G0 F18000 X-46.015 Y-31.199
G1 F720 X-28.991 Y-31.2 E536.25738
G0 F18000 X-29.187 Y-31.6
G1 F720 X-45.811 Y-31.599 E537.08675
G0 F18000 X-45.606 Y-31.999
G1 F720 X-29.384 Y-32 E537.89607
G0 F18000 X-29.53 Y-32.4
G1 F720 X-45.475 Y-32.399 E538.69157
G0 F18000 X-45.388 Y-32.8
G1 F720 X-29.609 Y-32.8 E539.47879
G0 F18000 X-29.687 Y-33.2
G1 F720 X-45.302 Y-33.2 E540.25783
G0 F18000 X-45.278 Y-33.6
G1 F720 X-29.726 Y-33.6 E541.03372
G0 F18000 X-29.699 Y-34
G1 F720 X-45.298 Y-34 E541.81195
G0 F18000 X-45.319 Y-34.4
G1 F720 X-29.672 Y-34.4 E542.59259
G0 F18000 X-29.613 Y-34.8
G1 F720 X-45.391 Y-34.8 E543.37975
G0 F18000 X-45.52 Y-35.2
G1 F720 X-29.477 Y-35.2 E544.18014
G0 F18000 X-29.34 Y-35.6
G1 F720 X-45.648 Y-35.6 E544.99375
G0 F18000 X-45.847 Y-36
G1 F720 X-29.157 Y-36 E545.82642
G0 F18000 X-28.889 Y-36.4
G1 F720 X-46.106 Y-36.4 E546.68538
G0 F18000 X-46.365 Y-36.8
G1 F720 X-28.621 Y-36.8 E547.57063
G0 F18000 X-28.204 Y-37.2
G1 F720 X-46.797 Y-37.2 E548.49824
G0 F18000 X-47.24 Y-37.6
G1 F720 X-27.746 Y-37.6 E549.4708
G0 F18000 X-27.02 Y-38
G1 F720 X-47.97 Y-38 E550.516
G0 F18000 X-49.235 Y-38.4
G1 F720 X-25.743 Y-38.4 E551.68802
G0 F18000 X-50.914 Y-38.4
G0 X-50.914 Y-38.4
G1 F720 X-75.559 Y-38.399 E552.91756
G0 F18000 X-75.559 Y-38.799
G1 F720 X75.56 Y-38.8 E560.45692
G0 F18000 X75.56 Y-38.4
G1 F720 X50.845 Y-38.4 E561.68996
G0 F18000 X52.057 Y-38
G1 F720 X75.56 Y-38 E562.86253
G0 F18000 X75.56 Y-37.6
G1 F720 X52.741 Y-37.6 E564.00097
G0 F18000 X53.209 Y-37.2
G1 F720 X75.56 Y-37.2 E565.11607
G0 F18000 X75.56 Y-36.8
G1 F720 X53.604 Y-36.8 E566.21146
G0 F18000 X53.909 Y-36.4
G1 F720 X75.56 Y-36.4 E567.29163
G0 F18000 X75.56 Y-36
G1 F720 X54.136 Y-36 E568.36048
G0 F18000 X54.363 Y-35.6
G1 F720 X75.56 Y-35.6 E569.418
G0 F18000 X75.56 Y-35.2
G1 F720 X54.487 Y-35.2 E570.46934
G0 F18000 X54.591 Y-34.8
G1 F720 X75.56 Y-34.8 E571.51548
G0 F18000 X75.56 Y-34.4
G1 F720 X54.696 Y-34.4 E572.55639
G0 F18000 X54.71 Y-34
G1 F720 X75.56 Y-34 E573.5966
G0 F18000 X75.56 Y-33.6
G1 F720 X54.707 Y-33.6 E574.63696
G0 F18000 X54.704 Y-33.2
G1 F720 X75.56 Y-33.2 E575.67747
G0 F18000 X75.56 Y-32.8
G1 F720 X54.621 Y-32.8 E576.72213
G0 F18000 X54.511 Y-32.4
G1 F720 X75.56 Y-32.4 E577.77226
G0 F18000 X75.56 Y-32
G1 F720 X54.402 Y-32 E578.82784
G0 F18000 X54.198 Y-31.6
G1 F720 X75.56 Y-31.6 E579.8936
G0 F18000 X75.56 Y-31.2
G1 F720 X53.963 Y-31.2 E580.97107
G0 F18000 X53.715 Y-30.8
G1 F720 X75.56 Y-30.8 E582.06093
G0 F18000 X75.56 Y-30.4
G1 F720 X53.309 Y-30.4 E583.17103
G0 F18000 X52.904 Y-30
G1 F720 X75.56 Y-30 E584.30134
G0 F18000 X75.56 Y-29.6
G1 F720 X52.229 Y-29.6 E585.46533
G0 F18000 X51.214 Y-29.2
G1 F720 X75.56 Y-29.2 E586.67996
G0 F18000 X75.56 Y-28.8
G1 F720 X-75.559 Y-28.799 E594.21932
G0 F18000 X-75.559 Y-29.199
G1 F720 X-51.233 Y-29.199 E595.43295
G0 F18000 X-52.224 Y-29.599
G1 F720 X-75.559 Y-29.599 E596.59713
G0 F18000 X-75.559 Y-29.999
G1 F720 X-52.87 Y-29.999 E597.72909
G0 F18000 X-53.313 Y-30.399
G1 F720 X-75.559 Y-30.399 E598.83895
G0 F18000 X-75.559 Y-30.799
G1 F720 X-53.698 Y-30.799 E599.9296
G0 F18000 X-53.957 Y-31.199
G1 F720 X-75.559 Y-31.199 E601.00733
G0 F18000 X-75.559 Y-31.599
G1 F720 X-54.216 Y-31.599 E602.07214
G0 F18000 X-54.382 Y-31.999
G1 F720 X-75.559 Y-31.999 E603.12866
G0 F18000 X-75.559 Y-32.399
G1 F720 X-54.51 Y-32.399 E604.1788
G0 F18000 X-54.639 Y-32.8
G1 F720 X-75.559 Y-32.799 E605.2225
G0 F18000 X-75.559 Y-33.199
G1 F720 X-54.685 Y-33.2 E606.26391
G0 F18000 X-54.705 Y-33.6
G1 F720 X-75.559 Y-33.599 E607.30432
G0 F18000 X-75.559 Y-33.999
G1 F720 X-54.725 Y-34 E608.34373
G0 F18000 X-54.674 Y-34.4
G1 F720 X-75.559 Y-34.399 E609.38569
G0 F18000 X-75.559 Y-34.799
G1 F720 X-54.588 Y-34.8 E610.43194
G0 F18000 X-54.502 Y-35.2
G1 F720 X-75.559 Y-35.199 E611.48248
G0 F18000 X-75.559 Y-35.599
G1 F720 X-54.341 Y-35.6 E612.54105
G0 F18000 X-54.136 Y-36
G1 F720 X-75.559 Y-35.999 E613.60984
G0 F18000 X-75.559 Y-36.399
G1 F720 X-53.932 Y-36.4 E614.68882
G0 F18000 X-53.588 Y-36.8
G1 F720 X-75.559 Y-36.799 E615.78496
G0 F18000 X-75.559 Y-37.199
G1 F720 X-53.225 Y-37.2 E616.8992
G0 F18000 X-52.713 Y-37.6
G1 F720 X-75.559 Y-37.599 E618.039
G0 F18000 X-75.559 Y-37.999
G1 F720 X-52.096 Y-38 E619.20957
G0 F18000 X-75.559 Y-39.199
G0 X-75.559 Y-39.199
G1 F720 X75.56 Y-39.2 E626.74893
G0 F18000 X75.56 Y-39.6
G1 F720 X-75.559 Y-39.599 E634.28828
G0 F18000 X-75.559 Y-39.999
G1 F720 X75.56 Y-40 E641.82764
G0 F18000 X75.56 Y-40.4
G1 F720 X-75.559 Y-40.399 E649.367
G0 F18000 X-75.559 Y-40.799
G1 F720 X75.56 Y-40.8 E656.90636
G0 F18000 X75.56 Y-41.2
G1 F720 X-75.559 Y-41.199 E664.44571
G0 F18000 X-75.559 Y-41.599
G1 F720 X75.56 Y-41.6 E671.98507
G0 F18000 X75.56 Y-42
G1 F720 X-75.559 Y-41.999 E679.52443
G0 F18000 X-75.559 Y-42.399
G1 F720 X75.56 Y-42.4 E687.06379
G0 F18000 X75.56 Y-42.8
G1 F720 X-75.559 Y-42.799 E694.60314
G0 F18000 X-75.559 Y-43.199
G1 F720 X75.56 Y-43.2 E702.1425
G0 F18000 X75.56 Y-43.6
G1 F720 X-75.559 Y-43.599 E709.68186
G0 F18000 X-75.559 Y-43.999
G1 F720 X75.56 Y-44 E717.22122
G0 F18000 X75.56 Y-44.4
G1 F720 X-75.559 Y-44.399 E724.76057
G0 F18000 X-75.559 Y-44.799
G1 F720 X75.56 Y-44.8 E732.29993
G0 F18000 X75.56 Y-45.2
G1 F720 X-75.559 Y-45.199 E739.83929
G0 F18000 X-75.559 Y-28.399
G0 X-75.559 Y-28.399
G1 F720 X75.56 Y-28.4 E747.37865
G0 F18000 X75.56 Y-28
G1 F720 X-75.559 Y-27.999 E754.918
G0 F18000 X-75.559 Y-27.599
G1 F720 X75.56 Y-27.6 E762.45736
G0 F18000 X75.56 Y-27.2
G1 F720 X-75.559 Y-27.199 E769.99672
G0 F18000 X-75.559 Y-26.799
G1 F720 X75.56 Y-26.8 E777.53608
G0 F18000 X75.56 Y-26.4
G1 F720 X-75.559 Y-26.399 E785.07543
G0 F18000 X-75.559 Y-25.999
G1 F720 X75.56 Y-26 E792.61479
G0 F18000 X75.56 Y-25.6
G1 F720 X-75.559 Y-25.599 E800.15415
G0 F18000 X-75.559 Y-25.199
G1 F720 X75.56 Y-25.2 E807.69351
G0 F18000 X75.56 Y-24.8
G1 F720 X-75.559 Y-24.799 E815.23287
G0 F18000 X-75.559 Y-24.399
G1 F720 X75.56 Y-24.4 E822.77222
G0 F18000 X75.56 Y-24
G1 F720 X-75.559 Y-23.999 E830.31158
G0 F18000 X-75.559 Y-23.599
G1 F720 X75.56 Y-23.6 E837.85094
G0 F18000 X75.56 Y-23.2
G1 F720 X-75.559 Y-23.199 E845.3903
G0 F18000 X-75.559 Y-22.799
G1 F720 X75.56 Y-22.8 E852.92965
G0 F18000 X75.56 Y-22.4
G1 F720 X-75.559 Y-22.399 E860.46901
G0 F18000 X-75.559 Y-21.999
G1 F720 X75.56 Y-22 E868.00837
G0 F18000 X75.56 Y-21.6
G1 F720 X-75.559 Y-21.599 E875.54773
G0 F18000 X-75.559 Y-21.199
G1 F720 X75.56 Y-21.2 E883.08708
G0 F18000 X75.56 Y-20.8
G1 F720 X-75.559 Y-20.799 E890.62644
G0 F18000 X-75.559 Y-20.399
G1 F720 X75.56 Y-20.4 E898.1658
G0 F18000 X75.56 Y-20
G1 F720 X-75.559 Y-19.999 E905.70516
G0 F18000 X-75.559 Y-19.599
G1 F720 X75.56 Y-19.6 E913.24451
G0 F18000 X75.56 Y-19.2
G1 F720 X-75.559 Y-19.199 E920.78387
G0 F18000 X-75.559 Y-18.799
G1 F720 X75.56 Y-18.8 E928.32323
G0 F18000 X75.56 Y-18.4
G1 F720 X-75.559 Y-18.399 E935.86259
G0 F18000 X-75.559 Y-17.999
G1 F720 X75.56 Y-18 E943.40194
G0 F18000 X75.56 Y-17.6
G1 F720 X-75.559 Y-17.599 E950.9413
G0 F18000 X-75.559 Y-17.199
G1 F720 X75.56 Y-17.2 E958.48066
G0 F18000 X75.56 Y-16.8
G1 F720 X-75.559 Y-16.799 E966.02002
G0 F18000 X-75.559 Y-16.399
G1 F720 X75.56 Y-16.4 E973.55937
G0 F18000 X75.56 Y-16
G1 F720 X-75.559 Y-15.999 E981.09873
G0 F18000 X-75.559 Y-5.999
G0 X-75.559 Y-5.999
G1 F720 X75.56 Y-6 E988.63809
G0 F18000 X75.56 Y-5.6
G1 F720 X-75.559 Y-5.599 E996.17745
G0 F18000 X-75.559 Y-5.199
G1 F720 X75.56 Y-5.2 E1003.7168
G0 F18000 X75.56 Y-4.8
G1 F720 X-75.559 Y-4.799 E1011.25616
G0 F18000 X-75.559 Y-4.399
G1 F720 X75.56 Y-4.4 E1018.79552
G0 F18000 X75.56 Y-4
G1 F720 X-75.559 Y-3.999 E1026.33488
G0 F18000 X-75.559 Y-3.599
G1 F720 X75.56 Y-3.6 E1033.87423
G0 F18000 X75.56 Y-3.2
G1 F720 X-75.559 Y-3.199 E1041.41359
G0 F18000 X-75.559 Y-2.799
G1 F720 X75.56 Y-2.8 E1048.95295
G0 F18000 X75.56 Y-2.4
G1 F720 X-75.559 Y-2.399 E1056.49231
G0 F18000 X-75.559 Y-1.999
G1 F720 X75.56 Y-2 E1064.03166
G0 F18000 X75.56 Y-1.6
G1 F720 X-75.559 Y-1.599 E1071.57102
G0 F18000 X-75.559 Y-1.199
G1 F720 X75.56 Y-1.2 E1079.11038
G0 F18000 X75.56 Y-0.8
G1 F720 X-75.559 Y-0.799 E1086.64974
G0 F18000 X-75.559 Y-0.399
G1 F720 X75.56 Y-0.4 E1094.18909
G0 F18000 X75.56 Y0
G1 F720 X-75.559 Y0 E1101.72845
G0 F18000 X-75.559 Y0.4
G1 F720 X75.56 Y0.399 E1109.26781
G0 F18000 X75.56 Y0.799
G1 F720 X-75.559 Y0.8 E1116.80717
G0 F18000 X-75.559 Y1.2
G1 F720 X75.56 Y1.199 E1124.34652
G0 F18000 X75.56 Y1.599
G1 F720 X-75.559 Y1.6 E1131.88588
G0 F18000 X-75.559 Y2
G1 F720 X75.56 Y1.999 E1139.42524
G0 F18000 X75.56 Y2.399
G1 F720 X-75.559 Y2.4 E1146.9646
G0 F18000 X-75.559 Y2.8
G1 F720 X75.56 Y2.799 E1154.50395
G0 F18000 X75.56 Y3.199
G1 F720 X-75.559 Y3.2 E1162.04331
G0 F18000 X-75.559 Y3.6
G1 F720 X75.56 Y3.599 E1169.58267
G0 F18000 X75.56 Y3.999
G1 F720 X-75.559 Y4 E1177.12203
G0 F18000 X-75.559 Y4.4
G1 F720 X75.56 Y4.399 E1184.66138
G0 F18000 X75.56 Y4.799
G1 F720 X-75.559 Y4.8 E1192.20074
G0 F18000 X-75.559 Y5.2
G1 F720 X75.56 Y5.199 E1199.7401
G0 F18000 X75.56 Y5.599
G1 F720 X-75.559 Y5.6 E1207.27946
G0 F18000 X-75.559 Y6
G1 F720 X75.56 Y5.999 E1214.81881
G0 F18000 X75.56 Y6.399
G1 F720 X-75.559 Y6.4 E1222.35817
G0 F18000 X-75.559 Y6.8
G1 F720 X75.56 Y6.799 E1229.89753
G0 F18000 X75.56 Y7.199
G1 F720 X-75.559 Y7.2 E1237.43689
G0 F18000 X-75.559 Y7.6
G1 F720 X75.56 Y7.599 E1244.97624
G0 F18000 X75.56 Y7.999
G1 F720 X-75.559 Y8 E1252.5156
G0 F18000 X-75.559 Y8.4
G1 F720 X-23.939 Y8.4 E1255.09093
G0 F18000 X-23.939 Y8.8
G1 F720 X-75.559 Y8.8 E1257.66627
G0 F18000 X-75.559 Y9.2
G1 F720 X-23.939 Y9.2 E1260.2416
G0 F18000 X-23.939 Y9.6
G1 F720 X-75.559 Y9.6 E1262.81693
G0 F18000 X-75.559 Y10
G1 F720 X-23.939 Y10 E1265.39226
G0 F18000 X-23.939 Y10.4
G1 F720 X-75.559 Y10.4 E1267.96759
G0 F18000 X-75.559 Y10.8
G1 F720 X-23.939 Y10.8 E1270.54293
G0 F18000 X-23.939 Y11.2
G1 F720 X-75.559 Y11.2 E1273.11826
G0 F18000 X-75.559 Y11.6
G1 F720 X-23.939 Y11.6 E1275.69359
G0 F18000 X-23.939 Y12
G1 F720 X-75.559 Y12 E1278.26892
G0 F18000 X-75.559 Y12.4
G1 F720 X-23.939 Y12.4 E1280.84426
G0 F18000 X-23.939 Y12.8
G1 F720 X-75.559 Y12.8 E1283.41959
G0 F18000 X-75.559 Y13.2
G1 F720 X-23.939 Y13.2 E1285.99492
G0 F18000 X-23.939 Y13.6
G1 F720 X-75.559 Y13.6 E1288.57025
G0 F18000 X-75.559 Y14
G1 F720 X-23.939 Y14 E1291.14559
G0 F18000 X-23.939 Y14.4
G1 F720 X-75.559 Y14.4 E1293.72092
G0 F18000 X-75.559 Y14.8
G1 F720 X-23.939 Y14.8 E1296.29625
G0 F18000 X-23.939 Y15.2
G1 F720 X-75.559 Y15.2 E1298.87158
G0 F18000 X-75.559 Y15.6
G1 F720 X-23.939 Y15.6 E1301.44691
G0 F18000 X-23.939 Y16
G1 F720 X-75.559 Y16 E1304.02225
G0 F18000 X-75.559 Y16.4
G1 F720 X-23.939 Y16.4 E1306.59758
G0 F18000 X-23.939 Y16.8
G1 F720 X-75.559 Y16.8 E1309.17291
G0 F18000 X-75.559 Y17.2
G1 F720 X-23.939 Y17.2 E1311.74824
G0 F18000 X-23.939 Y17.6
G1 F720 X-75.559 Y17.6 E1314.32358
G0 F18000 X-75.559 Y18
G1 F720 X-23.939 Y18 E1316.89891
G0 F18000 X-23.939 Y18.4
G1 F720 X-75.559 Y18.4 E1319.47424
G0 F18000 X-75.559 Y18.8
G1 F720 X-23.939 Y18.8 E1322.04957
G0 F18000 X-23.939 Y19.2
G1 F720 X-75.559 Y19.2 E1324.6249
G0 F18000 X-75.559 Y19.6
G1 F720 X-23.939 Y19.6 E1327.20024
G0 F18000 X-23.939 Y20
G1 F720 X-75.559 Y20 E1329.77557
G0 F18000 X-75.559 Y20.4
G1 F720 X-23.939 Y20.4 E1332.3509
G0 F18000 X-23.939 Y20.8
G1 F720 X-75.559 Y20.8 E1334.92623
G0 F18000 X-75.559 Y21.2
G1 F720 X-23.939 Y21.2 E1337.50157
G0 F18000 X-23.939 Y21.6
G1 F720 X-75.559 Y21.6 E1340.0769
G0 F18000 X-75.559 Y22
G1 F720 X-23.939 Y22 E1342.65223
G0 F18000 X-23.939 Y22.4
G1 F720 X-75.559 Y22.4 E1345.22756
G0 F18000 X-75.559 Y22.8
G1 F720 X-23.939 Y22.8 E1347.80289
G0 F18000 X-23.939 Y23.2
G1 F720 X-75.559 Y23.2 E1350.37823
G0 F18000 X-75.559 Y23.6
G1 F720 X-23.939 Y23.6 E1352.95356
G0 F18000 X-23.939 Y24
G1 F720 X-75.559 Y24 E1355.52889
G0 F18000 X-75.559 Y24.4
G1 F720 X-23.939 Y24.4 E1358.10422
G0 F18000 X-23.939 Y24.8
G1 F720 X-75.559 Y24.8 E1360.67956
G0 F18000 X-75.559 Y25.2
G1 F720 X-23.939 Y25.2 E1363.25489
G0 F18000 X-23.939 Y25.6
G1 F720 X-75.559 Y25.6 E1365.83022
G0 F18000 X-75.559 Y26
G1 F720 X-23.939 Y26 E1368.40555
G0 F18000 X-23.939 Y26.4
G1 F720 X-75.559 Y26.4 E1370.98089
G0 F18000 X-75.559 Y26.8
G1 F720 X-23.939 Y26.8 E1373.55622
G0 F18000 X-23.939 Y27.2
G1 F720 X-75.559 Y27.2 E1376.13155
G0 F18000 X-75.559 Y27.6
G1 F720 X-23.939 Y27.6 E1378.70688
G0 F18000 X-23.939 Y28
G1 F720 X-75.559 Y28 E1381.28221
G0 F18000 X-75.559 Y28.4
G1 F720 X-23.939 Y28.4 E1383.85755
G0 F18000 X-23.939 Y28.8
G1 F720 X-75.559 Y28.8 E1386.43288
G0 F18000 X-75.559 Y29.2
G1 F720 X-23.939 Y29.2 E1389.00821
G0 F18000 X-23.939 Y29.6
G1 F720 X-75.559 Y29.6 E1391.58354
G0 F18000 X-75.559 Y30
G1 F720 X-23.938 Y30 E1394.15893
G0 F18000 X-23.938 Y30.4
G1 F720 X-75.559 Y30.4 E1396.73431
G0 F18000 X-75.559 Y30.8
G1 F720 X-23.938 Y30.8 E1399.30969
G0 F18000 X-23.938 Y31.2
G1 F720 X-75.559 Y31.2 E1401.88507
G0 F18000 X-75.559 Y31.6
G1 F720 X-23.938 Y31.6 E1404.46045
G0 F18000 X-23.938 Y32
G1 F720 X-75.559 Y32 E1407.03584
G0 F18000 X-75.559 Y32.4
G1 F720 X-23.938 Y32.4 E1409.61122
G0 F18000 X-23.938 Y32.8
G1 F720 X-75.559 Y32.8 E1412.1866
G0 F18000 X-75.559 Y33.2
G1 F720 X-23.938 Y33.2 E1414.76198
G0 F18000 X-23.938 Y33.6
G1 F720 X-75.559 Y33.6 E1417.33736
G0 F18000 X-75.559 Y34
G1 F720 X-23.938 Y34 E1419.91275
G0 F18000 X-23.938 Y34.4
G1 F720 X-75.559 Y34.4 E1422.48813
G0 F18000 X-75.559 Y34.8
G1 F720 X-23.938 Y34.8 E1425.06351
G0 F18000 X-23.938 Y35.2
G1 F720 X-75.559 Y35.2 E1427.63889
G0 F18000 X-75.559 Y35.6
G1 F720 X-23.938 Y35.6 E1430.21428
G0 F18000 X-23.938 Y36
G1 F720 X-75.559 Y36 E1432.78966
G0 F18000 X-75.559 Y36.4
G1 F720 X-23.938 Y36.4 E1435.36504
G0 F18000 X-23.938 Y36.8
G1 F720 X-75.559 Y36.8 E1437.94042
G0 F18000 X-75.559 Y37.2
G1 F720 X75.56 Y37.199 E1445.47978
G0 F18000 X75.56 Y37.599
G1 F720 X-75.559 Y37.6 E1453.01914
G0 F18000 X-75.559 Y38
G1 F720 X75.56 Y37.999 E1460.55849
G0 F18000 X75.56 Y38.399
G1 F720 X-75.559 Y38.4 E1468.09785
G0 F18000 X-75.559 Y38.8
G1 F720 X75.56 Y38.799 E1475.63721
G0 F18000 X75.56 Y39.199
G1 F720 X-75.559 Y39.2 E1483.17657
G0 F18000 X-75.559 Y39.6
G1 F720 X75.56 Y39.599 E1490.71592
G0 F18000 X75.56 Y39.999
G1 F720 X-75.559 Y40 E1498.25528
G0 F18000 X-75.559 Y40.4
G1 F720 X75.56 Y40.399 E1505.79464
G0 F18000 X75.56 Y40.799
G1 F720 X-75.559 Y40.8 E1513.334
G0 F18000 X-75.559 Y41.2
G1 F720 X75.56 Y41.199 E1520.87335
G0 F18000 X75.56 Y41.599
G1 F720 X-75.559 Y41.6 E1528.41271
G0 F18000 X-75.559 Y42
G1 F720 X75.56 Y41.999 E1535.95207
G0 F18000 X75.56 Y42.399
G1 F720 X-75.559 Y42.4 E1543.49143
G0 F18000 X-75.559 Y42.8
G1 F720 X75.56 Y42.799 E1551.03078
G0 F18000 X75.56 Y43.199
G1 F720 X-75.559 Y43.2 E1558.57014
G0 F18000 X-75.559 Y43.6
G1 F720 X75.56 Y43.599 E1566.1095
G0 F18000 X75.56 Y43.999
G1 F720 X-75.559 Y44 E1573.64886
G0 F18000 X-75.559 Y44.4
G1 F720 X75.56 Y44.399 E1581.18821
G0 F18000 X75.56 Y44.799
G1 F720 X-75.559 Y44.8 E1588.72757
G0 F18000 X-75.559 Y45.2
G1 F720 X75.56 Y45.199 E1596.26693
; Layer Change GCode
; LAYER:1
G0 F18000 X-75.798 Y45.899 Z0.5
G0 X-76.198 Y45.9
G0 X-75.989 Y45.9
G0 X-75.989 Y45.9
G0 X-76.249 Y46.25
G0 X-76.249 Y46.25
G0 X-75.749 Y45.75
; TYPE:WALL-INNER
G1 F2400 X-75.749 Y45.75 E1596.26693
G1 X-75.749 Y-45.749 E1600.07102
G1 X75.75 Y-45.749 E1606.36961
G1 X75.75 Y45.75 E1610.1737
G1 X-75.749 Y45.75 E1616.4723
G0 F18000 X-76.249 Y46.25
; TYPE:WALL-OUTER
G1 F2100 X-76.249 Y46.25 E1616.4723
G1 X-76.249 Y-46.249 E1620.31796
G1 X76.25 Y-46.249 E1626.65813
G1 X76.25 Y46.25 E1630.50379
G1 X-76.249 Y46.25 E1636.84396
G1 F6600 E1630.04396
G1 Z0.8
G0 F18000 X-75.989 Y45.9
G0 X-23.749 Y36.75
G0 X-23.749 Y36.75
; TYPE:WALL-INNER
G1 Z0.5
G1 F6600 E1636.94396
G1 F2400 X-23.749 Y36.75 E1636.94396
G1 X23.75 Y36.75 E1638.91874
G1 X23.75 Y8.25 E1640.10363
G1 X-23.749 Y8.25 E1642.07841
G1 X-23.749 Y36.75 E1643.2633
G0 F18000 X-23.249 Y36.25
; TYPE:WALL-OUTER
G1 F2100 X-23.249 Y36.25 E1643.2633
G1 X23.25 Y36.25 E1645.19651
G1 X23.25 Y8.75 E1646.33983
G1 X-23.249 Y8.75 E1648.27303
G1 X-23.249 Y36.25 E1649.41635
G1 F6600 E1642.61635
G1 Z0.8
G0 F18000 X-23.599 Y36.25
G0 X-25.094 Y-6.694
G0 X-25.094 Y-6.694
; TYPE:WALL-INNER
G1 Z0.5
G1 F6600 E1649.51635
G1 F2400 X-25.094 Y-6.694 E1649.51635
G1 X-23.911 Y-6.824 E1649.56583
G1 X-22.803 Y-7.257 E1649.61528
G1 X-21.846 Y-7.961 E1649.66468
G1 X-21.101 Y-8.889 E1649.71415
G1 X-20.624 Y-9.978 E1649.76358
G1 X-20.444 Y-11.154 E1649.81304
G1 X-20.574 Y-12.336 E1649.86248
G1 X-21.006 Y-13.444 E1649.91192
G1 X-21.71 Y-14.404 E1649.96142
G1 X-22.639 Y-15.147 E1650.01088
G1 X-23.728 Y-15.625 E1650.06032
G1 X-24.904 Y-15.805 E1650.10978
G1 X-26.087 Y-15.675 E1650.15926
G1 X-27.195 Y-15.242 E1650.20872
G1 X-28.153 Y-14.538 E1650.25815
G1 X-28.896 Y-13.61 E1650.30757
G1 X-29.374 Y-12.52 E1650.35705
G1 X-29.554 Y-11.345 E1650.40647
G1 X-29.424 Y-10.163 E1650.45591
G1 X-28.992 Y-9.055 E1650.50536
G1 X-28.287 Y-8.095 E1650.55487
G1 X-27.359 Y-7.352 E1650.6043
G1 X-26.27 Y-6.874 E1650.65374
G1 X-25.094 Y-6.694 E1650.7032
G0 F18000 X-25.083 Y-7.198
; TYPE:WALL-OUTER
G1 F2100 X-25.083 Y-7.198 E1650.7032
G1 X-24.032 Y-7.314 E1650.74717
G1 X-23.046 Y-7.699 E1650.79117
G1 X-22.195 Y-8.325 E1650.83509
G1 X-21.532 Y-9.15 E1650.8791
G1 X-21.108 Y-10.119 E1650.92307
G1 X-20.948 Y-11.165 E1650.96707
G1 X-21.064 Y-12.216 E1651.01103
G1 X-21.448 Y-13.201 E1651.05498
G1 X-22.074 Y-14.055 E1651.099
G1 X-22.9 Y-14.716 E1651.14299
G1 X-23.869 Y-15.141 E1651.18698
G1 X-24.915 Y-15.301 E1651.23097
G1 X-25.966 Y-15.185 E1651.27493
G1 X-26.952 Y-14.8 E1651.31894
G1 X-27.804 Y-14.174 E1651.36289
G1 X-28.465 Y-13.349 E1651.40684
G1 X-28.89 Y-12.379 E1651.45087
G1 X-29.05 Y-11.334 E1651.49482
G1 X-28.934 Y-10.283 E1651.53879
G1 X-28.55 Y-9.298 E1651.58274
G1 X-27.923 Y-8.444 E1651.62679
G1 X-27.098 Y-7.783 E1651.67074
G1 X-26.129 Y-7.358 E1651.71473
G1 X-25.083 Y-7.198 E1651.75872
G1 F6600 E1644.95872
G1 Z0.8
G0 F18000 X-25.135 Y-6.853
G0 X-25.214 Y-6.868
G0 X-25.092 Y-6.746
G0 X-27.269 Y-7.289
G0 X-45.449 Y-11.007
G0 X-45.449 Y-11.007
; TYPE:WALL-INNER
G1 Z0.5
G1 F6600 E1651.85872
G1 F2400 X-45.449 Y-11.007 E1651.85872
G1 X-45.541 Y-12.193 E1651.90818
G1 X-45.938 Y-13.315 E1651.95766
G1 X-46.61 Y-14.296 E1652.0071
G1 X-47.514 Y-15.069 E1652.05655
G1 X-48.588 Y-15.582 E1652.10603
G1 X-49.757 Y-15.799 E1652.15546
G1 X-50.943 Y-15.707 E1652.20492
G1 X-52.064 Y-15.311 E1652.25435
G1 X-53.045 Y-14.638 E1652.30381
G1 X-53.818 Y-13.735 E1652.35323
G1 X-54.331 Y-12.662 E1652.40267
G1 X-54.549 Y-11.491 E1652.45219
G1 X-54.457 Y-10.305 E1652.50165
G1 X-54.06 Y-9.184 E1652.55109
G1 X-53.388 Y-8.203 E1652.60053
G1 X-52.484 Y-7.43 E1652.64998
G1 X-51.41 Y-6.917 E1652.69946
G1 X-50.241 Y-6.7 E1652.7489
G1 X-49.055 Y-6.792 E1652.79835
G1 X-47.934 Y-7.188 E1652.84778
G1 X-46.953 Y-7.86 E1652.89722
G1 X-46.18 Y-8.764 E1652.94667
G1 X-45.667 Y-9.837 E1652.99611
G1 X-45.449 Y-11.007 E1653.04559
G0 F18000 X-45.599 Y-10.876
G0 X-45.717 Y-9.855
G0 X-46.224 Y-8.793
G0 X-46.989 Y-7.9
G0 X-47.959 Y-7.234
G0 X-49.067 Y-6.844
G0 X-50.315 Y-6.824
G0 X-50.277 Y-6.859
G0 X-50.277 Y-6.859
G0 X-50.214 Y-7.203
; TYPE:WALL-OUTER
G1 F2100 X-50.214 Y-7.203 E1653.04559
G1 X-49.16 Y-7.285 E1653.08955
G1 X-48.163 Y-7.637 E1653.1335
G1 X-47.29 Y-8.235 E1653.1775
G1 X-46.603 Y-9.039 E1653.22147
G1 X-46.146 Y-9.994 E1653.26548
G1 X-45.952 Y-11.034 E1653.30947
G1 X-46.034 Y-12.088 E1653.35342
G1 X-46.387 Y-13.086 E1653.39743
G1 X-46.985 Y-13.959 E1653.44142
G1 X-47.789 Y-14.646 E1653.48539
G1 X-48.744 Y-15.103 E1653.52941
G1 X-49.784 Y-15.296 E1653.57338
G1 X-50.838 Y-15.214 E1653.61734
G1 X-51.835 Y-14.862 E1653.66129
G1 X-52.708 Y-14.263 E1653.70531
G1 X-53.395 Y-13.46 E1653.74925
G1 X-53.852 Y-12.505 E1653.79326
G1 X-54.046 Y-11.464 E1653.83729
G1 X-53.964 Y-10.41 E1653.88124
G1 X-53.611 Y-9.413 E1653.92521
G1 X-53.013 Y-8.54 E1653.96921
G1 X-52.209 Y-7.853 E1654.01317
G1 X-51.254 Y-7.396 E1654.05719
G1 X-50.214 Y-7.203 E1654.10117
G1 F6600 E1647.30117
G1 Z0.8
G0 F18000 X-50.277 Y-6.859
G0 X-50.276 Y-6.746
G0 X-50.238 Y-6.752
G0 X-51.393 Y-6.966
G0 X-52.455 Y-7.474
G0 X-53.348 Y-8.239
G0 X-54.013 Y-9.208
G0 X-54.405 Y-10.316
G0 X-54.497 Y-11.488
G0 X-54.281 Y-12.644
G0 X-53.774 Y-13.706
G0 X-53.009 Y-14.598
G0 X-52.04 Y-15.265
G0 X-50.931 Y-15.655
G0 X-50.311 Y-15.705
G0 X-50.366 Y-29.208
G0 X-50.366 Y-29.208
; TYPE:WALL-INNER
G1 Z0.5
G1 F6600 E1654.20117
G1 F2400 X-50.366 Y-29.208 E1654.20117
G1 X-49.179 Y-29.268 E1654.25058
G1 X-48.047 Y-29.632 E1654.30002
G1 X-47.047 Y-30.278 E1654.34951
G1 X-46.249 Y-31.16 E1654.39896
G1 X-45.708 Y-32.219 E1654.4484
G1 X-45.457 Y-33.382 E1654.49787
G1 X-45.517 Y-34.57 E1654.54732
G1 X-45.881 Y-35.702 E1654.59676
G1 X-46.528 Y-36.701 E1654.64624
G1 X-47.41 Y-37.498 E1654.69566
G1 X-48.469 Y-38.042 E1654.74516
G1 X-49.631 Y-38.291 E1654.79457
G1 X-50.819 Y-38.231 E1654.84402
G1 X-51.951 Y-37.867 E1654.89346
G1 X-52.95 Y-37.22 E1654.94294
G1 X-53.748 Y-36.339 E1654.99236
G1 X-54.29 Y-35.28 E1655.04182
G1 X-54.541 Y-34.117 E1655.09129
G1 X-54.481 Y-32.928 E1655.14078
G1 X-54.115 Y-31.797 E1655.1902
G1 X-53.47 Y-30.798 E1655.23964
G1 X-52.588 Y-30.001 E1655.28907
G1 X-51.529 Y-29.457 E1655.33856
G1 X-50.366 Y-29.208 E1655.38801
G0 F18000 X-50.325 Y-29.711
; TYPE:WALL-OUTER
G1 F2100 X-50.325 Y-29.711 E1655.38801
G1 X-49.27 Y-29.764 E1655.43193
G1 X-48.263 Y-30.088 E1655.47591
G1 X-47.374 Y-30.662 E1655.5199
G1 X-46.664 Y-31.447 E1655.56391
G1 X-46.183 Y-32.388 E1655.60784
G1 X-45.96 Y-33.423 E1655.65186
G1 X-46.013 Y-34.479 E1655.69582
G1 X-46.337 Y-35.486 E1655.7398
G1 X-46.912 Y-36.374 E1655.78378
G1 X-47.697 Y-37.083 E1655.82776
G1 X-48.638 Y-37.567 E1655.87176
G1 X-49.672 Y-37.788 E1655.91571
G1 X-50.728 Y-37.735 E1655.95967
G1 X-51.735 Y-37.411 E1656.00365
G1 X-52.623 Y-36.836 E1656.04764
G1 X-53.333 Y-36.052 E1656.09161
G1 X-53.815 Y-35.111 E1656.13557
G1 X-54.038 Y-34.076 E1656.17958
G1 X-53.985 Y-33.019 E1656.22358
G1 X-53.66 Y-32.013 E1656.26754
G1 X-53.086 Y-31.125 E1656.3115
G1 X-52.301 Y-30.416 E1656.35548
G1 X-51.36 Y-29.932 E1656.39947
G1 X-50.325 Y-29.711 E1656.44347
G1 F6600 E1649.64347
G1 Z0.8
G0 F18000 X-50.399 Y-29.37
G0 X-50.349 Y-29.379
G0 X-50.361 Y-29.26
G0 X-49.189 Y-29.32
G0 X-48.07 Y-29.68
G0 X-48.069 Y-29.826
G0 X-29.546 Y-33.46
G0 X-29.546 Y-33.46
; TYPE:WALL-INNER
G1 Z0.5
G1 F6600 E1656.54347
G1 F2400 X-29.546 Y-33.46 E1656.54347
G1 X-29.317 Y-32.293 E1656.59291
G1 X-28.793 Y-31.226 E1656.64233
G1 X-28.01 Y-30.329 E1656.69184
G1 X-27.022 Y-29.667 E1656.74128
G1 X-25.897 Y-29.282 E1656.79072
G1 X-24.71 Y-29.202 E1656.84018
G1 X-23.543 Y-29.432 E1656.88963
G1 X-22.475 Y-29.956 E1656.93909
G1 X-21.579 Y-30.738 E1656.98853
G1 X-20.916 Y-31.726 E1657.038
G1 X-20.531 Y-32.852 E1657.08747
G1 X-20.452 Y-34.038 E1657.13689
G1 X-20.681 Y-35.206 E1657.18638
G1 X-21.205 Y-36.273 E1657.2358
G1 X-21.988 Y-37.169 E1657.28527
G1 X-22.975 Y-37.832 E1657.3347
G1 X-24.101 Y-38.217 E1657.38418
G1 X-25.288 Y-38.297 E1657.43364
G1 X-26.455 Y-38.067 E1657.48309
G1 X-27.523 Y-37.543 E1657.53255
G1 X-28.419 Y-36.761 E1657.58199
G1 X-29.082 Y-35.773 E1657.63146
G1 X-29.466 Y-34.647 E1657.68092
G1 X-29.546 Y-33.46 E1657.73038
G0 F18000 X-29.391 Y-33.326
G0 X-29.267 Y-32.311
G0 X-28.749 Y-31.256
G0 X-27.975 Y-30.368
G0 X-26.998 Y-29.714
G0 X-25.887 Y-29.334
G0 X-24.714 Y-29.255
G0 X-24.696 Y-29.299
G0 X-24.764 Y-29.358
G0 X-24.764 Y-29.358
G0 X-24.742 Y-29.705
; TYPE:WALL-OUTER
G1 F2100 X-24.742 Y-29.705 E1657.73038
G1 X-23.704 Y-29.91 E1657.77437
G1 X-22.754 Y-30.376 E1657.81836
G1 X-21.958 Y-31.071 E1657.8623
G1 X-21.368 Y-31.95 E1657.90631
G1 X-21.026 Y-32.951 E1657.95029
G1 X-20.955 Y-34.006 E1657.99425
G1 X-21.159 Y-35.045 E1658.03827
G1 X-21.625 Y-35.994 E1658.08223
G1 X-22.321 Y-36.79 E1658.12619
G1 X-23.199 Y-37.38 E1658.17016
G1 X-24.2 Y-37.722 E1658.21414
G1 X-25.256 Y-37.794 E1658.25815
G1 X-26.294 Y-37.589 E1658.30214
G1 X-27.244 Y-37.123 E1658.34613
G1 X-28.04 Y-36.428 E1658.39006
G1 X-28.63 Y-35.549 E1658.43408
G1 X-28.971 Y-34.548 E1658.47804
G1 X-29.043 Y-33.492 E1658.52205
G1 X-28.839 Y-32.454 E1658.56603
G1 X-28.373 Y-31.505 E1658.60998
G1 X-27.677 Y-30.708 E1658.65397
G1 X-26.798 Y-30.119 E1658.69796
G1 X-25.798 Y-29.777 E1658.7419
G1 X-24.742 Y-29.705 E1658.78591
G1 F6600 E1651.98591
G1 Z0.8
G0 F18000 X-24.764 Y-29.358
G0 X-24.534 Y-29.394
G0 X-24.139 Y-29.459
G0 X-4.432 Y-32.698
G0 X-4.432 Y-32.698
; TYPE:WALL-INNER
G1 Z0.5
G1 F6600 E1658.88591
G1 F2400 X-4.432 Y-32.698 E1658.88591
G1 X-4.009 Y-31.587 E1658.93533
G1 X-3.313 Y-30.622 E1658.9848
G1 X-2.39 Y-29.871 E1659.03427
G1 X-1.305 Y-29.384 E1659.08372
G1 X-0.131 Y-29.195 E1659.13315
G1 X1.052 Y-29.316 E1659.18259
G1 X2.163 Y-29.739 E1659.23202
G1 X3.127 Y-30.436 E1659.28148
G1 X3.879 Y-31.358 E1659.33094
G1 X4.366 Y-32.443 E1659.38039
G1 X4.554 Y-33.617 E1659.42982
G1 X4.434 Y-34.8 E1659.47925
G1 X4.011 Y-35.912 E1659.52872
G1 X3.314 Y-36.876 E1659.57817
G1 X2.392 Y-37.628 E1659.62764
G1 X1.307 Y-38.115 E1659.67708
G1 X0.132 Y-38.304 E1659.72656
G1 X-1.051 Y-38.183 E1659.776
G1 X-2.162 Y-37.76 E1659.82543
G1 X-3.126 Y-37.063 E1659.87488
G1 X-3.877 Y-36.141 E1659.92432
G1 X-4.364 Y-35.056 E1659.97377
G1 X-4.553 Y-33.882 E1660.02321
G1 X-4.432 Y-32.698 E1660.07269
G0 F18000 X-4.207 Y-32.52
G0 X-3.963 Y-31.613
G0 X-3.275 Y-30.658
G0 X-2.362 Y-29.916
G0 X-1.29 Y-29.435
G0 X-0.174 Y-29.356
G0 X-0.171 Y-29.355
G0 X-0.171 Y-29.355
G0 X-0.116 Y-29.699
; TYPE:WALL-OUTER
G1 F2100 X-0.116 Y-29.699 E1660.07269
G1 X0.935 Y-29.807 E1660.11661
G1 X1.924 Y-30.183 E1660.1606
G1 X2.781 Y-30.803 E1660.20458
G1 X3.45 Y-31.623 E1660.24858
G1 X3.883 Y-32.588 E1660.29255
G1 X4.05 Y-33.632 E1660.33651
G1 X3.943 Y-34.684 E1660.38047
G1 X3.567 Y-35.673 E1660.42446
G1 X2.947 Y-36.53 E1660.46843
G1 X2.127 Y-37.199 E1660.51243
G1 X1.162 Y-37.632 E1660.55641
G1 X0.117 Y-37.8 E1660.60041
G1 X-0.934 Y-37.692 E1660.64434
G1 X-1.923 Y-37.316 E1660.68833
G1 X-2.78 Y-36.696 E1660.7323
G1 X-3.448 Y-35.876 E1660.77627
G1 X-3.881 Y-34.911 E1660.82025
G1 X-4.049 Y-33.867 E1660.86421
G1 X-3.941 Y-32.815 E1660.90818
G1 X-3.565 Y-31.826 E1660.95217
G1 X-2.946 Y-30.968 E1660.99615
G1 X-2.125 Y-30.3 E1661.04016
G1 X-1.16 Y-29.867 E1661.08413
G1 X-0.116 Y-29.699 E1661.12809
G0 F18000 X-0.171 Y-29.355
G0 X-0.576 Y-15.769
G0 X-0.576 Y-15.769
; TYPE:WALL-INNER
G1 F2400 X-0.576 Y-15.769 E1661.12809
G1 X-1.726 Y-15.466 E1661.17754
G1 X-2.758 Y-14.875 E1661.22698
G1 X-3.603 Y-14.038 E1661.27643
G1 X-4.202 Y-13.009 E1661.32593
G1 X-4.514 Y-11.862 E1661.37535
G1 X-4.518 Y-10.672 E1661.42482
G1 X-4.215 Y-9.522 E1661.47427
G1 X-3.625 Y-8.49 E1661.52369
G1 X-2.787 Y-7.646 E1661.57314
G1 X-1.759 Y-7.046 E1661.62262
G1 X-0.612 Y-6.734 E1661.67204
G1 X0.577 Y-6.73 E1661.72148
G1 X1.727 Y-7.033 E1661.77092
G1 X2.759 Y-7.624 E1661.82036
G1 X3.604 Y-8.461 E1661.86981
G1 X4.203 Y-9.489 E1661.91928
G1 X4.516 Y-10.637 E1661.96875
G1 X4.52 Y-11.827 E1662.01822
G1 X4.217 Y-12.977 E1662.06766
G1 X3.626 Y-14.009 E1662.11711
G1 X2.788 Y-14.853 E1662.16655
G1 X1.76 Y-15.452 E1662.21602
G1 X0.613 Y-15.765 E1662.26545
G1 X-0.576 Y-15.769 E1662.31488
G0 F18000 X-0.569 Y-15.717
G0 X0.605 Y-15.713
G0 X1.74 Y-15.403
G0 X2.755 Y-14.812
G0 X3.584 Y-13.978
G0 X4.169 Y-12.956
G0 X4.468 Y-11.82
G0 X4.464 Y-10.645
G0 X4.154 Y-9.509
G0 X3.563 Y-8.493
G0 X2.727 Y-7.666
G0 X1.706 Y-7.081
G0 X0.525 Y-6.769
G0 X0.512 Y-6.881
G0 X0.512 Y-6.881
G0 X0.513 Y-7.23
; TYPE:WALL-OUTER
G1 F2100 X0.513 Y-7.23 E1662.31488
G1 X1.536 Y-7.5 E1662.35887
G1 X2.454 Y-8.025 E1662.40284
G1 X3.205 Y-8.77 E1662.44682
G1 X3.738 Y-9.684 E1662.49081
G1 X4.016 Y-10.705 E1662.5348
G1 X4.02 Y-11.763 E1662.57879
G1 X3.75 Y-12.786 E1662.62278
G1 X3.225 Y-13.704 E1662.66674
G1 X2.479 Y-14.454 E1662.71072
G1 X1.565 Y-14.987 E1662.75471
G1 X0.545 Y-15.265 E1662.79866
G1 X-0.512 Y-15.269 E1662.84261
G1 X-1.535 Y-14.999 E1662.8866
G1 X-2.453 Y-14.474 E1662.93056
G1 X-3.204 Y-13.729 E1662.97454
G1 X-3.737 Y-12.814 E1663.01857
G1 X-4.014 Y-11.794 E1663.06251
G1 X-4.018 Y-10.736 E1663.1065
G1 X-3.748 Y-9.713 E1663.15049
G1 X-3.224 Y-8.795 E1663.19443
G1 X-2.478 Y-8.045 E1663.23841
G1 X-1.564 Y-7.511 E1663.28242
G1 X-0.544 Y-7.234 E1663.32636
G1 X0.513 Y-7.23 E1663.37031
G1 F6600 E1656.57031
G1 Z0.8
G0 F18000 X0.512 Y-6.881
G0 X1.352 Y-6.957
G0 X1.751 Y-6.994
G0 X45.448 Y-11.032
G0 X45.448 Y-11.032
; TYPE:WALL-INNER
G1 Z0.5
G1 F6600 E1663.47031
G1 F2400 X45.448 Y-11.032 E1663.47031
G1 X45.661 Y-9.861 E1663.51979
G1 X46.168 Y-8.786 E1663.56921
G1 X46.935 Y-7.877 E1663.61865
G1 X47.913 Y-7.2 E1663.66811
G1 X49.032 Y-6.797 E1663.71755
G1 X50.217 Y-6.698 E1663.76699
G1 X51.388 Y-6.909 E1663.81646
G1 X52.464 Y-7.417 E1663.86593
G1 X53.372 Y-8.185 E1663.91537
G1 X54.05 Y-9.162 E1663.96482
G1 X54.452 Y-10.281 E1664.01425
G1 X54.552 Y-11.467 E1664.06373
G1 X54.341 Y-12.637 E1664.11316
G1 X53.833 Y-13.713 E1664.16263
G1 X53.065 Y-14.622 E1664.2121
G1 X52.087 Y-15.299 E1664.26156
G1 X50.968 Y-15.702 E1664.311
G1 X49.783 Y-15.801 E1664.36044
G1 X48.613 Y-15.59 E1664.40987
G1 X47.536 Y-15.082 E1664.45938
G1 X46.628 Y-14.314 E1664.50882
G1 X45.95 Y-13.337 E1664.55826
G1 X45.548 Y-12.218 E1664.60769
G1 X45.448 Y-11.032 E1664.65718
G0 F18000 X45.599 Y-10.897
G0 X45.711 Y-9.878
G0 X46.212 Y-8.814
G0 X46.971 Y-7.916
G0 X47.937 Y-7.247
G0 X49.044 Y-6.848
G0 X50.214 Y-6.751
G0 X50.231 Y-6.794
G0 X50.165 Y-6.854
G0 X50.165 Y-6.854
G0 X50.193 Y-7.202
; TYPE:WALL-OUTER
G1 F2100 X50.193 Y-7.202 E1664.65718
G1 X51.235 Y-7.39 E1664.7012
G1 X52.191 Y-7.841 E1664.74515
G1 X52.999 Y-8.524 E1664.78913
G1 X53.602 Y-9.393 E1664.83311
G1 X53.959 Y-10.388 E1664.87706
G1 X54.048 Y-11.443 E1664.92107
G1 X53.86 Y-12.484 E1664.96505
G1 X53.409 Y-13.44 E1665.009
G1 X52.726 Y-14.249 E1665.05302
G1 X51.856 Y-14.851 E1665.097
G1 X50.861 Y-15.209 E1665.14097
G1 X49.807 Y-15.297 E1665.18494
G1 X48.766 Y-15.109 E1665.22892
G1 X47.809 Y-14.658 E1665.2729
G1 X47.001 Y-13.975 E1665.31689
G1 X46.398 Y-13.106 E1665.36086
G1 X46.041 Y-12.111 E1665.40481
G1 X45.952 Y-11.056 E1665.44883
G1 X46.141 Y-10.015 E1665.49282
G1 X46.592 Y-9.059 E1665.53677
G1 X47.274 Y-8.25 E1665.58076
G1 X48.144 Y-7.648 E1665.62474
G1 X49.139 Y-7.29 E1665.66871
G1 X50.193 Y-7.202 E1665.71268
G1 F6600 E1658.91268
G1 Z0.8
G0 F18000 X50.165 Y-6.854
G0 X50.162 Y-6.743
G0 X51.372 Y-6.96
G0 X52.436 Y-7.461
G0 X53.333 Y-8.221
G0 X54.003 Y-9.187
G0 X54.401 Y-10.293
G0 X54.499 Y-11.464
G0 X54.29 Y-12.621
G0 X53.789 Y-13.685
G0 X53.029 Y-14.583
G0 X52.063 Y-15.252
G0 X50.956 Y-15.651
G0 X50.322 Y-15.703
G0 X50.565 Y-29.228
G0 X50.565 Y-29.228
; TYPE:WALL-INNER
G1 Z0.5
G1 F6600 E1665.81268
G1 F2400 X50.565 Y-29.228 E1665.81268
G1 X51.716 Y-29.528 E1665.86213
G1 X52.75 Y-30.116 E1665.91158
G1 X53.596 Y-30.952 E1665.96103
G1 X54.198 Y-31.978 E1666.01049
G1 X54.513 Y-33.124 E1666.0599
G1 X54.522 Y-34.314 E1666.10938
G1 X54.221 Y-35.465 E1666.15884
G1 X53.633 Y-36.499 E1666.20829
G1 X52.797 Y-37.346 E1666.25777
G1 X51.772 Y-37.947 E1666.30717
G1 X50.625 Y-38.263 E1666.35663
G1 X49.435 Y-38.271 E1666.40611
G1 X48.284 Y-37.971 E1666.45556
G1 X47.25 Y-37.383 E1666.50501
G1 X46.404 Y-36.547 E1666.55446
G1 X45.802 Y-35.521 E1666.60392
G1 X45.487 Y-34.375 E1666.65333
G1 X45.478 Y-33.185 E1666.70281
G1 X45.779 Y-32.034 E1666.75227
G1 X46.367 Y-31 E1666.80172
G1 X47.203 Y-30.153 E1666.8512
G1 X48.229 Y-29.551 E1666.90066
G1 X49.375 Y-29.236 E1666.95007
G1 X50.565 Y-29.228 E1666.99955
G0 F18000 X50.502 Y-29.729
; TYPE:WALL-OUTER
G1 F2100 X50.502 Y-29.729 E1666.99955
G1 X51.526 Y-29.995 E1667.04353
G1 X52.445 Y-30.518 E1667.08749
G1 X53.198 Y-31.261 E1667.13147
G1 X53.733 Y-32.174 E1667.17547
G1 X54.014 Y-33.193 E1667.21942
G1 X54.021 Y-34.251 E1667.2634
G1 X53.754 Y-35.275 E1667.3074
G1 X53.231 Y-36.195 E1667.3514
G1 X52.488 Y-36.948 E1667.39538
G1 X51.576 Y-37.482 E1667.43932
G1 X50.556 Y-37.764 E1667.48331
G1 X49.498 Y-37.77 E1667.5273
G1 X48.474 Y-37.504 E1667.57129
G1 X47.555 Y-36.981 E1667.61525
G1 X46.802 Y-36.238 E1667.65923
G1 X46.267 Y-35.325 E1667.70322
G1 X45.986 Y-34.306 E1667.74717
G1 X45.979 Y-33.248 E1667.79116
G1 X46.246 Y-32.224 E1667.83515
G1 X46.769 Y-31.304 E1667.87915
G1 X47.512 Y-30.551 E1667.92313
G1 X48.425 Y-30.016 E1667.96713
G1 X49.444 Y-29.735 E1668.01107
G1 X50.502 Y-29.729 E1668.05506
G1 F6600 E1661.25506
G1 Z0.8
G0 F18000 X50.5 Y-29.38
G0 X50.407 Y-15.696
G0 X50.956 Y-15.651
G0 X52.063 Y-15.252
G0 X53.029 Y-14.583
G0 X53.789 Y-13.685
G0 X54.29 Y-12.621
G0 X54.499 Y-11.464
G0 X54.401 Y-10.293
G0 X54.003 Y-9.187
G0 X53.333 Y-8.221
G0 X52.436 Y-7.461
G0 X51.372 Y-6.96
G0 X50.347 Y-6.774
G0 X50.19 Y16.746
G0 X50.19 Y16.746
; TYPE:WALL-INNER
G1 Z0.5
G1 F6600 E1668.15506
G1 F2400 X50.19 Y16.746 E1668.15506
G1 X48.694 Y16.893 E1668.21756
G1 X47.289 Y17.422 E1668.27997
G1 X46.066 Y18.297 E1668.34249
G1 X45.113 Y19.458 E1668.40494
G1 X44.492 Y20.826 E1668.4674
G1 X44.247 Y22.309 E1668.52989
G1 X44.393 Y23.805 E1668.59238
G1 X44.923 Y25.212 E1668.65489
G1 X45.798 Y26.433 E1668.71735
G1 X46.958 Y27.387 E1668.77979
G1 X48.327 Y28.008 E1668.84229
G1 X49.81 Y28.253 E1668.90478
G1 X51.306 Y28.106 E1668.96727
G1 X52.711 Y27.577 E1669.02969
G1 X53.934 Y26.702 E1669.09221
G1 X54.887 Y25.541 E1669.15466
G1 X55.508 Y24.173 E1669.21712
G1 X55.753 Y22.69 E1669.27961
G1 X55.607 Y21.195 E1669.34206
G1 X55.078 Y19.788 E1669.40455
G1 X54.203 Y18.566 E1669.46704
G1 X53.042 Y17.612 E1669.52951
G1 X51.673 Y16.991 E1669.59201
G1 X50.19 Y16.746 E1669.6545
G0 F18000 X50.188 Y16.797
G0 X51.658 Y17.041
G0 X53.013 Y17.657
G0 X54.165 Y18.602
G0 X55.032 Y19.812
G0 X55.555 Y21.207
G0 X55.7 Y22.688
G0 X55.458 Y24.158
G0 X54.842 Y25.512
G0 X53.898 Y26.664
G0 X52.686 Y27.531
G0 X51.293 Y28.054
G0 X49.765 Y28.204
G0 X49.77 Y28.093
G0 X49.77 Y28.093
G0 X49.827 Y27.749
; TYPE:WALL-OUTER
G1 F2100 X49.827 Y27.749 E1669.6545
G1 X51.191 Y27.615 E1669.71149
G1 X52.474 Y27.132 E1669.76848
G1 X53.589 Y26.334 E1669.82549
G1 X54.459 Y25.274 E1669.8825
G1 X55.025 Y24.026 E1669.93947
G1 X55.249 Y22.673 E1669.99649
G1 X55.116 Y21.309 E1670.05347
G1 X54.633 Y20.025 E1670.1105
G1 X53.835 Y18.911 E1670.16747
G1 X52.775 Y18.04 E1670.22451
G1 X51.526 Y17.474 E1670.28152
G1 X50.173 Y17.25 E1670.33854
G1 X48.809 Y17.384 E1670.39552
G1 X47.526 Y17.867 E1670.45252
G1 X46.411 Y18.665 E1670.50952
G1 X45.541 Y19.725 E1670.56653
G1 X44.975 Y20.973 E1670.62351
G1 X44.751 Y22.326 E1670.68052
G1 X44.884 Y23.69 E1670.7375
G1 X45.368 Y24.974 E1670.79455
G1 X46.166 Y26.088 E1670.85152
G1 X47.225 Y26.959 E1670.90853
G1 X48.474 Y27.525 E1670.96554
G1 X49.827 Y27.749 E1671.02256
G0 F18000 X50 Y28.675
; TYPE:FILL
G1 F2400 X50 Y45.309 E1671.71412
G0 F18000 X49.5 Y45.309
G1 F2400 X49.5 Y28.647 E1672.40684
G0 F18000 X49 Y28.565
G1 F2400 X49 Y45.309 E1673.10298
G0 F18000 X48.5 Y45.309
G1 F2400 X48.5 Y28.482 E1673.80256
G0 F18000 X48 Y28.342
G1 F2400 X48 Y45.309 E1674.50797
G0 F18000 X47.5 Y45.309
G1 F2400 X47.5 Y28.115 E1675.22281
G0 F18000 X47 Y27.888
G1 F2400 X47 Y45.309 E1675.94709
G0 F18000 X46.5 Y45.309
G1 F2400 X46.5 Y27.579 E1676.68422
G0 F18000 X46 Y27.168
G1 F2400 X46 Y45.309 E1677.43844
G0 F18000 X45.5 Y45.309
G1 F2400 X45.5 Y26.757 E1678.20974
G0 F18000 X45 Y26.073
G1 F2400 X45 Y45.309 E1679.00948
G0 F18000 X44.5 Y45.309
G1 F2400 X44.5 Y25.337 E1679.83982
G0 F18000 X44 Y24.01
G1 F2400 X44 Y45.309 E1680.72533
G0 F18000 X43.5 Y45.309
G1 F2400 X43.499 Y-45.308 E1684.49274
G0 F18000 X42.999 Y-45.308
G1 F2400 X43 Y45.309 E1688.26016
G0 F18000 X42.5 Y45.309
G1 F2400 X42.499 Y-45.308 E1692.02758
G0 F18000 X41.999 Y-45.308
G1 F2400 X42 Y45.309 E1695.795
G0 F18000 X41.5 Y45.309
G1 F2400 X41.499 Y-45.308 E1699.56241
G0 F18000 X40.999 Y-45.308
G1 F2400 X41 Y45.309 E1703.32983
G0 F18000 X40.5 Y45.309
G1 F2400 X40.499 Y-45.308 E1707.09725
G0 F18000 X39.999 Y-45.308
G1 F2400 X40 Y45.309 E1710.86466
G0 F18000 X39.5 Y45.309
G1 F2400 X39.499 Y-45.308 E1714.63208
G0 F18000 X38.999 Y-45.308
G1 F2400 X39 Y45.309 E1718.3995
G0 F18000 X38.5 Y45.309
G1 F2400 X38.499 Y-45.308 E1722.16691
G0 F18000 X37.999 Y-45.308
G1 F2400 X38 Y45.309 E1725.93433
G0 F18000 X37.5 Y45.309
G1 F2400 X37.499 Y-45.308 E1729.70175
G0 F18000 X36.999 Y-45.308
G1 F2400 X37 Y45.309 E1733.46917
G0 F18000 X36.5 Y45.309
G1 F2400 X36.499 Y-45.308 E1737.23658
G0 F18000 X35.999 Y-45.308
G1 F2400 X36 Y45.309 E1741.004
G0 F18000 X35.5 Y45.309
G1 F2400 X35.499 Y-45.308 E1744.77142
G0 F18000 X34.999 Y-45.308
G1 F2400 X35 Y45.309 E1748.53883
G0 F18000 X34.5 Y45.309
G1 F2400 X34.499 Y-45.308 E1752.30625
G0 F18000 X33.999 Y-45.308
G1 F2400 X34 Y45.309 E1756.07367
G0 F18000 X33.5 Y45.309
G1 F2400 X33.499 Y-45.308 E1759.84109
G0 F18000 X32.999 Y-45.308
G1 F2400 X33 Y45.309 E1763.6085
G0 F18000 X32.5 Y45.309
G1 F2400 X32.499 Y-45.308 E1767.37592
G0 F18000 X31.999 Y-45.308
G1 F2400 X32 Y45.309 E1771.14334
G0 F18000 X31.5 Y45.309
G1 F2400 X31.499 Y-45.308 E1774.91075
G0 F18000 X30.999 Y-45.308
G1 F2400 X31 Y45.309 E1778.67817
G0 F18000 X30.5 Y45.309
G1 F2400 X30.499 Y-45.308 E1782.44559
G0 F18000 X29.999 Y-45.308
G1 F2400 X30 Y45.309 E1786.21301
G0 F18000 X29.5 Y45.31
G1 F2400 X29.499 Y-45.308 E1789.98046
G0 F18000 X28.999 Y-45.308
G1 F2400 X29 Y45.31 E1793.74792
G0 F18000 X28.5 Y45.31
G1 F2400 X28.499 Y-45.308 E1797.51538
G0 F18000 X27.999 Y-45.308
G1 F2400 X28 Y45.31 E1801.28284
G0 F18000 X27.5 Y45.31
G1 F2400 X27.499 Y-45.308 E1805.0503
G0 F18000 X26.999 Y-45.308
G1 F2400 X27 Y45.31 E1808.81776
G0 F18000 X26.5 Y45.31
G1 F2400 X26.499 Y-45.308 E1812.58522
G0 F18000 X25.999 Y-45.308
G1 F2400 X26 Y45.31 E1816.35267
G0 F18000 X25.5 Y45.31
G1 F2400 X25.499 Y-45.308 E1820.12013
G0 F18000 X24.999 Y-45.308
G1 F2400 X25 Y45.31 E1823.88759
G0 F18000 X24.5 Y45.31
G1 F2400 X24.499 Y-45.308 E1827.65505
G0 F18000 X23.999 Y-45.308
G1 F2400 X24 Y7.809 E1829.8634
G0 F18000 X23.5 Y7.809
G1 F2400 X23.499 Y-45.308 E1832.07175
G0 F18000 X22.999 Y-45.308
G1 F2400 X23 Y7.809 E1834.2801
G0 F18000 X22.5 Y7.809
G1 F2400 X22.499 Y-45.308 E1836.48844
G0 F18000 X21.999 Y-45.308
G1 F2400 X22 Y7.809 E1838.69679
G0 F18000 X21.5 Y7.809
G1 F2400 X21.499 Y-45.308 E1840.90514
G0 F18000 X20.999 Y-45.308
G1 F2400 X21 Y7.809 E1843.11349
G0 F18000 X20.5 Y7.809
G1 F2400 X20.499 Y-45.308 E1845.32184
G0 F18000 X19.999 Y-45.308
G1 F2400 X20 Y7.809 E1847.53018
G0 F18000 X19.5 Y7.809
G1 F2400 X19.499 Y-45.308 E1849.73853
G0 F18000 X18.999 Y-45.308
G1 F2400 X19 Y7.809 E1851.94688
G0 F18000 X18.5 Y7.809
G1 F2400 X18.499 Y-45.308 E1854.15523
G0 F18000 X17.999 Y-45.308
G1 F2400 X18 Y7.809 E1856.36358
G0 F18000 X17.5 Y7.809
G1 F2400 X17.499 Y-45.308 E1858.57193
G0 F18000 X16.999 Y-45.308
G1 F2400 X17 Y7.809 E1860.78027
G0 F18000 X16.5 Y7.809
G1 F2400 X16.499 Y-45.308 E1862.98862
G0 F18000 X15.999 Y-45.308
G1 F2400 X16 Y7.809 E1865.19697
G0 F18000 X15.5 Y7.809
G1 F2400 X15.499 Y-45.308 E1867.40532
G0 F18000 X14.999 Y-45.308
G1 F2400 X15 Y7.809 E1869.61367
G0 F18000 X14.5 Y7.809
G1 F2400 X14.499 Y-45.308 E1871.82202
G0 F18000 X13.999 Y-45.308
G1 F2400 X14 Y7.809 E1874.03036
G0 F18000 X13.5 Y7.809
G1 F2400 X13.499 Y-45.308 E1876.23871
G0 F18000 X12.999 Y-45.308
G1 F2400 X13 Y7.809 E1878.44706
G0 F18000 X12.5 Y7.809
G1 F2400 X12.499 Y-45.308 E1880.65541
G0 F18000 X11.999 Y-45.308
G1 F2400 X12 Y7.809 E1882.86376
G0 F18000 X11.5 Y7.809
G1 F2400 X11.499 Y-45.308 E1885.0721
G0 F18000 X10.999 Y-45.308
G1 F2400 X11 Y7.809 E1887.28045
G0 F18000 X10.5 Y7.809
G1 F2400 X10.499 Y-45.308 E1889.4888
G0 F18000 X9.999 Y-45.308
G1 F2400 X10 Y7.809 E1891.69715
G0 F18000 X9.5 Y7.809
G1 F2400 X9.499 Y-45.308 E1893.9055
G0 F18000 X8.999 Y-45.308
G1 F2400 X9 Y7.809 E1896.11385
G0 F18000 X8.5 Y7.809
G1 F2400 X8.499 Y-45.308 E1898.32219
G0 F18000 X7.999 Y-45.308
G1 F2400 X8 Y7.809 E1900.53054
G0 F18000 X7.5 Y7.809
G1 F2400 X7.499 Y-45.308 E1902.73889
G0 F18000 X6.999 Y-45.308
G1 F2400 X7 Y7.809 E1904.94724
G0 F18000 X6.5 Y7.809
G1 F2400 X6.499 Y-45.308 E1907.15559
G0 F18000 X5.999 Y-45.308
G1 F2400 X6 Y7.809 E1909.36394
G0 F18000 X5.5 Y7.809
G1 F2400 X5.499 Y-45.308 E1911.57228
G0 F18000 X4.999 Y-45.308
G1 F2400 X5 Y7.809 E1913.78063
G0 F18000 X4.5 Y7.809
G1 F2400 X4.499 Y-9.125 E1914.48467
G0 F18000 X3.999 Y-8.265
G1 F2400 X4 Y7.809 E1915.15294
G0 F18000 X3.5 Y7.81
G1 F2400 X3.499 Y-7.738 E1915.79936
G0 F18000 X2.999 Y-7.256
G1 F2400 X3 Y7.81 E1916.42573
G0 F18000 X2.5 Y7.81
G1 F2400 X2.499 Y-6.969 E1917.04017
G0 F18000 X1.999 Y-6.682
G1 F2400 X2 Y7.81 E1917.64267
G0 F18000 X1.5 Y7.81
G1 F2400 X1.499 Y-6.518 E1918.23836
G0 F18000 X0.999 Y-6.386
G1 F2400 X1 Y7.81 E1918.82856
G0 F18000 X0.5 Y7.81
G1 F2400 X0.499 Y-6.29 E1919.41477
G0 F18000 X0 Y-6.292
G1 F2400 X0 Y7.809 E1920.00103
G0 F18000 X-0.499 Y7.809
G1 F2400 X-0.5 Y-6.293 E1920.58732
G0 F18000 X-1 Y-6.384
G1 F2400 X-0.999 Y7.809 E1921.17739
G0 F18000 X-1.499 Y7.809
G1 F2400 X-1.5 Y-6.52 E1921.77313
G0 F18000 X-2 Y-6.678
G1 F2400 X-1.999 Y7.809 E1922.37542
G0 F18000 X-2.499 Y7.809
G1 F2400 X-2.5 Y-6.97 E1922.98986
G0 F18000 X-3 Y-7.261
G1 F2400 X-2.999 Y7.809 E1923.6164
G0 F18000 X-3.499 Y7.809
G1 F2400 X-3.5 Y-7.741 E1924.2629
G0 F18000 X-4 Y-8.262
G1 F2400 X-3.999 Y7.809 E1924.93105
G0 F18000 X-4.499 Y7.809
G1 F2400 X-4.5 Y-9.136 E1925.63554
G0 F18000 X-4.5 Y-13.37
G0 X-4.5 Y-13.37
G1 F2400 X-4.5 Y-31.643 E1926.39524
G0 F18000 X-4 Y-30.824
G1 F2400 X-4 Y-14.229 E1927.08518
G0 F18000 X-3.5 Y-14.758
G1 F2400 X-3.5 Y-30.208 E1927.72752
G0 F18000 X-3 Y-29.801
G1 F2400 X-3 Y-15.242 E1928.33281
G0 F18000 X-2.5 Y-15.529
G1 F2400 X-2.5 Y-29.439 E1928.91112
G0 F18000 X-2 Y-29.214
G1 F2400 X-2 Y-15.816 E1929.46815
G0 F18000 X-1.5 Y-15.98
G1 F2400 X-1.5 Y-28.989 E1930.009
G0 F18000 X-1 Y-28.889
G1 F2400 X-1 Y-16.112 E1930.54021
G0 F18000 X-0.5 Y-16.209
G1 F2400 X-0.5 Y-28.809 E1931.06405
G0 F18000 X0 Y-28.767
G1 F2400 X0 Y-16.207 E1931.58624
G0 F18000 X0.499 Y-16.206
G1 F2400 X0.499 Y-28.817 E1932.11054
G0 F18000 X0.999 Y-28.868
G1 F2400 X0.999 Y-16.115 E1932.64075
G0 F18000 X1.499 Y-15.979
G1 F2400 X1.499 Y-29.015 E1933.18272
G0 F18000 X1.999 Y-29.206
G1 F2400 X1.999 Y-15.821 E1933.73921
G0 F18000 X2.499 Y-15.53
G1 F2400 X2.499 Y-29.44 E1934.31752
G0 F18000 X2.999 Y-29.801
G1 F2400 X2.999 Y-15.239 E1934.92294
G0 F18000 X3.499 Y-14.761
G1 F2400 X3.499 Y-30.198 E1935.56473
G0 F18000 X3.999 Y-30.811
G1 F2400 X3.999 Y-14.241 E1936.25363
G0 F18000 X4.499 Y-13.368
G1 F2400 X4.499 Y-31.668 E1937.01446
G0 F18000 X4.499 Y-35.864
G0 X4.499 Y-35.864
G1 F2400 X4.499 Y-45.308 E1937.40709
G0 F18000 X3.999 Y-45.308
G1 F2400 X3.999 Y-36.677 E1937.76593
G0 F18000 X3.499 Y-37.292
G1 F2400 X3.499 Y-45.308 E1938.0992
G0 F18000 X2.999 Y-45.308
G1 F2400 X2.999 Y-37.699 E1938.41554
G0 F18000 X2.499 Y-38.061
G1 F2400 X2.499 Y-45.308 E1938.71684
G0 F18000 X1.999 Y-45.308
G1 F2400 X1.999 Y-38.286 E1939.00878
G0 F18000 X1.499 Y-38.511
G1 F2400 X1.499 Y-45.308 E1939.29136
G0 F18000 X0.999 Y-45.308
G1 F2400 X0.999 Y-38.61 E1939.56983
G0 F18000 X0.499 Y-38.69
G1 F2400 X0.499 Y-45.308 E1939.84498
G0 F18000 X0 Y-45.309
G1 F2400 X0 Y-38.732 E1940.11842
G0 F18000 X-0.5 Y-38.681
G1 F2400 X-0.5 Y-45.309 E1940.39398
G0 F18000 X-1 Y-45.309
G1 F2400 X-1 Y-38.631 E1940.67162
G0 F18000 X-1.5 Y-38.483
G1 F2400 X-1.5 Y-45.309 E1940.95541
G0 F18000 X-2 Y-45.309
G1 F2400 X-2 Y-38.292 E1941.24714
G0 F18000 X-2.5 Y-38.058
G1 F2400 X-2.5 Y-45.309 E1941.5486
G0 F18000 X-3 Y-45.309
G1 F2400 X-3 Y-37.696 E1941.86512
G0 F18000 X-3.5 Y-37.299
G1 F2400 X-3.5 Y-45.309 E1942.19813
G0 F18000 X-4 Y-45.309
G1 F2400 X-4 Y-36.685 E1942.55668
G0 F18000 X-4.5 Y-35.825
G1 F2400 X-4.5 Y-45.309 E1942.95098
G0 F18000 X-5 Y-45.309
G1 F2400 X-4.999 Y7.809 E1945.15937
G0 F18000 X-5.499 Y7.809
G1 F2400 X-5.5 Y-45.309 E1947.36776
G0 F18000 X-6 Y-45.309
G1 F2400 X-5.999 Y7.809 E1949.57615
G0 F18000 X-6.499 Y7.809
G1 F2400 X-6.5 Y-45.309 E1951.78454
G0 F18000 X-7 Y-45.309
G1 F2400 X-6.999 Y7.809 E1953.99292
G0 F18000 X-7.499 Y7.809
G1 F2400 X-7.5 Y-45.309 E1956.20131
G0 F18000 X-8 Y-45.309
G1 F2400 X-7.999 Y7.809 E1958.4097
G0 F18000 X-8.499 Y7.809
G1 F2400 X-8.5 Y-45.309 E1960.61809
G0 F18000 X-9 Y-45.309
G1 F2400 X-8.999 Y7.809 E1962.82648
G0 F18000 X-9.499 Y7.809
G1 F2400 X-9.5 Y-45.309 E1965.03487
G0 F18000 X-10 Y-45.309
G1 F2400 X-9.999 Y7.809 E1967.24326
G0 F18000 X-10.499 Y7.809
G1 F2400 X-10.5 Y-45.309 E1969.45165
G0 F18000 X-11 Y-45.309
G1 F2400 X-10.999 Y7.809 E1971.66004
G0 F18000 X-11.499 Y7.809
G1 F2400 X-11.5 Y-45.309 E1973.86843
G0 F18000 X-12 Y-45.309
G1 F2400 X-11.999 Y7.809 E1976.07682
G0 F18000 X-12.499 Y7.809
G1 F2400 X-12.5 Y-45.309 E1978.28521
G0 F18000 X-13 Y-45.309
G1 F2400 X-12.999 Y7.809 E1980.4936
G0 F18000 X-13.499 Y7.809
G1 F2400 X-13.5 Y-45.309 E1982.70199
G0 F18000 X-14 Y-45.309
G1 F2400 X-13.999 Y7.809 E1984.91038
G0 F18000 X-14.499 Y7.809
G1 F2400 X-14.5 Y-45.309 E1987.11877
G0 F18000 X-15 Y-45.309
G1 F2400 X-14.999 Y7.809 E1989.32716
G0 F18000 X-15.499 Y7.809
G1 F2400 X-15.5 Y-45.309 E1991.53555
G0 F18000 X-16 Y-45.309
G1 F2400 X-15.999 Y7.809 E1993.74394
G0 F18000 X-16.5 Y7.809
G1 F2400 X-16.5 Y-45.309 E1995.95233
G0 F18000 X-17 Y-45.309
G1 F2400 X-17 Y7.809 E1998.16072
G0 F18000 X-17.5 Y7.809
G1 F2400 X-17.5 Y-45.309 E2000.36911
G0 F18000 X-18 Y-45.309
G1 F2400 X-18 Y7.809 E2002.5775
G0 F18000 X-18.5 Y7.809
G1 F2400 X-18.5 Y-45.309 E2004.78589
G0 F18000 X-19 Y-45.309
G1 F2400 X-19 Y7.809 E2006.99428
G0 F18000 X-19.5 Y7.809
G1 F2400 X-19.5 Y-45.309 E2009.20267
G0 F18000 X-20 Y-45.309
G1 F2400 X-20 Y7.809 E2011.41106
G0 F18000 X-20.5 Y7.809
G1 F2400 X-20.5 Y-9.165 E2012.11676
G0 F18000 X-21 Y-8.312
G1 F2400 X-21 Y7.809 E2012.78699
G0 F18000 X-21.5 Y7.809
G1 F2400 X-21.5 Y-7.689 E2013.43132
G0 F18000 X-22 Y-7.3
G1 F2400 X-22 Y7.809 E2014.05948
G0 F18000 X-22.5 Y7.809
G1 F2400 X-22.5 Y-6.932 E2014.67234
G0 F18000 X-23 Y-6.706
G1 F2400 X-23 Y7.809 E2015.2758
G0 F18000 X-23.5 Y7.809
G1 F2400 X-23.5 Y-6.511 E2015.87116
G0 F18000 X-24 Y-6.371
G1 F2400 X-24 Y7.809 E2016.4607
G0 F18000 X-25 Y-6.262
G0 X-25 Y-6.262
G1 F2400 X-24.999 Y45.309 E2018.60477
G0 F18000 X-25.499 Y45.309
G1 F2400 X-25.5 Y-6.31 E2020.75084
G0 F18000 X-26 Y-6.387
G1 F2400 X-25.999 Y45.309 E2022.90011
G0 F18000 X-26.499 Y45.309
G1 F2400 X-26.5 Y-6.494 E2025.05383
G0 F18000 X-27 Y-6.713
G1 F2400 X-26.999 Y45.309 E2027.21665
G0 F18000 X-27.499 Y45.309
G1 F2400 X-27.5 Y-6.933 E2029.38862
G0 F18000 X-28 Y-7.301
G1 F2400 X-27.999 Y45.309 E2031.57589
G0 F18000 X-28.499 Y45.309
G1 F2400 X-28.5 Y-7.7 E2033.77975
G0 F18000 X-29 Y-8.321
G1 F2400 X-28.999 Y45.309 E2036.00942
G0 F18000 X-29.499 Y45.309
G1 F2400 X-29.5 Y-9.145 E2038.27336
G0 F18000 X-29.5 Y-13.326
G0 X-29.5 Y-13.326
G1 F2400 X-29.5 Y-31.668 E2039.03593
G0 F18000 X-29 Y-30.794
G1 F2400 X-29 Y-14.182 E2039.72658
G0 F18000 X-28.5 Y-14.807
G1 F2400 X-28.5 Y-30.221 E2040.36742
G0 F18000 X-28 Y-29.792
G1 F2400 X-28 Y-15.195 E2040.97429
G0 F18000 X-27.5 Y-15.562
G1 F2400 X-27.5 Y-29.457 E2041.55198
G0 F18000 X-27 Y-29.194
G1 F2400 X-27 Y-15.789 E2042.10929
G0 F18000 X-26.5 Y-15.985
G1 F2400 X-26.5 Y-29.023 E2042.65135
G0 F18000 X-26 Y-28.852
G1 F2400 X-26 Y-16.126 E2043.18043
G0 F18000 X-25.5 Y-16.181
G1 F2400 X-25.5 Y-28.814 E2043.70565
G0 F18000 X-25 Y-28.78
G1 F2400 X-25 Y-16.235 E2044.22721
G0 F18000 X-24.5 Y-16.187
G1 F2400 X-24.5 Y-28.795 E2044.75139
G0 F18000 X-24 Y-28.893
G1 F2400 X-24 Y-16.111 E2045.28281
G0 F18000 X-23.5 Y-16.004
G1 F2400 X-23.5 Y-28.991 E2045.82274
G0 F18000 X-23 Y-29.207
G1 F2400 X-23 Y-15.785 E2046.38077
G0 F18000 X-22.5 Y-15.565
G1 F2400 X-22.5 Y-29.452 E2046.95812
G0 F18000 X-22 Y-29.784
G1 F2400 X-22 Y-15.199 E2047.56449
G0 F18000 X-21.5 Y-14.799
G1 F2400 X-21.5 Y-30.221 E2048.20567
G0 F18000 X-21 Y-30.809
G1 F2400 X-21 Y-14.18 E2048.89702
G0 F18000 X-20.5 Y-13.357
G1 F2400 X-20.5 Y-31.58 E2049.65464
G0 F18000 X-20.5 Y-35.838
G0 X-20.5 Y-35.838
G1 F2400 X-20.5 Y-45.309 E2050.0484
G0 F18000 X-21 Y-45.309
G1 F2400 X-21 Y-36.709 E2050.40595
G0 F18000 X-21.5 Y-37.28
G1 F2400 X-21.5 Y-45.309 E2050.73976
G0 F18000 X-22 Y-45.309
G1 F2400 X-22 Y-37.707 E2051.05581
G0 F18000 X-22.5 Y-38.043
G1 F2400 X-22.5 Y-45.309 E2051.3579
G0 F18000 X-23 Y-45.309
G1 F2400 X-23 Y-38.306 E2051.64905
G0 F18000 X-23.5 Y-38.477
G1 F2400 X-23.5 Y-45.309 E2051.93309
G0 F18000 X-24 Y-45.309
G1 F2400 X-24 Y-38.648 E2052.21002
G0 F18000 X-24.5 Y-38.685
G1 F2400 X-24.5 Y-45.309 E2052.48541
G0 F18000 X-25 Y-45.309
G1 F2400 X-25 Y-38.718 E2052.75944
G0 F18000 X-25.5 Y-38.703
G1 F2400 X-25.5 Y-45.309 E2053.03408
G0 F18000 X-26 Y-45.309
G1 F2400 X-26 Y-38.604 E2053.31284
G0 F18000 X-26.5 Y-38.506
G1 F2400 X-26.5 Y-45.309 E2053.59568
G0 F18000 X-27 Y-45.309
G1 F2400 X-27 Y-38.289 E2053.88754
G0 F18000 X-27.5 Y-38.044
G1 F2400 X-27.5 Y-45.309 E2054.18958
G0 F18000 X-28 Y-45.309
G1 F2400 X-28 Y-37.71 E2054.50551
G0 F18000 X-28.5 Y-37.273
G1 F2400 X-28.5 Y-45.309 E2054.83961
G0 F18000 X-29 Y-45.309
G1 F2400 X-29 Y-36.683 E2055.19824
G0 F18000 X-29.5 Y-35.907
G1 F2400 X-29.5 Y-45.309 E2055.58913
G0 F18000 X-30 Y-45.308
G1 F2400 X-29.999 Y45.309 E2059.35654
G0 F18000 X-30.499 Y45.309
G1 F2400 X-30.5 Y-45.308 E2063.12396
G0 F18000 X-31 Y-45.308
G1 F2400 X-30.999 Y45.309 E2066.89138
G0 F18000 X-31.499 Y45.309
G1 F2400 X-31.5 Y-45.308 E2070.65879
G0 F18000 X-32 Y-45.308
G1 F2400 X-31.999 Y45.309 E2074.42621
G0 F18000 X-32.499 Y45.309
G1 F2400 X-32.5 Y-45.308 E2078.19363
G0 F18000 X-33 Y-45.308
G1 F2400 X-32.999 Y45.309 E2081.96105
G0 F18000 X-33.499 Y45.309
G1 F2400 X-33.5 Y-45.308 E2085.72846
G0 F18000 X-34 Y-45.308
G1 F2400 X-33.999 Y45.309 E2089.49588
G0 F18000 X-34.499 Y45.309
G1 F2400 X-34.5 Y-45.308 E2093.2633
G0 F18000 X-35 Y-45.308
G1 F2400 X-34.999 Y45.309 E2097.03071
G0 F18000 X-35.499 Y45.309
G1 F2400 X-35.5 Y-45.308 E2100.79813
G0 F18000 X-36 Y-45.308
G1 F2400 X-35.999 Y45.309 E2104.56555
G0 F18000 X-36.499 Y45.309
G1 F2400 X-36.5 Y-45.308 E2108.33296
G0 F18000 X-37 Y-45.308
G1 F2400 X-36.999 Y45.309 E2112.10038
G0 F18000 X-37.499 Y45.309
G1 F2400 X-37.5 Y-45.308 E2115.8678
G0 F18000 X-38 Y-45.308
G1 F2400 X-37.999 Y45.309 E2119.63522
G0 F18000 X-38.499 Y45.309
G1 F2400 X-38.5 Y-45.308 E2123.40263
G0 F18000 X-39 Y-45.308
G1 F2400 X-38.999 Y45.309 E2127.17005
G0 F18000 X-39.499 Y45.309
G1 F2400 X-39.5 Y-45.308 E2130.93747
G0 F18000 X-40 Y-45.308
G1 F2400 X-39.999 Y45.309 E2134.70488
G0 F18000 X-40.499 Y45.309
G1 F2400 X-40.5 Y-45.308 E2138.4723
G0 F18000 X-41 Y-45.308
G1 F2400 X-40.999 Y45.309 E2142.23972
G0 F18000 X-41.499 Y45.309
G1 F2400 X-41.5 Y-45.308 E2146.00714
G0 F18000 X-42 Y-45.308
G1 F2400 X-41.999 Y45.309 E2149.77455
G0 F18000 X-42.499 Y45.309
G1 F2400 X-42.5 Y-45.308 E2153.54197
G0 F18000 X-43 Y-45.308
G1 F2400 X-42.999 Y45.309 E2157.30939
G0 F18000 X-43.499 Y45.309
G1 F2400 X-43.5 Y-45.308 E2161.0768
G0 F18000 X-44 Y-45.308
G1 F2400 X-43.999 Y45.309 E2164.84422
G0 F18000 X-44.499 Y45.309
G1 F2400 X-44.5 Y-45.308 E2168.61164
G0 F18000 X-45 Y-45.308
G1 F2400 X-44.999 Y45.309 E2172.37905
G0 F18000 X-45.499 Y45.309
G1 F2400 X-45.5 Y-9.166 E2174.64386
G0 F18000 X-46 Y-8.296
G1 F2400 X-45.999 Y45.309 E2176.8725
G0 F18000 X-46.499 Y45.309
G1 F2400 X-46.5 Y-7.712 E2179.07686
G0 F18000 X-47 Y-7.293
G1 F2400 X-46.999 Y45.309 E2181.26379
G0 F18000 X-47.499 Y45.309
G1 F2400 X-47.5 Y-6.95 E2183.43647
G0 F18000 X-48 Y-6.697
G1 F2400 X-47.999 Y45.309 E2185.59863
G0 F18000 X-48.499 Y45.309
G1 F2400 X-48.5 Y-6.521 E2187.75347
G0 F18000 X-49 Y-6.354
G1 F2400 X-48.999 Y45.309 E2189.90137
G0 F18000 X-49.499 Y45.309
G1 F2400 X-49.5 Y-6.315 E2192.04764
G0 F18000 X-50 Y-6.277
G1 F2400 X-49.999 Y45.309 E2194.19234
G0 F18000 X-50.499 Y45.309
G1 F2400 X-50.5 Y-6.299 E2196.33795
G0 F18000 X-51 Y-6.392
G1 F2400 X-50.999 Y45.309 E2198.48743
G0 F18000 X-51.499 Y45.309
G1 F2400 X-51.5 Y-6.485 E2200.64077
G0 F18000 X-52 Y-6.71
G1 F2400 X-51.999 Y45.309 E2202.80347
G0 F18000 X-52.499 Y45.309
G1 F2400 X-52.5 Y-6.949 E2204.97611
G0 F18000 X-53 Y-7.291
G1 F2400 X-52.999 Y45.309 E2207.16296
G0 F18000 X-53.499 Y45.309
G1 F2400 X-53.5 Y-7.719 E2209.36761
G0 F18000 X-54 Y-8.316
G1 F2400 X-53.999 Y45.309 E2211.59708
G0 F18000 X-54.499 Y45.309
G1 F2400 X-54.5 Y-9.109 E2213.85952
G0 F18000 X-54.5 Y-13.328
G0 X-54.5 Y-13.328
G1 F2400 X-54.5 Y-31.581 E2214.61839
G0 F18000 X-54 Y-30.807
G1 F2400 X-54 Y-14.198 E2215.30891
G0 F18000 X-53.5 Y-14.782
G1 F2400 X-53.5 Y-30.232 E2215.95125
G0 F18000 X-53 Y-29.779
G1 F2400 X-53 Y-15.202 E2216.55729
G0 F18000 X-52.5 Y-15.546
G1 F2400 X-52.5 Y-29.459 E2217.13572
G0 F18000 X-52 Y-29.203
G1 F2400 X-52 Y-15.799 E2217.693
G0 F18000 X-51.5 Y-15.976
G1 F2400 X-51.5 Y-29 E2218.23447
G0 F18000 X-51 Y-28.893
G1 F2400 X-51 Y-16.143 E2218.76455
G0 F18000 X-50.5 Y-16.181
G1 F2400 X-50.5 Y-28.785 E2219.28857
G0 F18000 X-50 Y-28.785
G1 F2400 X-50 Y-16.22 E2219.81096
G0 F18000 X-49.5 Y-16.198
G1 F2400 X-49.5 Y-28.81 E2220.33531
G0 F18000 X-49 Y-28.862
G1 F2400 X-49 Y-16.105 E2220.86568
G0 F18000 X-48.5 Y-16.012
G1 F2400 X-48.5 Y-29.023 E2221.40661
G0 F18000 X-48 Y-29.183
G1 F2400 X-48 Y-15.788 E2221.96351
G0 F18000 X-47.5 Y-15.549
G1 F2400 X-47.5 Y-29.46 E2222.54187
G0 F18000 X-47 Y-29.782
G1 F2400 X-47 Y-15.208 E2223.14778
G0 F18000 X-46.5 Y-14.78
G1 F2400 X-46.5 Y-30.225 E2223.78991
G0 F18000 X-46 Y-30.778
G1 F2400 X-46 Y-14.185 E2224.47977
G0 F18000 X-45.5 Y-13.396
G1 F2400 X-45.5 Y-31.655 E2225.23889
G0 F18000 X-45.5 Y-35.925
G0 X-45.5 Y-35.925
G1 F2400 X-45.5 Y-45.308 E2225.62899
G0 F18000 X-46 Y-45.308
G1 F2400 X-46 Y-36.697 E2225.98699
G0 F18000 X-46.5 Y-37.269
G1 F2400 X-46.5 Y-45.308 E2226.32121
G0 F18000 X-47 Y-45.308
G1 F2400 X-47 Y-37.72 E2226.63669
G0 F18000 X-47.5 Y-38.039
G1 F2400 X-47.5 Y-45.308 E2226.9389
G0 F18000 X-48 Y-45.308
G1 F2400 X-48 Y-38.296 E2227.23042
G0 F18000 X-48.5 Y-38.498
G1 F2400 X-48.5 Y-45.308 E2227.51355
G0 F18000 X-49 Y-45.308
G1 F2400 X-49 Y-38.605 E2227.79223
G0 F18000 X-49.5 Y-38.712
G1 F2400 X-49.5 Y-45.308 E2228.06646
G0 F18000 X-50 Y-45.308
G1 F2400 X-50 Y-38.712 E2228.34069
G0 F18000 X-50.5 Y-38.687
G1 F2400 X-50.5 Y-45.308 E2228.61596
G0 F18000 X-51 Y-45.308
G1 F2400 X-51 Y-38.634 E2228.89343
G0 F18000 X-51.5 Y-38.473
G1 F2400 X-51.5 Y-45.308 E2229.1776
G0 F18000 X-52 Y-45.308
G1 F2400 X-52 Y-38.313 E2229.46841
G0 F18000 X-52.5 Y-38.035
G1 F2400 X-52.5 Y-45.308 E2229.77079
G0 F18000 X-53 Y-45.308
G1 F2400 X-53 Y-37.71 E2230.08668
G0 F18000 X-53.5 Y-37.267
G1 F2400 X-53.5 Y-45.308 E2230.42098
G0 F18000 X-54 Y-45.308
G1 F2400 X-54 Y-36.716 E2230.7782
G0 F18000 X-54.5 Y-35.834
G1 F2400 X-54.5 Y-45.308 E2231.17208
G0 F18000 X-55 Y-45.308
G1 F2400 X-54.999 Y45.309 E2234.9395
G0 F18000 X-55.499 Y45.309
G1 F2400 X-55.5 Y-45.308 E2238.70692
G0 F18000 X-56 Y-45.308
G1 F2400 X-55.999 Y45.309 E2242.47433
G0 F18000 X-56.499 Y45.309
G1 F2400 X-56.5 Y-45.308 E2246.24175
G0 F18000 X-57 Y-45.308
G1 F2400 X-56.999 Y45.309 E2250.00917
G0 F18000 X-57.499 Y45.309
G1 F2400 X-57.5 Y-45.308 E2253.77658
G0 F18000 X-58 Y-45.308
G1 F2400 X-57.999 Y45.309 E2257.544
G0 F18000 X-58.499 Y45.309
G1 F2400 X-58.5 Y-45.308 E2261.31142
G0 F18000 X-59 Y-45.308
G1 F2400 X-58.999 Y45.309 E2265.07883
G0 F18000 X-59.499 Y45.309
G1 F2400 X-59.5 Y-45.308 E2268.84625
G0 F18000 X-60 Y-45.308
G1 F2400 X-59.999 Y45.309 E2272.61367
G0 F18000 X-60.499 Y45.309
G1 F2400 X-60.5 Y-45.308 E2276.38109
G0 F18000 X-61 Y-45.308
G1 F2400 X-60.999 Y45.309 E2280.1485
G0 F18000 X-61.499 Y45.309
G1 F2400 X-61.5 Y-45.308 E2283.91592
G0 F18000 X-62 Y-45.308
G1 F2400 X-61.999 Y45.309 E2287.68334
G0 F18000 X-62.499 Y45.309
G1 F2400 X-62.5 Y-45.308 E2291.45075
G0 F18000 X-63 Y-45.308
G1 F2400 X-62.999 Y45.309 E2295.21817
G0 F18000 X-63.499 Y45.309
G1 F2400 X-63.5 Y-45.308 E2298.98559
G0 F18000 X-64 Y-45.308
G1 F2400 X-63.999 Y45.309 E2302.75301
G0 F18000 X-64.499 Y45.309
G1 F2400 X-64.5 Y-45.308 E2306.52042
G0 F18000 X-65 Y-45.308
G1 F2400 X-64.999 Y45.309 E2310.28784
G0 F18000 X-65.499 Y45.309
G1 F2400 X-65.5 Y-45.308 E2314.05526
G0 F18000 X-66 Y-45.308
G1 F2400 X-66 Y45.309 E2317.82267
G0 F18000 X-66.5 Y45.309
G1 F2400 X-66.5 Y-45.308 E2321.59009
G0 F18000 X-67 Y-45.308
G1 F2400 X-67 Y45.309 E2325.35751
G0 F18000 X-67.5 Y45.309
G1 F2400 X-67.5 Y-45.308 E2329.12492
G0 F18000 X-68 Y-45.308
G1 F2400 X-68 Y45.309 E2332.89234
G0 F18000 X-68.5 Y45.309
G1 F2400 X-68.5 Y-45.308 E2336.65976
G0 F18000 X-69 Y-45.308
G1 F2400 X-69 Y45.309 E2340.42718
G0 F18000 X-69.5 Y45.309
G1 F2400 X-69.5 Y-45.308 E2344.19459
G0 F18000 X-70 Y-45.308
G1 F2400 X-70 Y45.309 E2347.96201
G0 F18000 X-70.5 Y45.309
G1 F2400 X-70.5 Y-45.308 E2351.72943
G0 F18000 X-71 Y-45.308
G1 F2400 X-71 Y45.309 E2355.49684
G0 F18000 X-71.5 Y45.309
G1 F2400 X-71.5 Y-45.308 E2359.26426
G0 F18000 X-72 Y-45.308
G1 F2400 X-72 Y45.309 E2363.03168
G0 F18000 X-72.5 Y45.309
G1 F2400 X-72.5 Y-45.308 E2366.7991
G0 F18000 X-73 Y-45.308
G1 F2400 X-73 Y45.309 E2370.56651
G0 F18000 X-73.5 Y45.309
G1 F2400 X-73.5 Y-45.308 E2374.33393
G0 F18000 X-74 Y-45.308
G1 F2400 X-74 Y45.309 E2378.10135
G0 F18000 X-74.5 Y45.309
G1 F2400 X-74.5 Y-45.308 E2381.86876
G0 F18000 X-75 Y-45.308
G1 F2400 X-75 Y45.309 E2385.63618
G0 F18000 X-24.499 Y45.309
G1 F2400 X-24.5 Y-6.316 E2387.7825
G0 F18000 X-23.999 Y37.19
G0 X-23.999 Y37.19
G1 F2400 X-23.999 Y45.309 E2388.12005
G0 F18000 X-23.499 Y45.309
G1 F2400 X-23.499 Y37.19 E2388.4576
G0 F18000 X-22.999 Y37.19
G1 F2400 X-22.999 Y45.309 E2388.79515
G0 F18000 X-22.499 Y45.309
G1 F2400 X-22.499 Y37.19 E2389.13269
G0 F18000 X-21.999 Y37.19
G1 F2400 X-21.999 Y45.309 E2389.47024
G0 F18000 X-21.499 Y45.309
G1 F2400 X-21.499 Y37.19 E2389.80779
G0 F18000 X-20.999 Y37.19
G1 F2400 X-20.999 Y45.309 E2390.14534
G0 F18000 X-20.499 Y45.309
G1 F2400 X-20.499 Y37.19 E2390.48289
G0 F18000 X-19.999 Y37.19
G1 F2400 X-19.999 Y45.309 E2390.82044
G0 F18000 X-19.499 Y45.309
G1 F2400 X-19.499 Y37.19 E2391.15799
G0 F18000 X-18.999 Y37.19
G1 F2400 X-18.999 Y45.309 E2391.49554
G0 F18000 X-18.499 Y45.309
G1 F2400 X-18.499 Y37.19 E2391.83308
G0 F18000 X-17.999 Y37.19
G1 F2400 X-17.999 Y45.309 E2392.17063
G0 F18000 X-17.499 Y45.309
G1 F2400 X-17.499 Y37.19 E2392.50818
G0 F18000 X-16.999 Y37.19
G1 F2400 X-16.999 Y45.309 E2392.84573
G0 F18000 X-16.499 Y45.309
G1 F2400 X-16.499 Y37.19 E2393.18328
G0 F18000 X-15.999 Y37.19
G1 F2400 X-15.999 Y45.309 E2393.52083
G0 F18000 X-15.499 Y45.309
G1 F2400 X-15.499 Y37.19 E2393.85838
G0 F18000 X-14.999 Y37.19
G1 F2400 X-14.999 Y45.309 E2394.19593
G0 F18000 X-14.499 Y45.309
G1 F2400 X-14.499 Y37.19 E2394.53347
G0 F18000 X-13.999 Y37.19
G1 F2400 X-13.999 Y45.309 E2394.87102
G0 F18000 X-13.499 Y45.309
G1 F2400 X-13.499 Y37.19 E2395.20857
G0 F18000 X-12.999 Y37.19
G1 F2400 X-12.999 Y45.309 E2395.54612
G0 F18000 X-12.499 Y45.309
G1 F2400 X-12.499 Y37.19 E2395.88367
G0 F18000 X-11.999 Y37.19
G1 F2400 X-11.999 Y45.309 E2396.22122
G0 F18000 X-11.499 Y45.309
G1 F2400 X-11.499 Y37.19 E2396.55877
G0 F18000 X-10.999 Y37.19
G1 F2400 X-10.999 Y45.309 E2396.89632
G0 F18000 X-10.499 Y45.309
G1 F2400 X-10.499 Y37.19 E2397.23387
G0 F18000 X-9.999 Y37.19
G1 F2400 X-9.999 Y45.309 E2397.57141
G0 F18000 X-9.499 Y45.309
G1 F2400 X-9.499 Y37.19 E2397.90896
G0 F18000 X-8.999 Y37.19
G1 F2400 X-8.999 Y45.309 E2398.24651
G0 F18000 X-8.499 Y45.309
G1 F2400 X-8.499 Y37.19 E2398.58406
G0 F18000 X-7.999 Y37.19
G1 F2400 X-7.999 Y45.309 E2398.92161
G0 F18000 X-7.499 Y45.309
G1 F2400 X-7.499 Y37.19 E2399.25916
G0 F18000 X-6.999 Y37.19
G1 F2400 X-6.999 Y45.309 E2399.59671
G0 F18000 X-6.499 Y45.309
G1 F2400 X-6.499 Y37.19 E2399.93426
G0 F18000 X-5.999 Y37.19
G1 F2400 X-5.999 Y45.309 E2400.2718
G0 F18000 X-5.499 Y45.309
G1 F2400 X-5.499 Y37.19 E2400.60935
G0 F18000 X-4.999 Y37.19
G1 F2400 X-4.999 Y45.309 E2400.9469
G0 F18000 X-4.499 Y45.309
G1 F2400 X-4.499 Y37.19 E2401.28445
G0 F18000 X-3.999 Y37.19
G1 F2400 X-3.999 Y45.309 E2401.622
G0 F18000 X-3.499 Y45.309
G1 F2400 X-3.499 Y37.19 E2401.95955
G0 F18000 X-2.999 Y37.19
G1 F2400 X-2.999 Y45.309 E2402.2971
G0 F18000 X-2.499 Y45.309
G1 F2400 X-2.499 Y37.19 E2402.63465
G0 F18000 X-1.999 Y37.19
G1 F2400 X-1.999 Y45.309 E2402.97219
G0 F18000 X-1.499 Y45.309
G1 F2400 X-1.499 Y37.19 E2403.30974
G0 F18000 X-0.999 Y37.19
G1 F2400 X-0.999 Y45.309 E2403.64729
G0 F18000 X-0.499 Y45.309
G1 F2400 X-0.499 Y37.19 E2403.98484
G0 F18000 X0 Y37.19
G1 F2400 X0 Y45.309 E2404.32239
G0 F18000 X0.5 Y45.31
G1 F2400 X0.5 Y37.19 E2404.65998
G0 F18000 X1 Y37.19
G1 F2400 X1 Y45.31 E2404.99757
G0 F18000 X1.5 Y45.31
G1 F2400 X1.5 Y37.19 E2405.33516
G0 F18000 X2 Y37.19
G1 F2400 X2 Y45.31 E2405.67275
G0 F18000 X2.5 Y45.31
G1 F2400 X2.5 Y37.19 E2406.01034
G0 F18000 X3 Y37.19
G1 F2400 X3 Y45.31 E2406.34793
G0 F18000 X3.5 Y45.31
G1 F2400 X3.5 Y37.19 E2406.68552
G0 F18000 X4 Y37.19
G1 F2400 X4 Y45.31 E2407.02311
G0 F18000 X4.5 Y45.31
G1 F2400 X4.5 Y37.19 E2407.3607
G0 F18000 X5 Y37.19
G1 F2400 X5 Y45.31 E2407.69829
G0 F18000 X5.5 Y45.31
G1 F2400 X5.5 Y37.19 E2408.03588
G0 F18000 X6 Y37.19
G1 F2400 X6 Y45.31 E2408.37347
G0 F18000 X6.5 Y45.31
G1 F2400 X6.5 Y37.19 E2408.71106
G0 F18000 X7 Y37.19
G1 F2400 X7 Y45.31 E2409.04866
G0 F18000 X7.5 Y45.31
G1 F2400 X7.5 Y37.19 E2409.38625
G0 F18000 X8 Y37.19
G1 F2400 X8 Y45.31 E2409.72384
G0 F18000 X8.5 Y45.31
G1 F2400 X8.5 Y37.19 E2410.06143
G0 F18000 X9 Y37.19
G1 F2400 X9 Y45.31 E2410.39902
G0 F18000 X9.5 Y45.31
G1 F2400 X9.5 Y37.19 E2410.73661
G0 F18000 X10 Y37.19
G1 F2400 X10 Y45.31 E2411.0742
G0 F18000 X10.5 Y45.31
G1 F2400 X10.5 Y37.19 E2411.41179
G0 F18000 X11 Y37.19
G1 F2400 X11 Y45.31 E2411.74938
G0 F18000 X11.5 Y45.31
G1 F2400 X11.5 Y37.19 E2412.08697
G0 F18000 X12 Y37.19
G1 F2400 X12 Y45.31 E2412.42456
G0 F18000 X12.5 Y45.31
G1 F2400 X12.5 Y37.19 E2412.76215
G0 F18000 X13 Y37.19
G1 F2400 X13 Y45.31 E2413.09974
G0 F18000 X13.5 Y45.31
G1 F2400 X13.5 Y37.19 E2413.43733
G0 F18000 X14 Y37.19
G1 F2400 X14 Y45.31 E2413.77492
G0 F18000 X14.5 Y45.31
G1 F2400 X14.5 Y37.19 E2414.11251
G0 F18000 X15 Y37.19
G1 F2400 X15 Y45.31 E2414.4501
G0 F18000 X15.5 Y45.31
G1 F2400 X15.5 Y37.19 E2414.78769
G0 F18000 X16 Y37.19
G1 F2400 X16 Y45.31 E2415.12528
G0 F18000 X16.5 Y45.31
G1 F2400 X16.5 Y37.19 E2415.46287
G0 F18000 X17 Y37.19
G1 F2400 X17 Y45.31 E2415.80046
G0 F18000 X17.5 Y45.31
G1 F2400 X17.5 Y37.19 E2416.13805
G0 F18000 X18 Y37.19
G1 F2400 X18 Y45.31 E2416.47564
G0 F18000 X18.5 Y45.31
G1 F2400 X18.5 Y37.19 E2416.81323
G0 F18000 X19 Y37.19
G1 F2400 X19 Y45.31 E2417.15082
G0 F18000 X19.5 Y45.31
G1 F2400 X19.5 Y37.19 E2417.48841
G0 F18000 X20 Y37.19
G1 F2400 X20 Y45.31 E2417.826
G0 F18000 X20.5 Y45.31
G1 F2400 X20.5 Y37.19 E2418.1636
G0 F18000 X21 Y37.19
G1 F2400 X21 Y45.31 E2418.50119
G0 F18000 X21.5 Y45.31
G1 F2400 X21.5 Y37.19 E2418.83878
G0 F18000 X22 Y37.19
G1 F2400 X22 Y45.31 E2419.17637
G0 F18000 X22.5 Y45.31
G1 F2400 X22.5 Y37.19 E2419.51396
G0 F18000 X23 Y37.19
G1 F2400 X23 Y45.31 E2419.85155
G0 F18000 X23.5 Y45.31
G1 F2400 X23.5 Y37.19 E2420.18914
G0 F18000 X24 Y37.19
G1 F2400 X24 Y45.31 E2420.52673
G0 F18000 X50.5 Y45.309
G0 X50.5 Y45.309
G1 F2400 X50.5 Y28.626 E2421.22033
G0 F18000 X51 Y28.577
G1 F2400 X51 Y45.309 E2421.91596
G0 F18000 X51.5 Y45.309
G1 F2400 X51.5 Y28.502 E2422.61472
G0 F18000 X52 Y28.314
G1 F2400 X52 Y45.309 E2423.32129
G0 F18000 X52.5 Y45.309
G1 F2400 X52.5 Y28.126 E2424.03567
G0 F18000 X53 Y27.91
G1 F2400 X53 Y45.309 E2424.75904
G0 F18000 X53.5 Y45.309
G1 F2400 X53.5 Y27.552 E2425.49729
G0 F18000 X54 Y27.194
G1 F2400 X54 Y45.309 E2426.25042
G0 F18000 X54.5 Y45.309
G1 F2400 X54.5 Y26.705 E2427.02389
G0 F18000 X55 Y26.095
G1 F2400 X55 Y45.309 E2427.82271
G0 F18000 X55.5 Y45.309
G1 F2400 X55.5 Y25.253 E2428.65654
G0 F18000 X56 Y23.898
G1 F2400 X56 Y45.309 E2429.54671
G0 F18000 X56.5 Y45.309
G1 F2400 X56.499 Y-45.308 E2433.31413
G0 F18000 X55.999 Y-45.308
G1 F2400 X56 Y20.988 E2436.07039
G0 F18000 X55.5 Y19.659
G1 F2400 X55.499 Y-45.308 E2438.77141
G0 F18000 X54.999 Y-45.308
G1 F2400 X55 Y18.923 E2441.44182
G0 F18000 X54.5 Y18.239
G1 F2400 X54.5 Y-9.111 E2442.5789
G0 F18000 X54 Y-8.317
G1 F2400 X54 Y17.829 E2443.66593
G0 F18000 X53.5 Y17.418
G1 F2400 X53.5 Y-7.717 E2444.71092
G0 F18000 X53 Y-7.294
G1 F2400 X53 Y17.109 E2445.72548
G0 F18000 X52.5 Y16.882
G1 F2400 X52.5 Y-6.946 E2446.71613
G0 F18000 X52 Y-6.71
G1 F2400 X52 Y16.655 E2447.68754
G0 F18000 X51.5 Y16.515
G1 F2400 X51.5 Y-6.482 E2448.64364
G0 F18000 X51 Y-6.391
G1 F2400 X51 Y16.432 E2449.59251
G0 F18000 X50.5 Y16.35
G1 F2400 X50.5 Y-6.301 E2450.53423
G0 F18000 X50 Y-6.274
G1 F2400 X50 Y16.322 E2451.47366
G0 F18000 X49.5 Y16.371
G1 F2400 X49.5 Y-6.316 E2452.41688
G0 F18000 X49 Y-6.358
G1 F2400 X49 Y16.42 E2453.36388
G0 F18000 X48.5 Y16.495
G1 F2400 X48.5 Y-6.52 E2454.32073
G0 F18000 X48 Y-6.7
G1 F2400 X48 Y16.683 E2455.29288
G0 F18000 X47.5 Y16.871
G1 F2400 X47.5 Y-6.949 E2456.2832
G0 F18000 X47 Y-7.296
G1 F2400 X47 Y17.087 E2457.29693
G0 F18000 X46.5 Y17.445
G1 F2400 X46.5 Y-7.711 E2458.34279
G0 F18000 X46 Y-8.303
G1 F2400 X46 Y17.803 E2459.42816
G0 F18000 X45.5 Y18.292
G1 F2400 X45.5 Y-9.17 E2460.56989
G0 F18000 X45.5 Y-13.386
G0 X45.5 Y-13.386
G1 F2400 X45.499 Y-31.634 E2461.32856
G0 F18000 X45.999 Y-30.755
G1 F2400 X46 Y-14.18 E2462.01767
G0 F18000 X46.5 Y-14.78
G1 F2400 X46.499 Y-30.238 E2462.66033
G0 F18000 X46.999 Y-29.761
G1 F2400 X47 Y-15.203 E2463.26559
G0 F18000 X47.5 Y-15.551
G1 F2400 X47.5 Y-29.467 E2463.84415
G0 F18000 X48 Y-29.174
G1 F2400 X48 Y-15.786 E2464.40075
G0 F18000 X48.5 Y-16.015
G1 F2400 X48.5 Y-29.019 E2464.9414
G0 F18000 X49 Y-28.882
G1 F2400 X49 Y-16.105 E2465.4726
G0 F18000 X49.5 Y-16.196
G1 F2400 X49.5 Y-28.794 E2465.99637
G0 F18000 X50 Y-28.791
G1 F2400 X50 Y-16.223 E2466.51888
G0 F18000 X50.5 Y-16.181
G1 F2400 X50.5 Y-28.788 E2467.04302
G0 F18000 X51 Y-28.886
