; Generated with MatterSlice 1.0
; filamentDiameter = 1.75
; extrusionWidth = 0.5
; firstLayerExtrusionWidth = 0.4
; layerThickness = 0.2
; firstLayerThickness = 0.3
; automatic settings before start_gcode
G21 ; set units to millimeters
M107 ; fan off
T0 ; set the active extruder to 0
; settings from start_gcode
M104 S210
M190 S50
M109 S210
G28
; automatic settings after start_gcode
T0 ; set the active extruder to 0
G90 ; use absolute coordinates
G92 E0 ; reset the expected extruder position
M82 ; use absolute distance for extrusion
; Layer count: 34
; Layer Change GCode
; LAYER:0
G4 P0
M107
G0 F18000 X81.1 Y87.875 Z0.6
; TYPE:SKIRT
G1 Z0.3
G1 F6600 E0
G1 F720 X-81.098 Y87.875 E8.09209
G1 X-81.098 Y-87.873 E16.86019
G1 X81.1 Y-87.873 E24.95229
G1 X81.1 Y87.875 E33.72039
G0 F18000 X80.7 Y87.475
G1 F720 X-80.698 Y87.475 E41.77257
G1 X-80.698 Y-87.473 E50.50076
G1 X80.7 Y-87.473 E58.55294
G1 X80.7 Y87.475 E67.28113
G1 F6600 E60.48113
G1 Z0.6
G0 F18000 X-77.298 Y84.075
; TYPE:WALL-OUTER
G1 Z0.3
G1 F6600 E67.38113
G1 F720 X-77.298 Y84.075 E67.38113
G1 X-77.298 Y-84.073 E75.77007
G1 X77.3 Y-84.073 E83.48299
G1 X77.3 Y84.075 E91.87193
G1 X-77.298 Y84.075 E99.58486
G0 F18000 X-76.898 Y83.675
; TYPE:WALL-INNER
G1 F720 X-76.898 Y83.675 E99.58486
G1 X-76.898 Y-83.673 E107.93388
G1 X76.9 Y-83.673 E115.60689
G1 X76.9 Y83.675 E123.95592
G1 X-76.898 Y83.675 E131.62893
G0 F18000 X-70.999 Y77.475
G0 X-70.999 Y77.475
G0 X-70.699 Y77.475
; TYPE:WALL-OUTER
G1 F720 X-70.699 Y77.475 E131.62893
G1 X-2.299 Y77.475 E135.04142
G1 X-2.299 Y14.075 E138.20446
G1 X-70.699 Y14.075 E141.61695
G1 X-70.699 Y77.475 E144.77999
G0 F18000 X-71.099 Y77.875
; TYPE:WALL-INNER
G1 F720 X-71.099 Y77.875 E144.77999
G1 X-1.899 Y77.875 E148.23239
G1 X-1.899 Y13.675 E151.43534
G1 X-71.099 Y13.675 E154.88775
G1 X-71.099 Y77.875 E158.0907
G0 F18000 X-70.999 Y9.475
G0 X-70.999 Y9.475
G0 X-70.699 Y9.475
; TYPE:WALL-OUTER
G1 F720 X-70.699 Y9.475 E158.0907
G1 X-2.299 Y9.475 E161.50319
G1 X-2.299 Y-53.924 E164.66618
G1 X-70.699 Y-53.924 E168.07867
G1 X-70.699 Y9.475 E171.24165
G0 F18000 X-71.099 Y9.875
; TYPE:WALL-INNER
G1 F720 X-71.099 Y9.875 E171.24165
G1 X-1.899 Y9.875 E174.69406
G1 X-1.899 Y-54.324 E177.89696
G1 X-71.099 Y-54.324 E181.34936
G1 X-71.099 Y9.875 E184.55226
G0 F18000 X-75.884 Y-58.886
G0 X-76.04 Y-60.183
G0 X-75.998 Y-60.522
G0 X-75.999 Y-60.524
G0 X-75.999 Y-60.524
G0 X-75.699 Y-60.524
; TYPE:WALL-OUTER
G1 F720 X-75.699 Y-60.524 E184.55226
G1 X75.7 Y-60.524 E192.10559
G1 X75.7 Y-78.924 E193.02357
G1 X-75.699 Y-78.924 E200.57689
G1 X-75.699 Y-60.524 E201.49487
G0 F18000 X-76.099 Y-60.124
; TYPE:WALL-INNER
G1 F720 X-76.099 Y-60.124 E201.49487
G1 X76.1 Y-60.124 E209.08811
G1 X76.1 Y-79.324 E210.046
G1 X-76.099 Y-79.324 E217.63924
G1 X-76.099 Y-60.124 E218.59714
G1 F6600 E211.79714
G1 Z0.6
G0 F18000 X-69.514 Y-54.257
G0 X-1.958 Y-54.265
G0 X-1.949 Y5.955
G0 X1.999 Y9.475
G0 X1.999 Y9.475
G0 X2.299 Y9.475
; TYPE:WALL-OUTER
G1 Z0.3
G1 F6600 E218.69714
G1 F720 X2.299 Y9.475 E218.69714
G1 X70.7 Y9.475 E222.10968
G1 X70.7 Y-53.925 E225.27271
G1 X2.299 Y-53.924 E228.68525
G1 X2.299 Y9.475 E231.84824
G0 F18000 X1.899 Y9.875
; TYPE:WALL-INNER
G1 F720 X1.899 Y9.875 E231.84824
G1 X71.1 Y9.875 E235.30069
G1 X71.1 Y-54.325 E238.50365
G1 X1.899 Y-54.324 E241.9561
G1 X1.899 Y9.875 E245.159
G0 F18000 X1.999 Y77.475
G0 X1.999 Y77.475
G0 X2.299 Y77.475
; TYPE:WALL-OUTER
G1 F720 X2.299 Y77.475 E245.159
G1 X70.7 Y77.475 E248.57154
G1 X70.7 Y14.075 E251.73458
G1 X2.299 Y14.075 E255.14712
G1 X2.299 Y77.475 E258.31016
G0 F18000 X1.899 Y77.875
; TYPE:WALL-INNER
G1 F720 X1.899 Y77.875 E258.31016
G1 X71.1 Y77.875 E261.76261
G1 X71.1 Y13.675 E264.96556
G1 X1.899 Y13.675 E268.41801
G1 X1.899 Y77.875 E271.62096
G1 F6600 E264.82096
G1 Z0.6
G0 F18000 X1.912 Y77.85
G0 X1.958 Y77.816
G0 X1.958 Y13.734
G0 X36.642 Y13.698
G0 X38.725 Y9.85
G0 X71.041 Y9.816
G0 X70.994 Y-49.754
G0 X76.5 Y-59.924
G0 X76.5 Y-59.924
; TYPE:FILL
G1 Z0.3
G1 F6600 E271.72096
G1 F720 X76.5 Y-79.524 E272.69881
G0 F18000 X-76.498 Y-79.524
G0 X-76.498 Y-79.524
G1 F720 X-76.498 Y-59.924 E273.67421
G0 F18000 X-76.558 Y-59.599
; TYPE:BOTTOM-FILL
G1 F720 X76.56 Y-59.6 E281.3133
G0 F18000 X76.56 Y-59.2
G1 F720 X-76.558 Y-59.199 E288.95239
G0 F18000 X-76.558 Y-58.799
G1 F720 X76.56 Y-58.8 E296.59148
G0 F18000 X76.56 Y-58.4
G1 F720 X-76.558 Y-58.399 E304.23057
G0 F18000 X-76.558 Y-57.999
G1 F720 X76.56 Y-58 E311.86965
G0 F18000 X76.56 Y-57.6
G1 F720 X-76.558 Y-57.599 E319.50874
G0 F18000 X-76.558 Y-57.199
G1 F720 X76.56 Y-57.2 E327.14783
G0 F18000 X76.56 Y-56.8
G1 F720 X-76.558 Y-56.799 E334.78692
G0 F18000 X-76.558 Y-56.399
G1 F720 X76.56 Y-56.4 E342.42601
G0 F18000 X76.56 Y-56
G1 F720 X-76.558 Y-55.999 E350.06509
G0 F18000 X-76.558 Y-55.599
G1 F720 X76.56 Y-55.6 E357.70418
G0 F18000 X76.56 Y-55.2
G1 F720 X-76.558 Y-55.199 E365.34327
G0 F18000 X-76.558 Y-54.799
G1 F720 X76.56 Y-54.8 E372.98236
G0 F18000 X76.56 Y-54.4
G1 F720 X71.44 Y-54.4 E373.2378
G0 F18000 X71.44 Y-54
G1 F720 X76.56 Y-54 E373.49323
G0 F18000 X76.56 Y-53.6
G1 F720 X71.44 Y-53.6 E373.74867
G0 F18000 X71.44 Y-53.2
G1 F720 X76.56 Y-53.2 E374.00411
G0 F18000 X76.56 Y-52.8
G1 F720 X71.44 Y-52.8 E374.25955
G0 F18000 X71.44 Y-52.4
G1 F720 X76.56 Y-52.4 E374.51498
G0 F18000 X76.56 Y-52
G1 F720 X71.44 Y-52 E374.77042
G0 F18000 X71.44 Y-51.6
G1 F720 X76.56 Y-51.6 E375.02586
G0 F18000 X76.56 Y-51.2
G1 F720 X71.44 Y-51.2 E375.2813
G0 F18000 X71.44 Y-50.8
G1 F720 X76.56 Y-50.8 E375.53674
G0 F18000 X76.56 Y-50.4
G1 F720 X71.44 Y-50.4 E375.79217
G0 F18000 X71.44 Y-50
G1 F720 X76.56 Y-50 E376.04761
G0 F18000 X76.56 Y-49.6
G1 F720 X71.44 Y-49.6 E376.30305
G0 F18000 X71.44 Y-49.2
G1 F720 X76.56 Y-49.2 E376.55849
G0 F18000 X76.56 Y-48.8
G1 F720 X71.44 Y-48.8 E376.81393
G0 F18000 X71.44 Y-48.4
G1 F720 X76.56 Y-48.4 E377.06936
G0 F18000 X76.56 Y-48
G1 F720 X71.44 Y-48 E377.3248
G0 F18000 X71.44 Y-47.6
G1 F720 X76.56 Y-47.6 E377.58024
G0 F18000 X76.56 Y-47.2
G1 F720 X71.44 Y-47.2 E377.83568
G0 F18000 X71.44 Y-46.8
G1 F720 X76.56 Y-46.8 E378.09111
G0 F18000 X76.56 Y-46.4
G1 F720 X71.44 Y-46.4 E378.34655
G0 F18000 X71.44 Y-46
G1 F720 X76.56 Y-46 E378.60199
G0 F18000 X76.56 Y-45.6
G1 F720 X71.44 Y-45.6 E378.85743
G0 F18000 X71.44 Y-45.2
G1 F720 X76.56 Y-45.2 E379.11287
G0 F18000 X76.56 Y-44.8
G1 F720 X71.44 Y-44.8 E379.3683
G0 F18000 X71.44 Y-44.4
G1 F720 X76.56 Y-44.4 E379.62374
G0 F18000 X76.56 Y-44
G1 F720 X71.44 Y-44 E379.87918
G0 F18000 X71.44 Y-43.6
G1 F720 X76.56 Y-43.6 E380.13462
G0 F18000 X76.56 Y-43.2
G1 F720 X71.44 Y-43.2 E380.39005
G0 F18000 X71.44 Y-42.8
G1 F720 X76.56 Y-42.8 E380.64549
G0 F18000 X76.56 Y-42.4
G1 F720 X71.44 Y-42.4 E380.90093
G0 F18000 X71.44 Y-42
G1 F720 X76.56 Y-42 E381.15637
G0 F18000 X76.56 Y-41.6
G1 F720 X71.44 Y-41.6 E381.41181
G0 F18000 X71.44 Y-41.2
G1 F720 X76.56 Y-41.2 E381.66724
G0 F18000 X76.56 Y-40.8
G1 F720 X71.44 Y-40.8 E381.92268
G0 F18000 X71.44 Y-40.4
G1 F720 X76.56 Y-40.4 E382.17812
G0 F18000 X76.56 Y-40
G1 F720 X71.44 Y-40 E382.43356
G0 F18000 X71.44 Y-39.6
G1 F720 X76.56 Y-39.6 E382.689
G0 F18000 X76.56 Y-39.2
G1 F720 X71.44 Y-39.2 E382.94443
G0 F18000 X71.44 Y-38.8
G1 F720 X76.56 Y-38.8 E383.19987
G0 F18000 X76.56 Y-38.4
G1 F720 X71.44 Y-38.4 E383.45531
G0 F18000 X71.44 Y-38
G1 F720 X76.56 Y-38 E383.71075
G0 F18000 X76.56 Y-37.6
G1 F720 X71.44 Y-37.6 E383.96618
G0 F18000 X71.44 Y-37.2
G1 F720 X76.56 Y-37.2 E384.22162
G0 F18000 X76.56 Y-36.8
G1 F720 X71.44 Y-36.8 E384.47706
G0 F18000 X71.44 Y-36.4
G1 F720 X76.56 Y-36.4 E384.7325
G0 F18000 X76.56 Y-36
G1 F720 X71.44 Y-36 E384.98794
G0 F18000 X71.44 Y-35.6
G1 F720 X76.56 Y-35.6 E385.24337
G0 F18000 X76.56 Y-35.2
G1 F720 X71.44 Y-35.2 E385.49881
G0 F18000 X71.44 Y-34.8
G1 F720 X76.56 Y-34.8 E385.75425
G0 F18000 X76.56 Y-34.4
G1 F720 X71.44 Y-34.4 E386.00969
G0 F18000 X71.44 Y-34
G1 F720 X76.56 Y-34 E386.26513
G0 F18000 X76.56 Y-33.6
G1 F720 X71.44 Y-33.6 E386.52056
G0 F18000 X71.44 Y-33.2
G1 F720 X76.56 Y-33.2 E386.776
G0 F18000 X76.56 Y-32.8
G1 F720 X71.44 Y-32.8 E387.03144
G0 F18000 X71.44 Y-32.4
G1 F720 X76.56 Y-32.4 E387.28688
G0 F18000 X76.56 Y-32
G1 F720 X71.44 Y-32 E387.54231
G0 F18000 X71.44 Y-31.6
G1 F720 X76.56 Y-31.6 E387.79775
G0 F18000 X76.56 Y-31.2
G1 F720 X71.44 Y-31.2 E388.05319
G0 F18000 X71.44 Y-30.8
G1 F720 X76.56 Y-30.8 E388.30863
G0 F18000 X76.56 Y-30.4
G1 F720 X71.44 Y-30.4 E388.56407
G0 F18000 X71.44 Y-30
G1 F720 X76.56 Y-30 E388.8195
G0 F18000 X76.56 Y-29.6
G1 F720 X71.44 Y-29.6 E389.07494
G0 F18000 X71.44 Y-29.2
G1 F720 X76.56 Y-29.2 E389.33038
G0 F18000 X76.56 Y-28.8
G1 F720 X71.44 Y-28.8 E389.58582
G0 F18000 X71.44 Y-28.4
G1 F720 X76.56 Y-28.4 E389.84125
G0 F18000 X76.56 Y-28
G1 F720 X71.44 Y-28 E390.09669
G0 F18000 X71.44 Y-27.6
G1 F720 X76.56 Y-27.6 E390.35213
G0 F18000 X76.56 Y-27.2
G1 F720 X71.44 Y-27.2 E390.60757
G0 F18000 X71.44 Y-26.8
G1 F720 X76.56 Y-26.8 E390.86301
G0 F18000 X76.56 Y-26.4
G1 F720 X71.44 Y-26.4 E391.11844
G0 F18000 X71.44 Y-26
G1 F720 X76.56 Y-26 E391.37388
G0 F18000 X76.56 Y-25.6
G1 F720 X71.44 Y-25.6 E391.62932
G0 F18000 X71.44 Y-25.2
G1 F720 X76.56 Y-25.2 E391.88476
G0 F18000 X76.56 Y-24.8
G1 F720 X71.44 Y-24.8 E392.1402
G0 F18000 X71.44 Y-24.4
G1 F720 X76.56 Y-24.4 E392.39563
G0 F18000 X76.56 Y-24
G1 F720 X71.44 Y-24 E392.65107
G0 F18000 X71.44 Y-23.6
G1 F720 X76.56 Y-23.6 E392.90651
G0 F18000 X76.56 Y-23.2
G1 F720 X71.44 Y-23.2 E393.16195
G0 F18000 X71.44 Y-22.8
G1 F720 X76.56 Y-22.8 E393.41738
G0 F18000 X76.56 Y-22.4
G1 F720 X71.44 Y-22.4 E393.67282
G0 F18000 X71.44 Y-22
G1 F720 X76.56 Y-22 E393.92826
G0 F18000 X76.56 Y-21.6
G1 F720 X71.44 Y-21.6 E394.1837
G0 F18000 X71.44 Y-21.2
G1 F720 X76.56 Y-21.2 E394.43914
G0 F18000 X76.56 Y-20.8
G1 F720 X71.44 Y-20.8 E394.69457
G0 F18000 X71.44 Y-20.4
G1 F720 X76.56 Y-20.4 E394.95001
G0 F18000 X76.56 Y-20
G1 F720 X71.44 Y-20 E395.20545
G0 F18000 X71.44 Y-19.6
G1 F720 X76.56 Y-19.6 E395.46089
G0 F18000 X76.56 Y-19.2
G1 F720 X71.44 Y-19.2 E395.71633
G0 F18000 X71.44 Y-18.8
G1 F720 X76.56 Y-18.8 E395.97176
G0 F18000 X76.56 Y-18.4
G1 F720 X71.44 Y-18.4 E396.2272
G0 F18000 X71.44 Y-18
G1 F720 X76.56 Y-18 E396.48264
G0 F18000 X76.56 Y-17.6
G1 F720 X71.44 Y-17.6 E396.73808
G0 F18000 X71.44 Y-17.2
G1 F720 X76.56 Y-17.2 E396.99351
G0 F18000 X76.56 Y-16.8
G1 F720 X71.44 Y-16.8 E397.24895
G0 F18000 X71.44 Y-16.4
G1 F720 X76.56 Y-16.4 E397.50439
G0 F18000 X76.56 Y-16
G1 F720 X71.44 Y-16 E397.75983
G0 F18000 X71.44 Y-15.6
G1 F720 X76.56 Y-15.6 E398.01527
G0 F18000 X76.56 Y-15.2
G1 F720 X71.44 Y-15.2 E398.2707
G0 F18000 X71.44 Y-14.8
G1 F720 X76.56 Y-14.8 E398.52614
G0 F18000 X76.56 Y-14.4
G1 F720 X71.44 Y-14.4 E398.78158
G0 F18000 X71.44 Y-14
G1 F720 X76.56 Y-14 E399.03702
G0 F18000 X76.56 Y-13.6
G1 F720 X71.44 Y-13.6 E399.29245
G0 F18000 X71.44 Y-13.2
G1 F720 X76.56 Y-13.2 E399.54789
G0 F18000 X76.56 Y-12.8
G1 F720 X71.44 Y-12.8 E399.80333
G0 F18000 X71.44 Y-12.4
G1 F720 X76.56 Y-12.4 E400.05877
G0 F18000 X76.56 Y-12
G1 F720 X71.44 Y-12 E400.31421
G0 F18000 X71.44 Y-11.6
G1 F720 X76.56 Y-11.6 E400.56964
G0 F18000 X76.56 Y-11.2
G1 F720 X71.44 Y-11.2 E400.82508
G0 F18000 X71.44 Y-10.8
G1 F720 X76.56 Y-10.8 E401.08052
G0 F18000 X76.56 Y-10.4
G1 F720 X71.44 Y-10.4 E401.33596
G0 F18000 X71.44 Y-10
G1 F720 X76.56 Y-10 E401.5914
G0 F18000 X76.56 Y-9.6
G1 F720 X71.44 Y-9.6 E401.84683
G0 F18000 X71.44 Y-9.2
G1 F720 X76.56 Y-9.2 E402.10227
G0 F18000 X76.56 Y-8.8
G1 F720 X71.44 Y-8.8 E402.35771
G0 F18000 X71.44 Y-8.4
G1 F720 X76.56 Y-8.4 E402.61315
G0 F18000 X76.56 Y-8
G1 F720 X71.44 Y-8 E402.86858
G0 F18000 X71.44 Y-7.6
G1 F720 X76.56 Y-7.6 E403.12402
G0 F18000 X76.56 Y-7.2
G1 F720 X71.44 Y-7.2 E403.37946
G0 F18000 X71.44 Y-6.8
G1 F720 X76.56 Y-6.8 E403.6349
G0 F18000 X76.56 Y-6.4
G1 F720 X71.44 Y-6.4 E403.89034
G0 F18000 X71.44 Y-6
G1 F720 X76.56 Y-6 E404.14577
G0 F18000 X76.56 Y-5.6
G1 F720 X71.44 Y-5.6 E404.40121
G0 F18000 X71.44 Y-5.2
G1 F720 X76.56 Y-5.2 E404.65665
G0 F18000 X76.56 Y-4.8
G1 F720 X71.44 Y-4.8 E404.91209
G0 F18000 X71.44 Y-4.4
G1 F720 X76.56 Y-4.4 E405.16753
G0 F18000 X76.56 Y-4
G1 F720 X71.44 Y-4 E405.42296
G0 F18000 X71.44 Y-3.6
G1 F720 X76.56 Y-3.6 E405.6784
G0 F18000 X76.56 Y-3.2
G1 F720 X71.44 Y-3.2 E405.93384
G0 F18000 X71.44 Y-2.8
G1 F720 X76.56 Y-2.8 E406.18928
G0 F18000 X76.56 Y-2.4
G1 F720 X71.44 Y-2.4 E406.44471
G0 F18000 X71.44 Y-2
G1 F720 X76.56 Y-2 E406.70015
G0 F18000 X76.56 Y-1.6
G1 F720 X71.44 Y-1.6 E406.95559
G0 F18000 X71.44 Y-1.2
G1 F720 X76.56 Y-1.2 E407.21103
G0 F18000 X76.56 Y-0.8
G1 F720 X71.44 Y-0.8 E407.46647
G0 F18000 X71.44 Y-0.4
G1 F720 X76.56 Y-0.4 E407.7219
G0 F18000 X76.56 Y0
G1 F720 X71.44 Y0 E407.97734
G0 F18000 X71.44 Y0.399
G1 F720 X76.56 Y0.399 E408.23278
G0 F18000 X76.56 Y0.799
G1 F720 X71.44 Y0.799 E408.48822
G0 F18000 X71.44 Y1.199
G1 F720 X76.56 Y1.199 E408.74365
G0 F18000 X76.56 Y1.599
G1 F720 X71.44 Y1.599 E408.99909
G0 F18000 X71.44 Y1.999
G1 F720 X76.56 Y1.999 E409.25453
G0 F18000 X76.56 Y2.399
G1 F720 X71.44 Y2.399 E409.50997
G0 F18000 X71.44 Y2.799
G1 F720 X76.56 Y2.799 E409.76541
G0 F18000 X76.56 Y3.199
G1 F720 X71.44 Y3.199 E410.02084
G0 F18000 X71.44 Y3.599
G1 F720 X76.56 Y3.599 E410.27628
G0 F18000 X76.56 Y3.999
G1 F720 X71.44 Y3.999 E410.53172
G0 F18000 X71.44 Y4.399
G1 F720 X76.56 Y4.399 E410.78716
G0 F18000 X76.56 Y4.799
G1 F720 X71.44 Y4.799 E411.0426
G0 F18000 X71.44 Y5.199
G1 F720 X76.56 Y5.199 E411.29803
G0 F18000 X76.56 Y5.599
G1 F720 X71.44 Y5.599 E411.55347
G0 F18000 X71.44 Y5.999
G1 F720 X76.56 Y5.999 E411.80891
G0 F18000 X76.56 Y6.399
G1 F720 X71.44 Y6.399 E412.06435
G0 F18000 X71.44 Y6.799
G1 F720 X76.56 Y6.799 E412.31978
G0 F18000 X76.56 Y7.199
G1 F720 X71.44 Y7.199 E412.57522
G0 F18000 X71.44 Y7.599
G1 F720 X76.56 Y7.599 E412.83066
G0 F18000 X76.56 Y7.999
G1 F720 X71.44 Y7.999 E413.0861
G0 F18000 X71.44 Y8.399
G1 F720 X76.56 Y8.399 E413.34154
G0 F18000 X76.56 Y8.799
G1 F720 X71.44 Y8.799 E413.59697
G0 F18000 X71.44 Y9.199
G1 F720 X76.56 Y9.199 E413.85241
G0 F18000 X76.56 Y9.599
G1 F720 X71.44 Y9.599 E414.10785
G0 F18000 X71.44 Y9.999
G1 F720 X76.56 Y9.999 E414.36329
G0 F18000 X76.56 Y10.399
G1 F720 X-76.558 Y10.4 E422.00238
G0 F18000 X-76.558 Y10
G1 F720 X-71.439 Y10 E422.25776
G0 F18000 X-71.439 Y9.6
G1 F720 X-76.558 Y9.6 E422.51315
G0 F18000 X-76.558 Y9.2
G1 F720 X-71.439 Y9.2 E422.76854
G0 F18000 X-71.439 Y8.8
G1 F720 X-76.558 Y8.8 E423.02393
G0 F18000 X-76.558 Y8.4
G1 F720 X-71.439 Y8.4 E423.27931
G0 F18000 X-71.439 Y8
G1 F720 X-76.558 Y8 E423.5347
G0 F18000 X-76.558 Y7.6
G1 F720 X-71.439 Y7.6 E423.79009
G0 F18000 X-71.439 Y7.2
G1 F720 X-76.558 Y7.2 E424.04548
G0 F18000 X-76.558 Y6.8
G1 F720 X-71.439 Y6.8 E424.30087
G0 F18000 X-71.439 Y6.4
G1 F720 X-76.558 Y6.4 E424.55625
G0 F18000 X-76.558 Y6
G1 F720 X-71.439 Y6 E424.81164
G0 F18000 X-71.439 Y5.6
G1 F720 X-76.558 Y5.6 E425.06703
G0 F18000 X-76.558 Y5.2
G1 F720 X-71.439 Y5.2 E425.32242
G0 F18000 X-71.439 Y4.8
G1 F720 X-76.558 Y4.8 E425.57781
G0 F18000 X-76.558 Y4.4
G1 F720 X-71.439 Y4.4 E425.83319
G0 F18000 X-71.439 Y4
G1 F720 X-76.558 Y4 E426.08858
G0 F18000 X-76.558 Y3.6
G1 F720 X-71.439 Y3.6 E426.34397
G0 F18000 X-71.439 Y3.2
G1 F720 X-76.558 Y3.2 E426.59936
G0 F18000 X-76.558 Y2.8
G1 F720 X-71.439 Y2.8 E426.85475
G0 F18000 X-71.439 Y2.4
G1 F720 X-76.558 Y2.4 E427.11013
G0 F18000 X-76.558 Y2
G1 F720 X-71.439 Y2 E427.36552
G0 F18000 X-71.439 Y1.6
G1 F720 X-76.558 Y1.6 E427.62091
G0 F18000 X-76.558 Y1.2
G1 F720 X-71.439 Y1.2 E427.8763
G0 F18000 X-71.439 Y0.8
G1 F720 X-76.558 Y0.8 E428.13169
G0 F18000 X-76.558 Y0.4
G1 F720 X-71.439 Y0.4 E428.38707
G0 F18000 X-71.439 Y0
G1 F720 X-76.558 Y0 E428.64246
G0 F18000 X-76.558 Y-0.399
G1 F720 X-71.439 Y-0.399 E428.89785
G0 F18000 X-71.439 Y-0.799
G1 F720 X-76.558 Y-0.799 E429.15324
G0 F18000 X-76.558 Y-1.199
G1 F720 X-71.439 Y-1.199 E429.40863
G0 F18000 X-71.439 Y-1.599
G1 F720 X-76.558 Y-1.599 E429.66401
G0 F18000 X-76.558 Y-1.999
G1 F720 X-71.439 Y-1.999 E429.9194
G0 F18000 X-71.439 Y-2.399
G1 F720 X-76.558 Y-2.399 E430.17479
G0 F18000 X-76.558 Y-2.799
G1 F720 X-71.439 Y-2.799 E430.43018
G0 F18000 X-71.439 Y-3.199
G1 F720 X-76.558 Y-3.199 E430.68557
G0 F18000 X-76.558 Y-3.599
G1 F720 X-71.439 Y-3.599 E430.94095
G0 F18000 X-71.439 Y-3.999
G1 F720 X-76.558 Y-3.999 E431.19634
G0 F18000 X-76.558 Y-4.399
G1 F720 X-71.439 Y-4.399 E431.45173
G0 F18000 X-71.439 Y-4.799
G1 F720 X-76.558 Y-4.799 E431.70712
G0 F18000 X-76.558 Y-5.199
G1 F720 X-71.439 Y-5.199 E431.96251
G0 F18000 X-71.439 Y-5.599
G1 F720 X-76.558 Y-5.599 E432.21789
G0 F18000 X-76.558 Y-5.999
G1 F720 X-71.439 Y-5.999 E432.47328
G0 F18000 X-71.439 Y-6.399
G1 F720 X-76.558 Y-6.399 E432.72867
G0 F18000 X-76.558 Y-6.799
G1 F720 X-71.439 Y-6.799 E432.98406
G0 F18000 X-71.439 Y-7.199
G1 F720 X-76.558 Y-7.199 E433.23944
G0 F18000 X-76.558 Y-7.599
G1 F720 X-71.439 Y-7.599 E433.49483
G0 F18000 X-71.439 Y-7.999
G1 F720 X-76.558 Y-7.999 E433.75022
G0 F18000 X-76.558 Y-8.399
G1 F720 X-71.439 Y-8.399 E434.00561
G0 F18000 X-71.439 Y-8.799
G1 F720 X-76.558 Y-8.799 E434.261
G0 F18000 X-76.558 Y-9.199
G1 F720 X-71.439 Y-9.199 E434.51638
G0 F18000 X-71.439 Y-9.599
G1 F720 X-76.558 Y-9.599 E434.77177
G0 F18000 X-76.558 Y-9.999
G1 F720 X-71.439 Y-9.999 E435.02716
G0 F18000 X-71.439 Y-10.399
G1 F720 X-76.558 Y-10.399 E435.28255
G0 F18000 X-76.558 Y-10.799
G1 F720 X-71.439 Y-10.799 E435.53794
G0 F18000 X-71.439 Y-11.199
G1 F720 X-76.558 Y-11.199 E435.79332
G0 F18000 X-76.558 Y-11.599
G1 F720 X-71.439 Y-11.599 E436.04871
G0 F18000 X-71.439 Y-11.999
G1 F720 X-76.558 Y-11.999 E436.3041
G0 F18000 X-76.558 Y-12.399
G1 F720 X-71.439 Y-12.399 E436.55949
G0 F18000 X-71.439 Y-12.799
G1 F720 X-76.558 Y-12.799 E436.81488
G0 F18000 X-76.558 Y-13.199
G1 F720 X-71.439 Y-13.199 E437.07026
G0 F18000 X-71.439 Y-13.599
G1 F720 X-76.558 Y-13.599 E437.32565
G0 F18000 X-76.558 Y-13.999
G1 F720 X-71.439 Y-13.999 E437.58104
G0 F18000 X-71.439 Y-14.399
G1 F720 X-76.558 Y-14.399 E437.83643
G0 F18000 X-76.558 Y-14.799
G1 F720 X-71.439 Y-14.799 E438.09182
G0 F18000 X-71.439 Y-15.199
G1 F720 X-76.558 Y-15.199 E438.3472
G0 F18000 X-76.558 Y-15.599
G1 F720 X-71.439 Y-15.599 E438.60259
G0 F18000 X-71.439 Y-15.999
G1 F720 X-76.558 Y-15.999 E438.85798
G0 F18000 X-76.558 Y-16.399
G1 F720 X-71.439 Y-16.399 E439.11337
G0 F18000 X-71.439 Y-16.799
G1 F720 X-76.558 Y-16.799 E439.36876
G0 F18000 X-76.558 Y-17.199
G1 F720 X-71.439 Y-17.199 E439.62414
G0 F18000 X-71.439 Y-17.599
G1 F720 X-76.558 Y-17.599 E439.87953
G0 F18000 X-76.558 Y-17.999
G1 F720 X-71.439 Y-17.999 E440.13492
G0 F18000 X-71.439 Y-18.399
G1 F720 X-76.558 Y-18.399 E440.39031
G0 F18000 X-76.558 Y-18.799
G1 F720 X-71.439 Y-18.799 E440.6457
G0 F18000 X-71.439 Y-19.199
G1 F720 X-76.558 Y-19.199 E440.90108
G0 F18000 X-76.558 Y-19.599
G1 F720 X-71.439 Y-19.599 E441.15647
G0 F18000 X-71.439 Y-19.999
G1 F720 X-76.558 Y-19.999 E441.41186
G0 F18000 X-76.558 Y-20.399
G1 F720 X-71.439 Y-20.399 E441.66725
G0 F18000 X-71.439 Y-20.799
G1 F720 X-76.558 Y-20.799 E441.92264
G0 F18000 X-76.558 Y-21.199
G1 F720 X-71.439 Y-21.199 E442.17802
G0 F18000 X-71.439 Y-21.599
G1 F720 X-76.558 Y-21.599 E442.43341
G0 F18000 X-76.558 Y-21.999
G1 F720 X-71.439 Y-21.999 E442.6888
G0 F18000 X-71.439 Y-22.399
G1 F720 X-76.558 Y-22.399 E442.94419
G0 F18000 X-76.558 Y-22.799
G1 F720 X-71.439 Y-22.799 E443.19957
G0 F18000 X-71.439 Y-23.199
G1 F720 X-76.558 Y-23.199 E443.45496
G0 F18000 X-76.558 Y-23.599
G1 F720 X-71.439 Y-23.599 E443.71035
G0 F18000 X-71.439 Y-23.999
G1 F720 X-76.558 Y-23.999 E443.96574
G0 F18000 X-76.558 Y-24.399
G1 F720 X-71.439 Y-24.399 E444.22113
G0 F18000 X-71.439 Y-24.799
G1 F720 X-76.558 Y-24.799 E444.47651
G0 F18000 X-76.558 Y-25.199
G1 F720 X-71.439 Y-25.199 E444.7319
G0 F18000 X-71.439 Y-25.599
G1 F720 X-76.558 Y-25.599 E444.98729
G0 F18000 X-76.558 Y-25.999
G1 F720 X-71.439 Y-25.999 E445.24268
G0 F18000 X-71.439 Y-26.399
G1 F720 X-76.558 Y-26.399 E445.49807
G0 F18000 X-76.558 Y-26.799
G1 F720 X-71.439 Y-26.799 E445.75345
G0 F18000 X-71.439 Y-27.199
G1 F720 X-76.558 Y-27.199 E446.00884
G0 F18000 X-76.558 Y-27.599
G1 F720 X-71.439 Y-27.599 E446.26423
G0 F18000 X-71.439 Y-27.999
G1 F720 X-76.558 Y-27.999 E446.51962
G0 F18000 X-76.558 Y-28.399
G1 F720 X-71.439 Y-28.399 E446.77501
G0 F18000 X-71.439 Y-28.799
G1 F720 X-76.558 Y-28.799 E447.03039
G0 F18000 X-76.558 Y-29.199
G1 F720 X-71.439 Y-29.199 E447.28578
G0 F18000 X-71.439 Y-29.599
G1 F720 X-76.558 Y-29.599 E447.54117
G0 F18000 X-76.558 Y-29.999
G1 F720 X-71.439 Y-29.999 E447.79656
G0 F18000 X-71.439 Y-30.399
G1 F720 X-76.558 Y-30.399 E448.05195
G0 F18000 X-76.558 Y-30.799
G1 F720 X-71.439 Y-30.799 E448.30733
G0 F18000 X-71.439 Y-31.199
G1 F720 X-76.558 Y-31.199 E448.56272
G0 F18000 X-76.558 Y-31.599
G1 F720 X-71.439 Y-31.599 E448.81811
G0 F18000 X-71.439 Y-31.999
G1 F720 X-76.558 Y-31.999 E449.0735
G0 F18000 X-76.558 Y-32.399
G1 F720 X-71.439 Y-32.399 E449.32889
G0 F18000 X-71.439 Y-32.799
G1 F720 X-76.558 Y-32.799 E449.58427
G0 F18000 X-76.558 Y-33.199
G1 F720 X-71.439 Y-33.199 E449.83966
G0 F18000 X-71.439 Y-33.599
G1 F720 X-76.558 Y-33.599 E450.09505
G0 F18000 X-76.558 Y-33.999
G1 F720 X-71.439 Y-33.999 E450.35044
G0 F18000 X-71.439 Y-34.399
G1 F720 X-76.558 Y-34.399 E450.60583
G0 F18000 X-76.558 Y-34.799
G1 F720 X-71.439 Y-34.799 E450.86121
G0 F18000 X-71.439 Y-35.199
G1 F720 X-76.558 Y-35.199 E451.1166
G0 F18000 X-76.558 Y-35.599
G1 F720 X-71.439 Y-35.599 E451.37199
G0 F18000 X-71.439 Y-35.999
G1 F720 X-76.558 Y-35.999 E451.62738
G0 F18000 X-76.558 Y-36.399
G1 F720 X-71.439 Y-36.399 E451.88277
G0 F18000 X-71.439 Y-36.799
G1 F720 X-76.558 Y-36.799 E452.13815
G0 F18000 X-76.558 Y-37.199
G1 F720 X-71.439 Y-37.199 E452.39354
G0 F18000 X-71.439 Y-37.599
G1 F720 X-76.558 Y-37.599 E452.64893
G0 F18000 X-76.558 Y-37.999
G1 F720 X-71.439 Y-37.999 E452.90432
G0 F18000 X-71.439 Y-38.399
G1 F720 X-76.558 Y-38.399 E453.1597
G0 F18000 X-76.558 Y-38.799
G1 F720 X-71.439 Y-38.799 E453.41509
G0 F18000 X-71.439 Y-39.199
G1 F720 X-76.558 Y-39.199 E453.67048
G0 F18000 X-76.558 Y-39.599
G1 F720 X-71.439 Y-39.599 E453.92587
G0 F18000 X-71.439 Y-39.999
G1 F720 X-76.558 Y-39.999 E454.18126
G0 F18000 X-76.558 Y-40.399
G1 F720 X-71.439 Y-40.399 E454.43664
G0 F18000 X-71.439 Y-40.799
G1 F720 X-76.558 Y-40.799 E454.69203
G0 F18000 X-76.558 Y-41.199
G1 F720 X-71.439 Y-41.199 E454.94742
G0 F18000 X-71.439 Y-41.599
G1 F720 X-76.558 Y-41.599 E455.20281
G0 F18000 X-76.558 Y-41.999
G1 F720 X-71.439 Y-41.999 E455.4582
G0 F18000 X-71.439 Y-42.399
G1 F720 X-76.558 Y-42.399 E455.71358
G0 F18000 X-76.558 Y-42.799
G1 F720 X-71.439 Y-42.799 E455.96897
G0 F18000 X-71.439 Y-43.199
G1 F720 X-76.558 Y-43.199 E456.22436
G0 F18000 X-76.558 Y-43.599
G1 F720 X-71.439 Y-43.599 E456.47975
G0 F18000 X-71.439 Y-43.999
G1 F720 X-76.558 Y-43.999 E456.73514
G0 F18000 X-76.558 Y-44.399
G1 F720 X-71.439 Y-44.399 E456.99052
G0 F18000 X-71.439 Y-44.799
G1 F720 X-76.558 Y-44.799 E457.24591
G0 F18000 X-76.558 Y-45.199
G1 F720 X-71.439 Y-45.199 E457.5013
G0 F18000 X-71.439 Y-45.599
G1 F720 X-76.558 Y-45.599 E457.75669
G0 F18000 X-76.558 Y-45.999
G1 F720 X-71.439 Y-45.999 E458.01208
G0 F18000 X-71.439 Y-46.399
G1 F720 X-76.558 Y-46.399 E458.26746
G0 F18000 X-76.558 Y-46.799
G1 F720 X-71.439 Y-46.799 E458.52285
G0 F18000 X-71.439 Y-47.199
G1 F720 X-76.558 Y-47.199 E458.77824
G0 F18000 X-76.558 Y-47.599
G1 F720 X-71.439 Y-47.599 E459.03363
G0 F18000 X-71.439 Y-47.999
G1 F720 X-76.558 Y-47.999 E459.28902
G0 F18000 X-76.558 Y-48.399
G1 F720 X-71.439 Y-48.399 E459.5444
G0 F18000 X-71.439 Y-48.799
G1 F720 X-76.558 Y-48.799 E459.79979
G0 F18000 X-76.558 Y-49.199
G1 F720 X-71.439 Y-49.199 E460.05518
G0 F18000 X-71.439 Y-49.599
G1 F720 X-76.558 Y-49.599 E460.31057
G0 F18000 X-76.558 Y-49.999
G1 F720 X-71.439 Y-49.999 E460.56596
G0 F18000 X-71.439 Y-50.399
G1 F720 X-76.558 Y-50.399 E460.82134
G0 F18000 X-76.558 Y-50.799
G1 F720 X-71.439 Y-50.799 E461.07673
G0 F18000 X-71.439 Y-51.199
G1 F720 X-76.558 Y-51.199 E461.33212
G0 F18000 X-76.558 Y-51.599
G1 F720 X-71.439 Y-51.599 E461.58751
G0 F18000 X-71.439 Y-51.999
G1 F720 X-76.558 Y-51.999 E461.84289
G0 F18000 X-76.558 Y-52.399
G1 F720 X-71.439 Y-52.399 E462.09828
G0 F18000 X-71.439 Y-52.799
G1 F720 X-76.558 Y-52.799 E462.35367
G0 F18000 X-76.558 Y-53.199
G1 F720 X-71.439 Y-53.199 E462.60906
G0 F18000 X-71.439 Y-53.599
G1 F720 X-76.558 Y-53.599 E462.86445
G0 F18000 X-76.558 Y-53.999
G1 F720 X-71.439 Y-53.999 E463.11983
G0 F18000 X-71.439 Y-54.399
G1 F720 X-76.558 Y-54.399 E463.37522
G0 F18000 X-76.558 Y-80
G0 X-76.558 Y-80
G1 F720 X76.56 Y-80 E471.01431
G0 F18000 X76.56 Y-80.4
G1 F720 X-76.558 Y-80.4 E478.6534
G0 F18000 X-76.558 Y-80.8
G1 F720 X76.56 Y-80.8 E486.29249
G0 F18000 X76.56 Y-81.2
G1 F720 X-76.558 Y-81.2 E493.93157
G0 F18000 X-76.558 Y-81.6
G1 F720 X76.56 Y-81.6 E501.57066
G0 F18000 X76.56 Y-82
G1 F720 X-76.558 Y-82 E509.20975
G0 F18000 X-76.558 Y-82.4
G1 F720 X76.56 Y-82.4 E516.84884
G0 F18000 X76.56 Y-82.8
G1 F720 X-76.558 Y-82.8 E524.48793
G0 F18000 X-76.558 Y-83.2
G1 F720 X76.56 Y-83.2 E532.12701
G1 F6600 E525.32701
G1 Z0.6
G0 F18000 X66.13 Y-79.195
G0 X76.041 Y-79.265
G0 X76.041 Y-60.183
G0 X16.797 Y-60.251
G0 X1.558 Y-54.4
G0 X1.558 Y-54.4
G1 Z0.3
G1 F6600 E532.22701
G1 F720 X-1.558 Y-54.4 E532.38247
G0 F18000 X-1.558 Y-54
G1 F720 X1.558 Y-54 E532.53793
G0 F18000 X1.558 Y-53.6
G1 F720 X-1.558 Y-53.6 E532.69339
G0 F18000 X-1.558 Y-53.2
G1 F720 X1.558 Y-53.2 E532.84885
G0 F18000 X1.558 Y-52.8
G1 F720 X-1.558 Y-52.8 E533.0043
G0 F18000 X-1.558 Y-52.4
G1 F720 X1.558 Y-52.4 E533.15976
G0 F18000 X1.558 Y-52
G1 F720 X-1.558 Y-52 E533.31522
G0 F18000 X-1.558 Y-51.6
G1 F720 X1.558 Y-51.6 E533.47068
G0 F18000 X1.558 Y-51.2
G1 F720 X-1.558 Y-51.2 E533.62614
G0 F18000 X-1.558 Y-50.8
G1 F720 X1.558 Y-50.8 E533.78159
G0 F18000 X1.558 Y-50.4
G1 F720 X-1.558 Y-50.4 E533.93705
G0 F18000 X-1.558 Y-50
G1 F720 X1.558 Y-50 E534.09251
G0 F18000 X1.558 Y-49.6
G1 F720 X-1.558 Y-49.6 E534.24797
G0 F18000 X-1.558 Y-49.2
G1 F720 X1.558 Y-49.2 E534.40343
G0 F18000 X1.558 Y-48.8
G1 F720 X-1.558 Y-48.8 E534.55888
G0 F18000 X-1.558 Y-48.4
G1 F720 X1.558 Y-48.4 E534.71434
G0 F18000 X1.558 Y-48
G1 F720 X-1.558 Y-48 E534.8698
G0 F18000 X-1.558 Y-47.6
G1 F720 X1.558 Y-47.6 E535.02526
G0 F18000 X1.558 Y-47.2
G1 F720 X-1.558 Y-47.2 E535.18071
G0 F18000 X-1.558 Y-46.8
G1 F720 X1.558 Y-46.8 E535.33617
G0 F18000 X1.558 Y-46.4
G1 F720 X-1.558 Y-46.4 E535.49163
G0 F18000 X-1.558 Y-46
G1 F720 X1.558 Y-46 E535.64709
G0 F18000 X1.558 Y-45.6
G1 F720 X-1.558 Y-45.6 E535.80255
G0 F18000 X-1.558 Y-45.2
G1 F720 X1.558 Y-45.2 E535.958
G0 F18000 X1.558 Y-44.8
G1 F720 X-1.558 Y-44.8 E536.11346
G0 F18000 X-1.558 Y-44.4
G1 F720 X1.558 Y-44.4 E536.26892
G0 F18000 X1.558 Y-44
G1 F720 X-1.558 Y-44 E536.42438
G0 F18000 X-1.558 Y-43.6
G1 F720 X1.558 Y-43.6 E536.57984
G0 F18000 X1.558 Y-43.2
G1 F720 X-1.558 Y-43.2 E536.73529
G0 F18000 X-1.558 Y-42.8
G1 F720 X1.558 Y-42.8 E536.89075
G0 F18000 X1.558 Y-42.4
G1 F720 X-1.558 Y-42.4 E537.04621
G0 F18000 X-1.558 Y-42
G1 F720 X1.558 Y-42 E537.20167
G0 F18000 X1.558 Y-41.6
G1 F720 X-1.558 Y-41.6 E537.35712
G0 F18000 X-1.558 Y-41.2
G1 F720 X1.558 Y-41.2 E537.51258
G0 F18000 X1.558 Y-40.8
G1 F720 X-1.558 Y-40.8 E537.66804
G0 F18000 X-1.558 Y-40.4
G1 F720 X1.558 Y-40.4 E537.8235
G0 F18000 X1.558 Y-40
G1 F720 X-1.558 Y-40 E537.97896
G0 F18000 X-1.558 Y-39.6
G1 F720 X1.558 Y-39.6 E538.13441
G0 F18000 X1.558 Y-39.2
G1 F720 X-1.558 Y-39.2 E538.28987
G0 F18000 X-1.558 Y-38.8
G1 F720 X1.558 Y-38.8 E538.44533
G0 F18000 X1.558 Y-38.4
G1 F720 X-1.558 Y-38.4 E538.60079
G0 F18000 X-1.558 Y-38
G1 F720 X1.558 Y-38 E538.75625
G0 F18000 X1.558 Y-37.6
G1 F720 X-1.558 Y-37.6 E538.9117
G0 F18000 X-1.558 Y-37.2
G1 F720 X1.558 Y-37.2 E539.06716
G0 F18000 X1.558 Y-36.8
G1 F720 X-1.558 Y-36.8 E539.22262
G0 F18000 X-1.558 Y-36.4
G1 F720 X1.558 Y-36.4 E539.37808
G0 F18000 X1.558 Y-36
G1 F720 X-1.558 Y-36 E539.53353
G0 F18000 X-1.558 Y-35.6
G1 F720 X1.558 Y-35.6 E539.68899
G0 F18000 X1.558 Y-35.2
G1 F720 X-1.558 Y-35.2 E539.84445
G0 F18000 X-1.558 Y-34.8
G1 F720 X1.558 Y-34.8 E539.99991
G0 F18000 X1.558 Y-34.4
G1 F720 X-1.558 Y-34.4 E540.15537
G0 F18000 X-1.558 Y-34
G1 F720 X1.558 Y-34 E540.31082
G0 F18000 X1.558 Y-33.6
G1 F720 X-1.558 Y-33.6 E540.46628
G0 F18000 X-1.558 Y-33.2
G1 F720 X1.558 Y-33.2 E540.62174
G0 F18000 X1.558 Y-32.8
G1 F720 X-1.558 Y-32.8 E540.7772
G0 F18000 X-1.558 Y-32.4
G1 F720 X1.558 Y-32.4 E540.93266
G0 F18000 X1.558 Y-32
G1 F720 X-1.558 Y-32 E541.08811
G0 F18000 X-1.558 Y-31.6
G1 F720 X1.558 Y-31.6 E541.24357
G0 F18000 X1.558 Y-31.2
G1 F720 X-1.558 Y-31.2 E541.39903
G0 F18000 X-1.558 Y-30.8
G1 F720 X1.558 Y-30.8 E541.55449
G0 F18000 X1.558 Y-30.4
G1 F720 X-1.558 Y-30.4 E541.70995
G0 F18000 X-1.558 Y-30
G1 F720 X1.558 Y-30 E541.8654
G0 F18000 X1.558 Y-29.6
G1 F720 X-1.558 Y-29.6 E542.02086
G0 F18000 X-1.558 Y-29.2
G1 F720 X1.558 Y-29.2 E542.17632
G0 F18000 X1.558 Y-28.8
G1 F720 X-1.558 Y-28.8 E542.33178
G0 F18000 X-1.558 Y-28.4
G1 F720 X1.558 Y-28.4 E542.48723
G0 F18000 X1.558 Y-28
G1 F720 X-1.558 Y-28 E542.64269
G0 F18000 X-1.558 Y-27.6
G1 F720 X1.558 Y-27.6 E542.79815
G0 F18000 X1.558 Y-27.2
G1 F720 X-1.558 Y-27.2 E542.95361
G0 F18000 X-1.558 Y-26.8
G1 F720 X1.558 Y-26.8 E543.10907
G0 F18000 X1.558 Y-26.4
G1 F720 X-1.558 Y-26.4 E543.26452
G0 F18000 X-1.558 Y-26
G1 F720 X1.558 Y-26 E543.41998
G0 F18000 X1.558 Y-25.6
G1 F720 X-1.558 Y-25.6 E543.57544
G0 F18000 X-1.558 Y-25.2
G1 F720 X1.558 Y-25.2 E543.7309
G0 F18000 X1.558 Y-24.8
G1 F720 X-1.558 Y-24.8 E543.88636
G0 F18000 X-1.558 Y-24.4
G1 F720 X1.558 Y-24.4 E544.04181
G0 F18000 X1.558 Y-24
G1 F720 X-1.558 Y-24 E544.19727
G0 F18000 X-1.558 Y-23.6
G1 F720 X1.558 Y-23.6 E544.35273
G0 F18000 X1.558 Y-23.2
G1 F720 X-1.558 Y-23.2 E544.50819
G0 F18000 X-1.558 Y-22.8
G1 F720 X1.558 Y-22.8 E544.66364
G0 F18000 X1.558 Y-22.4
G1 F720 X-1.558 Y-22.4 E544.8191
G0 F18000 X-1.559 Y-22
G1 F720 X1.557 Y-22 E544.97456
G0 F18000 X1.557 Y-21.6
G1 F720 X-1.559 Y-21.6 E545.13002
G0 F18000 X-1.559 Y-21.2
G1 F720 X1.557 Y-21.2 E545.28548
G0 F18000 X1.557 Y-20.8
G1 F720 X-1.559 Y-20.8 E545.44093
G0 F18000 X-1.559 Y-20.4
G1 F720 X1.557 Y-20.4 E545.59639
G0 F18000 X1.557 Y-20
G1 F720 X-1.559 Y-20 E545.75185
G0 F18000 X-1.559 Y-19.6
G1 F720 X1.557 Y-19.6 E545.90731
G0 F18000 X1.557 Y-19.2
G1 F720 X-1.559 Y-19.2 E546.06277
G0 F18000 X-1.559 Y-18.8
G1 F720 X1.557 Y-18.8 E546.21822
G0 F18000 X1.557 Y-18.4
G1 F720 X-1.559 Y-18.4 E546.37368
G0 F18000 X-1.559 Y-18
G1 F720 X1.557 Y-18 E546.52914
G0 F18000 X1.557 Y-17.6
G1 F720 X-1.559 Y-17.6 E546.6846
G0 F18000 X-1.559 Y-17.2
G1 F720 X1.557 Y-17.2 E546.84005
G0 F18000 X1.557 Y-16.8
G1 F720 X-1.559 Y-16.8 E546.99551
G0 F18000 X-1.559 Y-16.4
G1 F720 X1.557 Y-16.4 E547.15097
G0 F18000 X1.557 Y-16
G1 F720 X-1.559 Y-16 E547.30643
G0 F18000 X-1.559 Y-15.6
G1 F720 X1.557 Y-15.6 E547.46189
G0 F18000 X1.557 Y-15.2
G1 F720 X-1.559 Y-15.2 E547.61734
G0 F18000 X-1.559 Y-14.8
G1 F720 X1.557 Y-14.8 E547.7728
G0 F18000 X1.557 Y-14.4
G1 F720 X-1.559 Y-14.4 E547.92826
G0 F18000 X-1.559 Y-14
G1 F720 X1.557 Y-14 E548.08372
G0 F18000 X1.557 Y-13.6
G1 F720 X-1.559 Y-13.6 E548.23918
G0 F18000 X-1.559 Y-13.2
G1 F720 X1.557 Y-13.2 E548.39463
G0 F18000 X1.557 Y-12.8
G1 F720 X-1.559 Y-12.8 E548.55009
G0 F18000 X-1.559 Y-12.4
G1 F720 X1.557 Y-12.4 E548.70555
G0 F18000 X1.557 Y-12
G1 F720 X-1.559 Y-12 E548.86101
G0 F18000 X-1.559 Y-11.6
G1 F720 X1.557 Y-11.6 E549.01647
G0 F18000 X1.557 Y-11.2
G1 F720 X-1.559 Y-11.2 E549.17192
G0 F18000 X-1.559 Y-10.8
G1 F720 X1.557 Y-10.8 E549.32738
G0 F18000 X1.557 Y-10.4
G1 F720 X-1.559 Y-10.4 E549.48284
G0 F18000 X-1.559 Y-10
G1 F720 X1.557 Y-10 E549.6383
G0 F18000 X1.557 Y-9.6
G1 F720 X-1.559 Y-9.6 E549.79375
G0 F18000 X-1.559 Y-9.2
G1 F720 X1.557 Y-9.2 E549.94921
G0 F18000 X1.557 Y-8.8
G1 F720 X-1.559 Y-8.8 E550.10467
G0 F18000 X-1.559 Y-8.4
G1 F720 X1.557 Y-8.4 E550.26013
G0 F18000 X1.557 Y-8
G1 F720 X-1.559 Y-8 E550.41559
G0 F18000 X-1.559 Y-7.6
G1 F720 X1.557 Y-7.6 E550.57104
G0 F18000 X1.557 Y-7.2
G1 F720 X-1.559 Y-7.2 E550.7265
G0 F18000 X-1.559 Y-6.8
G1 F720 X1.557 Y-6.8 E550.88196
G0 F18000 X1.557 Y-6.4
G1 F720 X-1.559 Y-6.4 E551.03742
G0 F18000 X-1.559 Y-6
G1 F720 X1.557 Y-6 E551.19288
G0 F18000 X1.557 Y-5.6
G1 F720 X-1.559 Y-5.6 E551.34833
G0 F18000 X-1.559 Y-5.2
G1 F720 X1.557 Y-5.2 E551.50379
G0 F18000 X1.557 Y-4.8
G1 F720 X-1.559 Y-4.8 E551.65925
G0 F18000 X-1.559 Y-4.4
G1 F720 X1.557 Y-4.4 E551.81471
G0 F18000 X1.557 Y-4
G1 F720 X-1.559 Y-4 E551.97016
G0 F18000 X-1.559 Y-3.6
G1 F720 X1.557 Y-3.6 E552.12562
G0 F18000 X1.557 Y-3.2
G1 F720 X-1.559 Y-3.2 E552.28108
G0 F18000 X-1.559 Y-2.8
G1 F720 X1.557 Y-2.8 E552.43654
G0 F18000 X1.557 Y-2.4
G1 F720 X-1.559 Y-2.4 E552.592
G0 F18000 X-1.559 Y-2
G1 F720 X1.557 Y-2 E552.74745
G0 F18000 X1.558 Y-1.6
G1 F720 X-1.559 Y-1.6 E552.90296
G0 F18000 X-1.559 Y-1.2
G1 F720 X1.558 Y-1.2 E553.05847
G0 F18000 X1.558 Y-0.8
G1 F720 X-1.559 Y-0.799 E553.21398
G0 F18000 X-1.559 Y-0.399
G1 F720 X1.558 Y-0.4 E553.36949
G0 F18000 X1.558 Y0
G1 F720 X-1.559 Y0 E553.52499
G0 F18000 X-1.559 Y0.4
G1 F720 X1.558 Y0.399 E553.6805
G0 F18000 X1.558 Y0.799
G1 F720 X-1.559 Y0.8 E553.83601
G0 F18000 X-1.559 Y1.2
G1 F720 X1.558 Y1.2 E553.99152
G0 F18000 X1.558 Y1.6
G1 F720 X-1.559 Y1.6 E554.14702
G0 F18000 X-1.558 Y2
G1 F720 X1.558 Y2 E554.30248
G0 F18000 X1.558 Y2.4
G1 F720 X-1.558 Y2.4 E554.45794
G0 F18000 X-1.558 Y2.8
G1 F720 X1.558 Y2.8 E554.6134
G0 F18000 X1.558 Y3.2
G1 F720 X-1.558 Y3.2 E554.76886
G0 F18000 X-1.558 Y3.6
G1 F720 X1.558 Y3.6 E554.92431
G0 F18000 X1.558 Y4
G1 F720 X-1.558 Y4 E555.07977
G0 F18000 X-1.558 Y4.4
G1 F720 X1.558 Y4.4 E555.23523
G0 F18000 X1.558 Y4.8
G1 F720 X-1.558 Y4.8 E555.39069
G0 F18000 X-1.558 Y5.2
G1 F720 X1.558 Y5.2 E555.54614
G0 F18000 X1.558 Y5.6
G1 F720 X-1.558 Y5.6 E555.7016
G0 F18000 X-1.558 Y6
G1 F720 X1.558 Y6 E555.85706
G0 F18000 X1.558 Y6.4
G1 F720 X-1.558 Y6.4 E556.01252
G0 F18000 X-1.558 Y6.8
G1 F720 X1.558 Y6.8 E556.16798
G0 F18000 X1.558 Y7.2
G1 F720 X-1.558 Y7.2 E556.32343
G0 F18000 X-1.558 Y7.6
G1 F720 X1.558 Y7.6 E556.47889
G0 F18000 X1.558 Y8
G1 F720 X-1.558 Y8 E556.63435
G0 F18000 X-1.558 Y8.4
G1 F720 X1.558 Y8.4 E556.78981
G0 F18000 X1.558 Y8.8
G1 F720 X-1.558 Y8.8 E556.94527
G0 F18000 X-1.558 Y9.2
G1 F720 X1.558 Y9.2 E557.10072
G0 F18000 X1.558 Y9.6
G1 F720 X-1.558 Y9.6 E557.25618
G0 F18000 X-1.558 Y10
G1 F720 X1.558 Y10 E557.41164
G0 F18000 X1.558 Y13.6
G1 F720 X-1.558 Y13.6 E557.5671
G0 F18000 X-1.558 Y14
G1 F720 X1.558 Y14 E557.72255
G0 F18000 X1.558 Y14.4
G1 F720 X-1.558 Y14.4 E557.87801
G0 F18000 X-1.558 Y14.8
G1 F720 X1.558 Y14.8 E558.03347
G0 F18000 X1.558 Y15.2
G1 F720 X-1.558 Y15.2 E558.18893
G0 F18000 X-1.558 Y15.6
G1 F720 X1.558 Y15.6 E558.34439
G0 F18000 X1.558 Y16
G1 F720 X-1.558 Y16 E558.49984
G0 F18000 X-1.558 Y16.4
G1 F720 X1.558 Y16.4 E558.6553
G0 F18000 X1.558 Y16.8
G1 F720 X-1.558 Y16.8 E558.81076
G0 F18000 X-1.558 Y17.2
G1 F720 X1.558 Y17.2 E558.96622
G0 F18000 X1.558 Y17.6
G1 F720 X-1.558 Y17.6 E559.12168
G0 F18000 X-1.558 Y18
G1 F720 X1.558 Y18 E559.27713
G0 F18000 X1.558 Y18.4
G1 F720 X-1.558 Y18.4 E559.43259
G0 F18000 X-1.558 Y18.8
G1 F720 X1.558 Y18.8 E559.58805
G0 F18000 X1.558 Y19.2
G1 F720 X-1.558 Y19.2 E559.74351
G0 F18000 X-1.558 Y19.6
G1 F720 X1.558 Y19.6 E559.89897
G0 F18000 X1.558 Y20
G1 F720 X-1.558 Y20 E560.05442
G0 F18000 X-1.558 Y20.4
G1 F720 X1.558 Y20.4 E560.20988
G0 F18000 X1.558 Y20.8
G1 F720 X-1.558 Y20.8 E560.36534
G0 F18000 X-1.558 Y21.2
G1 F720 X1.558 Y21.2 E560.5208
G0 F18000 X1.558 Y21.6
G1 F720 X-1.558 Y21.6 E560.67625
G0 F18000 X-1.558 Y22
G1 F720 X1.558 Y22 E560.83171
G0 F18000 X1.558 Y22.4
G1 F720 X-1.558 Y22.4 E560.98717
G0 F18000 X-1.558 Y22.8
G1 F720 X1.558 Y22.8 E561.14263
G0 F18000 X1.558 Y23.2
G1 F720 X-1.558 Y23.2 E561.29809
G0 F18000 X-1.558 Y23.6
G1 F720 X1.558 Y23.6 E561.45354
G0 F18000 X1.558 Y24
G1 F720 X-1.558 Y24 E561.609
G0 F18000 X-1.558 Y24.4
G1 F720 X1.558 Y24.4 E561.76446
G0 F18000 X1.558 Y24.8
G1 F720 X-1.558 Y24.8 E561.91992
G0 F18000 X-1.558 Y25.2
G1 F720 X1.558 Y25.2 E562.07538
G0 F18000 X1.558 Y25.6
G1 F720 X-1.558 Y25.6 E562.23083
G0 F18000 X-1.558 Y26
G1 F720 X1.558 Y26 E562.38629
G0 F18000 X1.558 Y26.4
G1 F720 X-1.558 Y26.4 E562.54175
G0 F18000 X-1.558 Y26.8
G1 F720 X1.558 Y26.8 E562.69721
G0 F18000 X1.558 Y27.2
G1 F720 X-1.558 Y27.2 E562.85266
G0 F18000 X-1.558 Y27.6
G1 F720 X1.558 Y27.6 E563.00812
G0 F18000 X1.558 Y28
G1 F720 X-1.558 Y28 E563.16358
G0 F18000 X-1.558 Y28.4
G1 F720 X1.558 Y28.4 E563.31904
G0 F18000 X1.558 Y28.8
G1 F720 X-1.558 Y28.8 E563.4745
G0 F18000 X-1.558 Y29.2
G1 F720 X1.558 Y29.2 E563.62995
G0 F18000 X1.558 Y29.6
G1 F720 X-1.558 Y29.6 E563.78541
G0 F18000 X-1.558 Y30
G1 F720 X1.558 Y30 E563.94087
G0 F18000 X1.558 Y30.4
G1 F720 X-1.558 Y30.4 E564.09633
G0 F18000 X-1.558 Y30.8
G1 F720 X1.558 Y30.8 E564.25179
G0 F18000 X1.558 Y31.2
G1 F720 X-1.558 Y31.2 E564.40724
G0 F18000 X-1.558 Y31.6
G1 F720 X1.558 Y31.6 E564.5627
G0 F18000 X1.558 Y32
G1 F720 X-1.558 Y32 E564.71816
G0 F18000 X-1.558 Y32.4
G1 F720 X1.558 Y32.4 E564.87362
G0 F18000 X1.558 Y32.8
G1 F720 X-1.558 Y32.8 E565.02907
G0 F18000 X-1.558 Y33.2
G1 F720 X1.558 Y33.2 E565.18453
G0 F18000 X1.558 Y33.6
G1 F720 X-1.558 Y33.6 E565.33999
G0 F18000 X-1.558 Y34
G1 F720 X1.558 Y34 E565.49545
G0 F18000 X1.558 Y34.4
G1 F720 X-1.558 Y34.4 E565.65091
G0 F18000 X-1.558 Y34.8
G1 F720 X1.558 Y34.8 E565.80636
G0 F18000 X1.558 Y35.2
G1 F720 X-1.558 Y35.2 E565.96182
G0 F18000 X-1.558 Y35.6
G1 F720 X1.558 Y35.6 E566.11728
G0 F18000 X1.558 Y36
G1 F720 X-1.558 Y36 E566.27274
G0 F18000 X-1.558 Y36.4
G1 F720 X1.558 Y36.4 E566.4282
G0 F18000 X1.558 Y36.8
G1 F720 X-1.558 Y36.8 E566.58365
G0 F18000 X-1.558 Y37.2
G1 F720 X1.558 Y37.2 E566.73911
G0 F18000 X1.558 Y37.6
G1 F720 X-1.558 Y37.6 E566.89457
G0 F18000 X-1.558 Y38
G1 F720 X1.558 Y38 E567.05003
G0 F18000 X1.558 Y38.4
G1 F720 X-1.558 Y38.4 E567.20549
G0 F18000 X-1.558 Y38.8
G1 F720 X1.558 Y38.8 E567.36094
G0 F18000 X1.558 Y39.2
G1 F720 X-1.558 Y39.2 E567.5164
G0 F18000 X-1.558 Y39.6
G1 F720 X1.558 Y39.6 E567.67186
G0 F18000 X1.558 Y40
G1 F720 X-1.558 Y40 E567.82732
G0 F18000 X-1.558 Y40.4
G1 F720 X1.558 Y40.4 E567.98277
G0 F18000 X1.558 Y40.8
G1 F720 X-1.558 Y40.8 E568.13823
G0 F18000 X-1.558 Y41.2
G1 F720 X1.558 Y41.2 E568.29369
G0 F18000 X1.558 Y41.6
G1 F720 X-1.558 Y41.6 E568.44915
G0 F18000 X-1.558 Y42
G1 F720 X1.558 Y42 E568.60461
G0 F18000 X1.558 Y42.4
G1 F720 X-1.558 Y42.4 E568.76006
G0 F18000 X-1.558 Y42.8
G1 F720 X1.558 Y42.8 E568.91552
G0 F18000 X1.558 Y43.2
G1 F720 X-1.558 Y43.2 E569.07098
G0 F18000 X-1.558 Y43.6
G1 F720 X1.558 Y43.6 E569.22644
G0 F18000 X1.558 Y44
G1 F720 X-1.558 Y44 E569.3819
G0 F18000 X-1.558 Y44.4
G1 F720 X1.558 Y44.4 E569.53735
G0 F18000 X1.558 Y44.8
G1 F720 X-1.558 Y44.8 E569.69281
G0 F18000 X-1.558 Y45.2
G1 F720 X1.558 Y45.2 E569.84827
G0 F18000 X1.558 Y45.6
G1 F720 X-1.558 Y45.6 E570.00373
G0 F18000 X-1.558 Y46
G1 F720 X1.558 Y46 E570.15918
G0 F18000 X1.558 Y46.4
G1 F720 X-1.558 Y46.4 E570.31464
G0 F18000 X-1.558 Y46.8
G1 F720 X1.558 Y46.8 E570.4701
G0 F18000 X1.558 Y47.2
G1 F720 X-1.558 Y47.2 E570.62556
G0 F18000 X-1.558 Y47.6
G1 F720 X1.558 Y47.6 E570.78102
G0 F18000 X1.558 Y48
G1 F720 X-1.558 Y48 E570.93647
G0 F18000 X-1.558 Y48.4
G1 F720 X1.558 Y48.4 E571.09193
G0 F18000 X1.558 Y48.8
G1 F720 X-1.558 Y48.8 E571.24739
G0 F18000 X-1.558 Y49.2
G1 F720 X1.558 Y49.2 E571.40285
G0 F18000 X1.558 Y49.6
G1 F720 X-1.558 Y49.6 E571.55831
G0 F18000 X-1.558 Y50
G1 F720 X1.558 Y50 E571.71376
G0 F18000 X1.558 Y50.4
G1 F720 X-1.558 Y50.4 E571.86922
G0 F18000 X-1.558 Y50.8
G1 F720 X1.558 Y50.8 E572.02468
G0 F18000 X1.558 Y51.2
G1 F720 X-1.558 Y51.2 E572.18014
G0 F18000 X-1.558 Y51.6
G1 F720 X1.558 Y51.6 E572.33559
G0 F18000 X1.558 Y52
G1 F720 X-1.558 Y52 E572.49105
G0 F18000 X-1.558 Y52.4
G1 F720 X1.558 Y52.4 E572.64651
G0 F18000 X1.558 Y52.8
G1 F720 X-1.558 Y52.8 E572.80197
G0 F18000 X-1.558 Y53.2
G1 F720 X1.558 Y53.2 E572.95743
G0 F18000 X1.558 Y53.6
G1 F720 X-1.558 Y53.6 E573.11288
G0 F18000 X-1.558 Y54
G1 F720 X1.558 Y54 E573.26834
G0 F18000 X1.558 Y54.4
G1 F720 X-1.558 Y54.4 E573.4238
G0 F18000 X-1.558 Y54.8
G1 F720 X1.558 Y54.8 E573.57926
G0 F18000 X1.558 Y55.2
G1 F720 X-1.558 Y55.2 E573.73472
G0 F18000 X-1.558 Y55.6
G1 F720 X1.558 Y55.6 E573.89017
G0 F18000 X1.558 Y56
G1 F720 X-1.558 Y56 E574.04563
G0 F18000 X-1.558 Y56.4
G1 F720 X1.558 Y56.4 E574.20109
G0 F18000 X1.558 Y56.8
G1 F720 X-1.558 Y56.8 E574.35655
G0 F18000 X-1.558 Y57.2
G1 F720 X1.558 Y57.2 E574.51201
G0 F18000 X1.558 Y57.6
G1 F720 X-1.558 Y57.6 E574.66746
G0 F18000 X-1.558 Y58
G1 F720 X1.558 Y58 E574.82292
G0 F18000 X1.558 Y58.4
G1 F720 X-1.558 Y58.4 E574.97838
G0 F18000 X-1.558 Y58.8
G1 F720 X1.558 Y58.8 E575.13384
G0 F18000 X1.558 Y59.2
G1 F720 X-1.558 Y59.2 E575.28929
G0 F18000 X-1.558 Y59.6
G1 F720 X1.558 Y59.6 E575.44475
G0 F18000 X1.558 Y60
G1 F720 X-1.558 Y60 E575.60021
G0 F18000 X-1.558 Y60.4
G1 F720 X1.558 Y60.4 E575.75567
G0 F18000 X1.558 Y60.8
G1 F720 X-1.558 Y60.8 E575.91113
G0 F18000 X-1.558 Y61.2
G1 F720 X1.558 Y61.2 E576.06658
G0 F18000 X1.558 Y61.6
G1 F720 X-1.558 Y61.6 E576.22204
G0 F18000 X-1.558 Y62
G1 F720 X1.558 Y62 E576.3775
G0 F18000 X1.558 Y62.4
G1 F720 X-1.558 Y62.4 E576.53296
G0 F18000 X-1.558 Y62.8
G1 F720 X1.558 Y62.8 E576.68842
G0 F18000 X1.558 Y63.2
G1 F720 X-1.558 Y63.2 E576.84387
G0 F18000 X-1.558 Y63.6
G1 F720 X1.558 Y63.6 E576.99933
G0 F18000 X1.558 Y64
G1 F720 X-1.558 Y64 E577.15479
G0 F18000 X-1.558 Y64.4
G1 F720 X1.558 Y64.4 E577.31025
G0 F18000 X1.558 Y64.8
G1 F720 X-1.558 Y64.8 E577.4657
G0 F18000 X-1.558 Y65.2
G1 F720 X1.558 Y65.2 E577.62116
G0 F18000 X1.558 Y65.6
G1 F720 X-1.558 Y65.6 E577.77662
G0 F18000 X-1.558 Y66
G1 F720 X1.558 Y66 E577.93208
G0 F18000 X1.558 Y66.4
G1 F720 X-1.558 Y66.4 E578.08754
G0 F18000 X-1.558 Y66.8
G1 F720 X1.558 Y66.8 E578.24299
G0 F18000 X1.558 Y67.2
G1 F720 X-1.558 Y67.2 E578.39845
G0 F18000 X-1.558 Y67.6
G1 F720 X1.558 Y67.6 E578.55391
G0 F18000 X1.558 Y68
G1 F720 X-1.558 Y68 E578.70937
G0 F18000 X-1.558 Y68.4
G1 F720 X1.558 Y68.4 E578.86483
G0 F18000 X1.558 Y68.8
G1 F720 X-1.558 Y68.8 E579.02028
G0 F18000 X-1.558 Y69.2
G1 F720 X1.558 Y69.2 E579.17574
G0 F18000 X1.558 Y69.6
G1 F720 X-1.558 Y69.6 E579.3312
G0 F18000 X-1.558 Y70
G1 F720 X1.558 Y70 E579.48666
G0 F18000 X1.558 Y70.4
G1 F720 X-1.558 Y70.4 E579.64211
G0 F18000 X-1.558 Y70.8
G1 F720 X1.558 Y70.8 E579.79757
G0 F18000 X1.558 Y71.2
G1 F720 X-1.558 Y71.2 E579.95303
G0 F18000 X-1.558 Y71.6
G1 F720 X1.558 Y71.6 E580.10849
G0 F18000 X1.558 Y72
G1 F720 X-1.558 Y72 E580.26395
G0 F18000 X-1.558 Y72.4
G1 F720 X1.558 Y72.4 E580.4194
G0 F18000 X1.558 Y72.8
G1 F720 X-1.558 Y72.8 E580.57486
G0 F18000 X-1.558 Y73.2
G1 F720 X1.558 Y73.2 E580.73032
G0 F18000 X1.558 Y73.6
G1 F720 X-1.558 Y73.6 E580.88578
G0 F18000 X-1.558 Y74
G1 F720 X1.558 Y74 E581.04124
G0 F18000 X1.558 Y74.4
G1 F720 X-1.558 Y74.4 E581.19669
G0 F18000 X-1.558 Y74.8
G1 F720 X1.558 Y74.8 E581.35215
G0 F18000 X1.558 Y75.2
G1 F720 X-1.558 Y75.2 E581.50761
G0 F18000 X-1.558 Y75.6
G1 F720 X1.558 Y75.6 E581.66307
G0 F18000 X1.558 Y76
G1 F720 X-1.558 Y76 E581.81852
G0 F18000 X-1.558 Y76.4
G1 F720 X1.558 Y76.4 E581.97398
G0 F18000 X1.558 Y76.8
G1 F720 X-1.558 Y76.8 E582.12944
G0 F18000 X-1.558 Y77.2
G1 F720 X1.558 Y77.2 E582.2849
G0 F18000 X1.558 Y77.6
G1 F720 X-1.558 Y77.6 E582.44036
G0 F18000 X-1.558 Y78
G1 F720 X1.558 Y78 E582.59581
G0 F18000 X71.44 Y78
G0 X71.44 Y78
G1 F720 X76.56 Y78 E582.85125
G0 F18000 X76.56 Y77.6
G1 F720 X71.44 Y77.6 E583.10669
G0 F18000 X71.44 Y77.2
G1 F720 X76.56 Y77.2 E583.36213
G0 F18000 X76.56 Y76.8
G1 F720 X71.44 Y76.8 E583.61757
G0 F18000 X71.44 Y76.4
G1 F720 X76.56 Y76.4 E583.873
G0 F18000 X76.56 Y76
G1 F720 X71.44 Y76 E584.12844
G0 F18000 X71.44 Y75.6
G1 F720 X76.56 Y75.6 E584.38388
G0 F18000 X76.56 Y75.2
G1 F720 X71.44 Y75.2 E584.63932
G0 F18000 X71.44 Y74.8
G1 F720 X76.56 Y74.8 E584.89475
G0 F18000 X76.56 Y74.4
G1 F720 X71.44 Y74.4 E585.15019
G0 F18000 X71.44 Y74
G1 F720 X76.56 Y74 E585.40563
G0 F18000 X76.56 Y73.6
G1 F720 X71.44 Y73.6 E585.66107
G0 F18000 X71.44 Y73.2
G1 F720 X76.56 Y73.2 E585.91651
G0 F18000 X76.56 Y72.8
G1 F720 X71.44 Y72.8 E586.17194
G0 F18000 X71.44 Y72.4
G1 F720 X76.56 Y72.4 E586.42738
G0 F18000 X76.56 Y72
G1 F720 X71.44 Y72 E586.68282
G0 F18000 X71.44 Y71.6
G1 F720 X76.56 Y71.6 E586.93826
G0 F18000 X76.56 Y71.2
G1 F720 X71.44 Y71.2 E587.1937
G0 F18000 X71.44 Y70.8
G1 F720 X76.56 Y70.8 E587.44913
G0 F18000 X76.56 Y70.4
G1 F720 X71.44 Y70.4 E587.70457
G0 F18000 X71.44 Y70
G1 F720 X76.56 Y70 E587.96001
G0 F18000 X76.56 Y69.6
G1 F720 X71.44 Y69.6 E588.21545
G0 F18000 X71.44 Y69.2
G1 F720 X76.56 Y69.2 E588.47088
G0 F18000 X76.56 Y68.8
G1 F720 X71.44 Y68.8 E588.72632
G0 F18000 X71.44 Y68.4
G1 F720 X76.56 Y68.4 E588.98176
G0 F18000 X76.56 Y68
G1 F720 X71.44 Y68 E589.2372
G0 F18000 X71.44 Y67.6
G1 F720 X76.56 Y67.6 E589.49264
G0 F18000 X76.56 Y67.2
G1 F720 X71.44 Y67.2 E589.74807
G0 F18000 X71.44 Y66.8
G1 F720 X76.56 Y66.8 E590.00351
G0 F18000 X76.56 Y66.4
G1 F720 X71.44 Y66.4 E590.25895
G0 F18000 X71.44 Y66
G1 F720 X76.56 Y66 E590.51439
G0 F18000 X76.56 Y65.6
G1 F720 X71.44 Y65.6 E590.76983
G0 F18000 X71.44 Y65.199
G1 F720 X76.56 Y65.199 E591.02526
G0 F18000 X76.56 Y64.799
G1 F720 X71.44 Y64.799 E591.2807
G0 F18000 X71.44 Y64.399
G1 F720 X76.56 Y64.399 E591.53614
G0 F18000 X76.56 Y63.999
G1 F720 X71.44 Y63.999 E591.79158
G0 F18000 X71.44 Y63.599
G1 F720 X76.56 Y63.599 E592.04701
G0 F18000 X76.56 Y63.199
G1 F720 X71.44 Y63.199 E592.30245
G0 F18000 X71.44 Y62.799
G1 F720 X76.56 Y62.799 E592.55789
G0 F18000 X76.56 Y62.399
G1 F720 X71.44 Y62.399 E592.81333
G0 F18000 X71.44 Y61.999
G1 F720 X76.56 Y61.999 E593.06877
G0 F18000 X76.56 Y61.599
G1 F720 X71.44 Y61.599 E593.3242
G0 F18000 X71.44 Y61.199
G1 F720 X76.56 Y61.199 E593.57964
G0 F18000 X76.56 Y60.799
G1 F720 X71.44 Y60.799 E593.83508
G0 F18000 X71.44 Y60.399
G1 F720 X76.56 Y60.399 E594.09052
G0 F18000 X76.56 Y59.999
G1 F720 X71.44 Y59.999 E594.34595
G0 F18000 X71.44 Y59.599
G1 F720 X76.56 Y59.599 E594.60139
G0 F18000 X76.56 Y59.199
G1 F720 X71.44 Y59.199 E594.85683
G0 F18000 X71.44 Y58.799
G1 F720 X76.56 Y58.799 E595.11227
G0 F18000 X76.56 Y58.399
G1 F720 X71.44 Y58.399 E595.36771
G0 F18000 X71.44 Y57.999
G1 F720 X76.56 Y57.999 E595.62314
G0 F18000 X76.56 Y57.599
G1 F720 X71.44 Y57.599 E595.87858
G0 F18000 X71.44 Y57.199
G1 F720 X76.56 Y57.199 E596.13402
G0 F18000 X76.56 Y56.799
G1 F720 X71.44 Y56.799 E596.38946
G0 F18000 X71.44 Y56.399
G1 F720 X76.56 Y56.399 E596.6449
G0 F18000 X76.56 Y55.999
G1 F720 X71.44 Y55.999 E596.90033
G0 F18000 X71.44 Y55.599
G1 F720 X76.56 Y55.599 E597.15577
G0 F18000 X76.56 Y55.199
G1 F720 X71.44 Y55.199 E597.41121
G0 F18000 X71.44 Y54.799
G1 F720 X76.56 Y54.799 E597.66665
G0 F18000 X76.56 Y54.399
G1 F720 X71.44 Y54.399 E597.92208
G0 F18000 X71.44 Y53.999
G1 F720 X76.56 Y53.999 E598.17752
G0 F18000 X76.56 Y53.599
G1 F720 X71.44 Y53.599 E598.43296
G0 F18000 X71.44 Y53.199
G1 F720 X76.56 Y53.199 E598.6884
G0 F18000 X76.56 Y52.799
G1 F720 X71.44 Y52.799 E598.94384
G0 F18000 X71.44 Y52.399
G1 F720 X76.56 Y52.399 E599.19927
G0 F18000 X76.56 Y51.999
G1 F720 X71.44 Y51.999 E599.45471
G0 F18000 X71.44 Y51.599
G1 F720 X76.56 Y51.599 E599.71015
G0 F18000 X76.56 Y51.199
G1 F720 X71.44 Y51.199 E599.96559
G0 F18000 X71.44 Y50.799
G1 F720 X76.56 Y50.799 E600.22103
G0 F18000 X76.56 Y50.399
G1 F720 X71.44 Y50.399 E600.47646
G0 F18000 X71.44 Y49.999
G1 F720 X76.56 Y49.999 E600.7319
G0 F18000 X76.56 Y49.599
G1 F720 X71.44 Y49.599 E600.98734
G0 F18000 X71.44 Y49.199
G1 F720 X76.56 Y49.199 E601.24278
G0 F18000 X76.56 Y48.799
G1 F720 X71.44 Y48.799 E601.49821
G0 F18000 X71.44 Y48.399
G1 F720 X76.56 Y48.399 E601.75365
G0 F18000 X76.56 Y47.999
G1 F720 X71.44 Y47.999 E602.00909
G0 F18000 X71.44 Y47.599
G1 F720 X76.56 Y47.599 E602.26453
G0 F18000 X76.56 Y47.199
G1 F720 X71.44 Y47.199 E602.51997
G0 F18000 X71.44 Y46.799
G1 F720 X76.56 Y46.799 E602.7754
G0 F18000 X76.56 Y46.399
G1 F720 X71.44 Y46.399 E603.03084
G0 F18000 X71.44 Y45.999
G1 F720 X76.56 Y45.999 E603.28628
G0 F18000 X76.56 Y45.599
G1 F720 X71.44 Y45.599 E603.54172
G0 F18000 X71.44 Y45.199
G1 F720 X76.56 Y45.199 E603.79715
G0 F18000 X76.56 Y44.799
G1 F720 X71.44 Y44.799 E604.05259
G0 F18000 X71.44 Y44.399
G1 F720 X76.56 Y44.399 E604.30803
G0 F18000 X76.56 Y43.999
G1 F720 X71.44 Y43.999 E604.56347
G0 F18000 X71.44 Y43.599
G1 F720 X76.56 Y43.599 E604.81891
G0 F18000 X76.56 Y43.199
G1 F720 X71.44 Y43.199 E605.07434
G0 F18000 X71.44 Y42.799
G1 F720 X76.56 Y42.799 E605.32978
G0 F18000 X76.56 Y42.399
G1 F720 X71.44 Y42.399 E605.58522
G0 F18000 X71.44 Y41.999
G1 F720 X76.56 Y41.999 E605.84066
G0 F18000 X76.56 Y41.599
G1 F720 X71.44 Y41.599 E606.0961
G0 F18000 X71.44 Y41.199
G1 F720 X76.56 Y41.199 E606.35153
G0 F18000 X76.56 Y40.799
G1 F720 X71.44 Y40.799 E606.60697
G0 F18000 X71.44 Y40.399
G1 F720 X76.56 Y40.399 E606.86241
G0 F18000 X76.56 Y39.999
G1 F720 X71.44 Y39.999 E607.11785
G0 F18000 X71.44 Y39.599
G1 F720 X76.56 Y39.599 E607.37328
G0 F18000 X76.56 Y39.199
G1 F720 X71.44 Y39.199 E607.62872
G0 F18000 X71.44 Y38.799
G1 F720 X76.56 Y38.799 E607.88416
G0 F18000 X76.56 Y38.399
G1 F720 X71.44 Y38.399 E608.1396
G0 F18000 X71.44 Y37.999
G1 F720 X76.56 Y37.999 E608.39504
G0 F18000 X76.56 Y37.599
G1 F720 X71.44 Y37.599 E608.65047
G0 F18000 X71.44 Y37.199
G1 F720 X76.56 Y37.199 E608.90591
G0 F18000 X76.56 Y36.799
G1 F720 X71.44 Y36.799 E609.16135
G0 F18000 X71.44 Y36.399
G1 F720 X76.56 Y36.399 E609.41679
G0 F18000 X76.56 Y35.999
G1 F720 X71.44 Y35.999 E609.67223
G0 F18000 X71.44 Y35.599
G1 F720 X76.56 Y35.599 E609.92766
G0 F18000 X76.56 Y35.199
G1 F720 X71.44 Y35.199 E610.1831
G0 F18000 X71.44 Y34.799
G1 F720 X76.56 Y34.799 E610.43854
G0 F18000 X76.56 Y34.399
G1 F720 X71.44 Y34.399 E610.69398
G0 F18000 X71.44 Y33.999
G1 F720 X76.56 Y33.999 E610.94941
G0 F18000 X76.56 Y33.599
G1 F720 X71.44 Y33.599 E611.20485
G0 F18000 X71.44 Y33.199
G1 F720 X76.56 Y33.199 E611.46029
G0 F18000 X76.56 Y32.799
G1 F720 X71.44 Y32.799 E611.71573
G0 F18000 X71.44 Y32.399
G1 F720 X76.56 Y32.399 E611.97117
G0 F18000 X76.56 Y31.999
G1 F720 X71.44 Y31.999 E612.2266
G0 F18000 X71.44 Y31.599
G1 F720 X76.56 Y31.599 E612.48204
G0 F18000 X76.56 Y31.199
G1 F720 X71.44 Y31.199 E612.73748
G0 F18000 X71.44 Y30.799
G1 F720 X76.56 Y30.799 E612.99292
G0 F18000 X76.56 Y30.399
G1 F720 X71.44 Y30.399 E613.24835
G0 F18000 X71.44 Y29.999
G1 F720 X76.56 Y29.999 E613.50379
G0 F18000 X76.56 Y29.599
G1 F720 X71.44 Y29.599 E613.75923
G0 F18000 X71.44 Y29.199
G1 F720 X76.56 Y29.199 E614.01467
G0 F18000 X76.56 Y28.799
G1 F720 X71.44 Y28.799 E614.27011
G0 F18000 X71.44 Y28.399
G1 F720 X76.56 Y28.399 E614.52554
G0 F18000 X76.56 Y27.999
G1 F720 X71.44 Y27.999 E614.78098
G0 F18000 X71.44 Y27.599
G1 F720 X76.56 Y27.599 E615.03642
G0 F18000 X76.56 Y27.199
G1 F720 X71.44 Y27.199 E615.29186
G0 F18000 X71.44 Y26.799
G1 F720 X76.56 Y26.799 E615.5473
G0 F18000 X76.56 Y26.399
G1 F720 X71.44 Y26.399 E615.80273
G0 F18000 X71.44 Y25.999
G1 F720 X76.56 Y25.999 E616.05817
G0 F18000 X76.56 Y25.599
G1 F720 X71.44 Y25.599 E616.31361
G0 F18000 X71.44 Y25.199
G1 F720 X76.56 Y25.199 E616.56905
G0 F18000 X76.56 Y24.799
G1 F720 X71.44 Y24.799 E616.82448
G0 F18000 X71.44 Y24.399
G1 F720 X76.56 Y24.399 E617.07992
G0 F18000 X76.56 Y23.999
G1 F720 X71.44 Y23.999 E617.33536
G0 F18000 X71.44 Y23.599
G1 F720 X76.56 Y23.599 E617.5908
G0 F18000 X76.56 Y23.199
G1 F720 X71.44 Y23.199 E617.84624
G0 F18000 X71.44 Y22.799
G1 F720 X76.56 Y22.799 E618.10167
G0 F18000 X76.56 Y22.399
G1 F720 X71.44 Y22.399 E618.35711
G0 F18000 X71.44 Y21.999
G1 F720 X76.56 Y21.999 E618.61255
G0 F18000 X76.56 Y21.599
G1 F720 X71.44 Y21.599 E618.86799
G0 F18000 X71.44 Y21.199
G1 F720 X76.56 Y21.199 E619.12343
G0 F18000 X76.56 Y20.799
G1 F720 X71.44 Y20.799 E619.37886
G0 F18000 X71.44 Y20.399
G1 F720 X76.56 Y20.399 E619.6343
G0 F18000 X76.56 Y19.999
G1 F720 X71.44 Y19.999 E619.88974
G0 F18000 X71.44 Y19.599
G1 F720 X76.56 Y19.599 E620.14518
G0 F18000 X76.56 Y19.199
G1 F720 X71.44 Y19.199 E620.40061
G0 F18000 X71.44 Y18.799
G1 F720 X76.56 Y18.799 E620.65605
G0 F18000 X76.56 Y18.399
G1 F720 X71.44 Y18.399 E620.91149
G0 F18000 X71.44 Y17.999
G1 F720 X76.56 Y17.999 E621.16693
G0 F18000 X76.56 Y17.599
G1 F720 X71.44 Y17.599 E621.42237
G0 F18000 X71.44 Y17.199
G1 F720 X76.56 Y17.199 E621.6778
G0 F18000 X76.56 Y16.799
G1 F720 X71.44 Y16.799 E621.93324
G0 F18000 X71.44 Y16.399
G1 F720 X76.56 Y16.399 E622.18868
G0 F18000 X76.56 Y15.999
G1 F720 X71.44 Y15.999 E622.44412
G0 F18000 X71.44 Y15.599
G1 F720 X76.56 Y15.599 E622.69955
G0 F18000 X76.56 Y15.199
G1 F720 X71.44 Y15.199 E622.95499
G0 F18000 X71.44 Y14.799
G1 F720 X76.56 Y14.799 E623.21043
G0 F18000 X76.56 Y14.399
G1 F720 X71.44 Y14.399 E623.46587
G0 F18000 X71.44 Y13.999
G1 F720 X76.56 Y13.999 E623.72131
G0 F18000 X76.56 Y13.599
G1 F720 X71.44 Y13.599 E623.97674
G0 F18000 X76.56 Y13.199
G1 F720 X-76.558 Y13.2 E631.61583
G0 F18000 X-76.558 Y12.8
G1 F720 X76.56 Y12.799 E639.25492
G0 F18000 X76.56 Y12.399
G1 F720 X-76.558 Y12.4 E646.89401
G0 F18000 X-76.558 Y12
G1 F720 X76.56 Y11.999 E654.5331
G0 F18000 X76.56 Y11.599
G1 F720 X-76.558 Y11.6 E662.17218
G0 F18000 X-76.558 Y11.2
G1 F720 X76.56 Y11.199 E669.81127
G0 F18000 X76.56 Y10.799
G1 F720 X-76.558 Y10.8 E677.45036
G0 F18000 X-76.558 Y13.6
G1 F720 X-71.439 Y13.6 E677.70575
G0 F18000 X-71.439 Y14
G1 F720 X-76.558 Y14 E677.96114
G0 F18000 X-76.558 Y14.4
G1 F720 X-71.439 Y14.4 E678.21652
G0 F18000 X-71.439 Y14.8
G1 F720 X-76.558 Y14.8 E678.47191
G0 F18000 X-76.558 Y15.2
G1 F720 X-71.439 Y15.2 E678.7273
G0 F18000 X-71.439 Y15.6
G1 F720 X-76.558 Y15.6 E678.98269
G0 F18000 X-76.558 Y16
G1 F720 X-71.439 Y16 E679.23808
G0 F18000 X-71.439 Y16.4
G1 F720 X-76.558 Y16.4 E679.49346
G0 F18000 X-76.558 Y16.8
G1 F720 X-71.439 Y16.8 E679.74885
G0 F18000 X-71.439 Y17.2
G1 F720 X-76.558 Y17.2 E680.00424
G0 F18000 X-76.558 Y17.6
G1 F720 X-71.439 Y17.6 E680.25963
G0 F18000 X-71.439 Y18
G1 F720 X-76.558 Y18 E680.51502
G0 F18000 X-76.558 Y18.4
G1 F720 X-71.439 Y18.4 E680.7704
G0 F18000 X-71.439 Y18.8
G1 F720 X-76.558 Y18.8 E681.02579
G0 F18000 X-76.558 Y19.2
G1 F720 X-71.439 Y19.2 E681.28118
G0 F18000 X-71.439 Y19.6
G1 F720 X-76.558 Y19.6 E681.53657
G0 F18000 X-76.558 Y20
G1 F720 X-71.439 Y20 E681.79196
G0 F18000 X-71.439 Y20.4
G1 F720 X-76.558 Y20.4 E682.04734
G0 F18000 X-76.558 Y20.8
G1 F720 X-71.439 Y20.8 E682.30273
G0 F18000 X-71.439 Y21.2
G1 F720 X-76.558 Y21.2 E682.55812
G0 F18000 X-76.558 Y21.6
G1 F720 X-71.439 Y21.6 E682.81351
G0 F18000 X-71.439 Y22
G1 F720 X-76.558 Y22 E683.0689
G0 F18000 X-76.558 Y22.4
G1 F720 X-71.439 Y22.4 E683.32428
G0 F18000 X-71.439 Y22.8
G1 F720 X-76.558 Y22.8 E683.57967
G0 F18000 X-76.558 Y23.2
G1 F720 X-71.439 Y23.2 E683.83506
G0 F18000 X-71.439 Y23.6
G1 F720 X-76.558 Y23.6 E684.09045
G0 F18000 X-76.558 Y24
G1 F720 X-71.439 Y24 E684.34583
G0 F18000 X-71.439 Y24.4
G1 F720 X-76.558 Y24.4 E684.60122
G0 F18000 X-76.558 Y24.8
G1 F720 X-71.439 Y24.8 E684.85661
G0 F18000 X-71.439 Y25.2
G1 F720 X-76.558 Y25.2 E685.112
G0 F18000 X-76.558 Y25.6
G1 F720 X-71.439 Y25.6 E685.36739
G0 F18000 X-71.439 Y26
G1 F720 X-76.558 Y26 E685.62277
G0 F18000 X-76.558 Y26.4
G1 F720 X-71.439 Y26.4 E685.87816
G0 F18000 X-71.439 Y26.8
G1 F720 X-76.558 Y26.8 E686.13355
G0 F18000 X-76.558 Y27.2
G1 F720 X-71.439 Y27.2 E686.38894
G0 F18000 X-71.439 Y27.6
G1 F720 X-76.558 Y27.6 E686.64433
G0 F18000 X-76.558 Y28
G1 F720 X-71.439 Y28 E686.89971
G0 F18000 X-71.439 Y28.4
G1 F720 X-76.558 Y28.4 E687.1551
G0 F18000 X-76.558 Y28.8
G1 F720 X-71.439 Y28.8 E687.41049
G0 F18000 X-71.439 Y29.2
G1 F720 X-76.558 Y29.2 E687.66588
G0 F18000 X-76.558 Y29.6
G1 F720 X-71.439 Y29.6 E687.92127
G0 F18000 X-71.439 Y30
G1 F720 X-76.558 Y30 E688.17665
G0 F18000 X-76.558 Y30.4
G1 F720 X-71.439 Y30.4 E688.43204
G0 F18000 X-71.439 Y30.8
G1 F720 X-76.558 Y30.8 E688.68743
G0 F18000 X-76.558 Y31.2
G1 F720 X-71.439 Y31.2 E688.94282
G0 F18000 X-71.439 Y31.6
G1 F720 X-76.558 Y31.6 E689.19821
G0 F18000 X-76.558 Y32
G1 F720 X-71.439 Y32 E689.45359
G0 F18000 X-71.439 Y32.4
G1 F720 X-76.558 Y32.4 E689.70898
G0 F18000 X-76.558 Y32.8
G1 F720 X-71.439 Y32.8 E689.96437
G0 F18000 X-71.439 Y33.2
G1 F720 X-76.558 Y33.2 E690.21976
G0 F18000 X-76.558 Y33.6
G1 F720 X-71.439 Y33.6 E690.47515
G0 F18000 X-71.439 Y34
G1 F720 X-76.558 Y34 E690.73053
G0 F18000 X-76.558 Y34.4
G1 F720 X-71.439 Y34.4 E690.98592
G0 F18000 X-71.439 Y34.8
G1 F720 X-76.558 Y34.8 E691.24131
G0 F18000 X-76.558 Y35.2
G1 F720 X-71.439 Y35.2 E691.4967
G0 F18000 X-71.439 Y35.6
G1 F720 X-76.558 Y35.6 E691.75209
G0 F18000 X-76.558 Y36
G1 F720 X-71.439 Y36 E692.00747
G0 F18000 X-71.439 Y36.4
G1 F720 X-76.558 Y36.4 E692.26286
G0 F18000 X-76.558 Y36.8
G1 F720 X-71.439 Y36.8 E692.51825
G0 F18000 X-71.439 Y37.2
G1 F720 X-76.558 Y37.2 E692.77364
G0 F18000 X-76.558 Y37.6
G1 F720 X-71.439 Y37.6 E693.02902
G0 F18000 X-71.439 Y38
G1 F720 X-76.558 Y38 E693.28441
G0 F18000 X-76.558 Y38.4
G1 F720 X-71.439 Y38.4 E693.5398
G0 F18000 X-71.439 Y38.8
G1 F720 X-76.558 Y38.8 E693.79519
G0 F18000 X-76.558 Y39.2
G1 F720 X-71.439 Y39.2 E694.05058
G0 F18000 X-71.439 Y39.6
G1 F720 X-76.558 Y39.6 E694.30596
G0 F18000 X-76.558 Y40
G1 F720 X-71.439 Y40 E694.56135
G0 F18000 X-71.439 Y40.4
G1 F720 X-76.558 Y40.4 E694.81674
G0 F18000 X-76.558 Y40.8
G1 F720 X-71.439 Y40.8 E695.07213
G0 F18000 X-71.439 Y41.2
G1 F720 X-76.558 Y41.2 E695.32752
G0 F18000 X-76.558 Y41.6
G1 F720 X-71.439 Y41.6 E695.5829
G0 F18000 X-71.439 Y42
G1 F720 X-76.558 Y42 E695.83829
G0 F18000 X-76.558 Y42.4
G1 F720 X-71.439 Y42.4 E696.09368
G0 F18000 X-71.439 Y42.8
G1 F720 X-76.558 Y42.8 E696.34907
G0 F18000 X-76.558 Y43.2
G1 F720 X-71.439 Y43.2 E696.60446
G0 F18000 X-71.439 Y43.6
G1 F720 X-76.558 Y43.6 E696.85984
G0 F18000 X-76.558 Y44
G1 F720 X-71.439 Y44 E697.11523
G0 F18000 X-71.439 Y44.4
G1 F720 X-76.558 Y44.4 E697.37062
G0 F18000 X-76.558 Y44.8
G1 F720 X-71.439 Y44.8 E697.62601
G0 F18000 X-71.439 Y45.2
G1 F720 X-76.558 Y45.2 E697.8814
G0 F18000 X-76.558 Y45.6
G1 F720 X-71.439 Y45.6 E698.13678
G0 F18000 X-71.439 Y46
G1 F720 X-76.558 Y46 E698.39217
G0 F18000 X-76.558 Y46.4
G1 F720 X-71.439 Y46.4 E698.64756
G0 F18000 X-71.439 Y46.8
G1 F720 X-76.558 Y46.8 E698.90295
G0 F18000 X-76.558 Y47.2
G1 F720 X-71.439 Y47.2 E699.15834
G0 F18000 X-71.439 Y47.6
G1 F720 X-76.558 Y47.6 E699.41372
G0 F18000 X-76.558 Y48
G1 F720 X-71.439 Y48 E699.66911
G0 F18000 X-71.439 Y48.4
G1 F720 X-76.558 Y48.4 E699.9245
G0 F18000 X-76.558 Y48.8
G1 F720 X-71.439 Y48.8 E700.17989
G0 F18000 X-71.439 Y49.2
G1 F720 X-76.558 Y49.2 E700.43528
G0 F18000 X-76.558 Y49.6
G1 F720 X-71.439 Y49.6 E700.69066
G0 F18000 X-71.439 Y50
G1 F720 X-76.558 Y50 E700.94605
G0 F18000 X-76.558 Y50.4
G1 F720 X-71.439 Y50.4 E701.20144
G0 F18000 X-71.439 Y50.8
G1 F720 X-76.558 Y50.8 E701.45683
G0 F18000 X-76.558 Y51.2
G1 F720 X-71.439 Y51.2 E701.71222
G0 F18000 X-71.439 Y51.6
G1 F720 X-76.558 Y51.6 E701.9676
G0 F18000 X-76.558 Y52
G1 F720 X-71.439 Y52 E702.22299
G0 F18000 X-71.439 Y52.4
G1 F720 X-76.558 Y52.4 E702.47838
G0 F18000 X-76.558 Y52.8
G1 F720 X-71.439 Y52.8 E702.73377
G0 F18000 X-71.439 Y53.2
G1 F720 X-76.558 Y53.2 E702.98915
G0 F18000 X-76.558 Y53.6
G1 F720 X-71.439 Y53.6 E703.24454
G0 F18000 X-71.439 Y54
G1 F720 X-76.558 Y54 E703.49993
G0 F18000 X-76.558 Y54.4
G1 F720 X-71.439 Y54.4 E703.75532
G0 F18000 X-71.439 Y54.8
G1 F720 X-76.558 Y54.8 E704.01071
G0 F18000 X-76.558 Y55.2
G1 F720 X-71.439 Y55.2 E704.26609
G0 F18000 X-71.439 Y55.6
G1 F720 X-76.558 Y55.6 E704.52148
G0 F18000 X-76.558 Y56
G1 F720 X-71.439 Y56 E704.77687
G0 F18000 X-71.439 Y56.4
G1 F720 X-76.558 Y56.4 E705.03226
G0 F18000 X-76.558 Y56.8
G1 F720 X-71.439 Y56.8 E705.28765
G0 F18000 X-71.439 Y57.2
G1 F720 X-76.558 Y57.2 E705.54303
G0 F18000 X-76.558 Y57.6
G1 F720 X-71.439 Y57.6 E705.79842
G0 F18000 X-71.439 Y58
G1 F720 X-76.558 Y58 E706.05381
G0 F18000 X-76.558 Y58.4
G1 F720 X-71.439 Y58.4 E706.3092
G0 F18000 X-71.439 Y58.8
G1 F720 X-76.558 Y58.8 E706.56459
G0 F18000 X-76.558 Y59.2
G1 F720 X-71.439 Y59.2 E706.81997
G0 F18000 X-71.439 Y59.6
G1 F720 X-76.558 Y59.6 E707.07536
G0 F18000 X-76.558 Y60
G1 F720 X-71.439 Y60 E707.33075
G0 F18000 X-71.439 Y60.4
G1 F720 X-76.558 Y60.4 E707.58614
G0 F18000 X-76.558 Y60.8
G1 F720 X-71.439 Y60.8 E707.84153
G0 F18000 X-71.439 Y61.2
G1 F720 X-76.558 Y61.2 E708.09691
G0 F18000 X-76.558 Y61.6
G1 F720 X-71.439 Y61.6 E708.3523
G0 F18000 X-71.439 Y62
G1 F720 X-76.558 Y62 E708.60769
G0 F18000 X-76.558 Y62.4
G1 F720 X-71.439 Y62.4 E708.86308
G0 F18000 X-71.439 Y62.8
G1 F720 X-76.558 Y62.8 E709.11847
G0 F18000 X-76.558 Y63.2
G1 F720 X-71.439 Y63.2 E709.37385
G0 F18000 X-71.439 Y63.6
G1 F720 X-76.558 Y63.6 E709.62924
G0 F18000 X-76.558 Y64
G1 F720 X-71.439 Y64 E709.88463
G0 F18000 X-71.439 Y64.4
G1 F720 X-76.558 Y64.4 E710.14002
G0 F18000 X-76.558 Y64.8
G1 F720 X-71.439 Y64.8 E710.39541
G0 F18000 X-71.439 Y65.2
G1 F720 X-76.558 Y65.2 E710.65079
G0 F18000 X-76.558 Y65.6
G1 F720 X-71.439 Y65.6 E710.90618
G0 F18000 X-71.439 Y66
G1 F720 X-76.558 Y66 E711.16157
G0 F18000 X-76.558 Y66.4
G1 F720 X-71.439 Y66.4 E711.41696
G0 F18000 X-71.439 Y66.8
G1 F720 X-76.558 Y66.8 E711.67235
G0 F18000 X-76.558 Y67.2
G1 F720 X-71.439 Y67.2 E711.92773
G0 F18000 X-71.439 Y67.6
G1 F720 X-76.558 Y67.6 E712.18312
G0 F18000 X-76.558 Y68
G1 F720 X-71.439 Y68 E712.43851
G0 F18000 X-71.439 Y68.4
G1 F720 X-76.558 Y68.4 E712.6939
G0 F18000 X-76.558 Y68.8
G1 F720 X-71.439 Y68.8 E712.94928
G0 F18000 X-71.439 Y69.2
G1 F720 X-76.558 Y69.2 E713.20467
G0 F18000 X-76.558 Y69.6
G1 F720 X-71.439 Y69.6 E713.46006
G0 F18000 X-71.439 Y70
G1 F720 X-76.558 Y70 E713.71545
G0 F18000 X-76.558 Y70.4
G1 F720 X-71.439 Y70.4 E713.97084
G0 F18000 X-71.439 Y70.8
G1 F720 X-76.558 Y70.8 E714.22622
G0 F18000 X-76.558 Y71.2
G1 F720 X-71.439 Y71.2 E714.48161
G0 F18000 X-71.439 Y71.6
G1 F720 X-76.558 Y71.6 E714.737
G0 F18000 X-76.558 Y72
G1 F720 X-71.439 Y72 E714.99239
G0 F18000 X-71.439 Y72.4
G1 F720 X-76.558 Y72.4 E715.24778
G0 F18000 X-76.558 Y72.8
G1 F720 X-71.439 Y72.8 E715.50316
G0 F18000 X-71.439 Y73.2
G1 F720 X-76.558 Y73.2 E715.75855
G0 F18000 X-76.558 Y73.6
G1 F720 X-71.439 Y73.6 E716.01394
G0 F18000 X-71.439 Y74
G1 F720 X-76.558 Y74 E716.26933
G0 F18000 X-76.558 Y74.4
G1 F720 X-71.439 Y74.4 E716.52472
G0 F18000 X-71.439 Y74.8
G1 F720 X-76.558 Y74.8 E716.7801
G0 F18000 X-76.558 Y75.2
G1 F720 X-71.439 Y75.2 E717.03549
G0 F18000 X-71.439 Y75.6
G1 F720 X-76.558 Y75.6 E717.29088
G0 F18000 X-76.558 Y76
G1 F720 X-71.439 Y76 E717.54627
G0 F18000 X-71.439 Y76.4
G1 F720 X-76.558 Y76.4 E717.80166
G0 F18000 X-76.558 Y76.8
G1 F720 X-71.439 Y76.8 E718.05704
G0 F18000 X-71.439 Y77.2
G1 F720 X-76.558 Y77.2 E718.31243
G0 F18000 X-76.558 Y77.6
G1 F720 X-71.439 Y77.6 E718.56782
G0 F18000 X-71.439 Y78
G1 F720 X-76.558 Y78 E718.82321
G0 F18000 X-76.558 Y78.4
G1 F720 X76.56 Y78.4 E726.4623
G0 F18000 X76.56 Y78.8
G1 F720 X-76.558 Y78.8 E734.10138
G0 F18000 X-76.558 Y79.2
G1 F720 X76.56 Y79.2 E741.74047
G0 F18000 X76.56 Y79.6
G1 F720 X-76.558 Y79.6 E749.37956
G0 F18000 X-76.558 Y80
G1 F720 X76.56 Y80 E757.01865
G0 F18000 X76.56 Y80.4
G1 F720 X-76.558 Y80.4 E764.65774
G0 F18000 X-76.558 Y80.8
G1 F720 X76.56 Y80.8 E772.29682
G0 F18000 X76.56 Y81.2
G1 F720 X-76.558 Y81.2 E779.93591
G0 F18000 X-76.558 Y81.6
G1 F720 X76.56 Y81.6 E787.575
G0 F18000 X76.56 Y82
G1 F720 X-76.558 Y82 E795.21409
G0 F18000 X-76.558 Y82.4
G1 F720 X76.56 Y82.4 E802.85318
G0 F18000 X76.56 Y82.8
G1 F720 X-76.558 Y82.8 E810.49226
G0 F18000 X-76.558 Y83.2
G1 F720 X76.56 Y83.2 E818.13135
; Layer Change GCode
; LAYER:1
G0 F18000 X-76.797 Y83.673 Z0.5
G0 X-77.197 Y83.675
G0 X-76.988 Y83.675
G0 X-76.988 Y83.675
G0 X-77.248 Y84.025
G0 X-77.248 Y84.025
G0 X-76.748 Y83.525
; TYPE:WALL-INNER
G1 F2400 X-76.748 Y83.525 E818.13135
G1 X-76.748 Y-83.523 E825.0764
G1 X76.75 Y-83.523 E831.45811
G1 X76.75 Y83.525 E838.40315
G1 X-76.748 Y83.525 E844.78486
G0 F18000 X-77.248 Y84.025
; TYPE:WALL-OUTER
G1 F2100 X-77.248 Y84.025 E844.78486
G1 X-77.248 Y-84.023 E851.77148
G1 X77.25 Y-84.023 E858.19476
G1 X77.25 Y84.025 E865.18139
G1 X-77.248 Y84.025 E871.60467
G0 F18000 X-76.988 Y83.675
G0 X-71.249 Y78.025
G0 X-71.249 Y78.025
; TYPE:WALL-INNER
G1 F2400 X-71.249 Y78.025 E871.60467
G1 X-1.749 Y78.025 E874.49414
G1 X-1.749 Y13.525 E877.17574
G1 X-71.249 Y13.525 E880.06522
G1 X-71.249 Y78.025 E882.74681
G0 F18000 X-70.749 Y77.525
; TYPE:WALL-OUTER
G1 F2100 X-70.749 Y77.525 E882.74681
G1 X-2.249 Y77.525 E885.59471
G1 X-2.249 Y14.025 E888.23474
G1 X-70.749 Y14.025 E891.08264
G1 X-70.749 Y77.525 E893.72266
G1 F6600 E886.92266
G1 Z0.8
G0 F18000 X-71.099 Y77.525
G0 X-71.249 Y10.025
G0 X-71.249 Y10.025
; TYPE:WALL-INNER
G1 Z0.5
G1 F6600 E893.82266
G1 F2400 X-71.249 Y10.025 E893.82266
G1 X-1.749 Y10.025 E896.71213
G1 X-1.749 Y-54.474 E899.39369
G1 X-71.249 Y-54.474 E902.28316
G1 X-71.249 Y10.025 E904.96472
G0 F18000 X-70.749 Y9.525
; TYPE:WALL-OUTER
G1 F2100 X-70.749 Y9.525 E904.96472
G1 X-2.249 Y9.525 E907.81262
G1 X-2.249 Y-53.974 E910.4526
G1 X-70.749 Y-53.974 E913.3005
G1 X-70.749 Y9.525 E915.94048
G1 F6600 E909.14048
G1 Z0.8
G0 F18000 X-71.099 Y9.525
G0 X-76.249 Y-59.974
G0 X-76.249 Y-59.974
; TYPE:WALL-INNER
G1 Z0.5
G1 F6600 E916.04048
G1 F2400 X-76.249 Y-59.974 E916.04048
G1 X76.25 Y-59.974 E922.38065
G1 X76.25 Y-79.474 E923.19137
G1 X-76.249 Y-79.474 E929.53154
G1 X-76.249 Y-59.974 E930.34226
G0 F18000 X-75.749 Y-60.474
; TYPE:WALL-OUTER
G1 F2100 X-75.749 Y-60.474 E930.34226
G1 X75.75 Y-60.474 E936.64085
G1 X75.75 Y-78.974 E937.40999
G1 X-75.749 Y-78.974 E943.70859
G1 X-75.749 Y-60.474 E944.47773
G1 F6600 E937.67773
G1 Z0.8
G0 F18000 X-76.099 Y-60.474
G0 X-76.198 Y-60.481
G0 X-76.14 Y-60.083
G0 X-72.651 Y-60.207
G0 X1.749 Y-54.474
G0 X1.749 Y-54.474
; TYPE:WALL-INNER
G1 Z0.5
G1 F6600 E944.57773
G1 F2400 X1.749 Y-54.474 E944.57773
G1 X1.749 Y10.025 E947.25929
G1 X71.25 Y10.025 E950.1488
G1 X71.25 Y-54.475 E952.8304
G1 X1.749 Y-54.474 E955.71992
G0 F18000 X1.899 Y9.525
G0 X1.899 Y9.525
G0 X2.249 Y9.525
; TYPE:WALL-OUTER
G1 F2100 X2.249 Y9.525 E955.71992
G1 X70.75 Y9.525 E958.56786
G1 X70.75 Y-53.975 E961.20788
G1 X2.249 Y-53.974 E964.05582
G1 X2.249 Y9.525 E966.6958
G0 F18000 X1.899 Y9.525
G0 X1.749 Y13.525
G0 X1.749 Y13.525
; TYPE:WALL-INNER
G1 F2400 X1.749 Y13.525 E966.6958
G1 X1.749 Y78.025 E969.3774
G1 X71.25 Y78.025 E972.26692
G1 X71.25 Y13.525 E974.94852
G1 X1.749 Y13.525 E977.83803
G0 F18000 X1.899 Y77.525
G0 X1.899 Y77.525
G0 X2.249 Y77.525
; TYPE:WALL-OUTER
G1 F2100 X2.249 Y77.525 E977.83803
G1 X70.75 Y77.525 E980.68597
G1 X70.75 Y14.025 E983.326
G1 X2.249 Y14.025 E986.17394
G1 X2.249 Y77.525 E988.81396
G0 F18000 X2 Y78.465
; TYPE:FILL
G1 F2400 X2 Y83.085 E989.00604
G0 F18000 X1.5 Y83.085
G1 F2400 X1.5 Y78.465 E989.19812
G0 F18000 X2.5 Y78.465
G1 F2400 X2.5 Y83.085 E989.39019
G0 F18000 X3 Y83.085
G1 F2400 X3 Y78.465 E989.58227
G0 F18000 X3.5 Y78.465
G1 F2400 X3.5 Y83.085 E989.77435
G0 F18000 X4 Y83.085
G1 F2400 X4 Y78.465 E989.96642
G0 F18000 X4.5 Y78.465
G1 F2400 X4.5 Y83.085 E990.1585
G0 F18000 X5 Y83.085
G1 F2400 X5 Y78.465 E990.35058
G0 F18000 X5.5 Y78.465
G1 F2400 X5.5 Y83.085 E990.54266
G0 F18000 X6 Y83.085
G1 F2400 X6 Y78.465 E990.73473
G0 F18000 X6.5 Y78.465
G1 F2400 X6.5 Y83.085 E990.92681
G0 F18000 X7 Y83.085
G1 F2400 X7 Y78.465 E991.11889
G0 F18000 X7.5 Y78.465
G1 F2400 X7.5 Y83.085 E991.31097
G0 F18000 X8 Y83.085
G1 F2400 X8 Y78.465 E991.50304
G0 F18000 X8.5 Y78.465
G1 F2400 X8.5 Y83.085 E991.69512
G0 F18000 X9 Y83.085
G1 F2400 X9 Y78.465 E991.8872
G0 F18000 X9.5 Y78.465
G1 F2400 X9.5 Y83.085 E992.07927
G0 F18000 X10 Y83.085
G1 F2400 X10 Y78.465 E992.27135
G0 F18000 X10.5 Y78.465
G1 F2400 X10.5 Y83.085 E992.46343
G0 F18000 X11 Y83.085
G1 F2400 X11 Y78.465 E992.65551
G0 F18000 X11.5 Y78.465
G1 F2400 X11.5 Y83.085 E992.84758
G0 F18000 X12 Y83.085
G1 F2400 X12 Y78.465 E993.03966
G0 F18000 X12.5 Y78.465
G1 F2400 X12.5 Y83.085 E993.23174
G0 F18000 X13 Y83.085
G1 F2400 X13 Y78.465 E993.42382
G0 F18000 X13.5 Y78.465
G1 F2400 X13.5 Y83.085 E993.61589
G0 F18000 X14 Y83.085
G1 F2400 X14 Y78.465 E993.80797
G0 F18000 X14.5 Y78.465
G1 F2400 X14.5 Y83.085 E994.00005
G0 F18000 X15 Y83.085
G1 F2400 X15 Y78.465 E994.19212
G0 F18000 X15.5 Y78.465
G1 F2400 X15.5 Y83.085 E994.3842
G0 F18000 X16 Y83.085
G1 F2400 X16 Y78.465 E994.57628
G0 F18000 X16.5 Y78.465
G1 F2400 X16.5 Y83.085 E994.76836
G0 F18000 X17 Y83.085
G1 F2400 X17 Y78.465 E994.96043
G0 F18000 X17.5 Y78.465
G1 F2400 X17.5 Y83.085 E995.15251
G0 F18000 X18 Y83.085
G1 F2400 X18 Y78.465 E995.34459
G0 F18000 X18.5 Y78.465
G1 F2400 X18.5 Y83.085 E995.53667
G0 F18000 X19 Y83.085
G1 F2400 X19 Y78.465 E995.72874
G0 F18000 X19.5 Y78.465
G1 F2400 X19.5 Y83.085 E995.92082
G0 F18000 X20 Y83.085
G1 F2400 X20 Y78.465 E996.1129
G0 F18000 X20.5 Y78.465
G1 F2400 X20.5 Y83.085 E996.30497
G0 F18000 X21 Y83.085
G1 F2400 X21 Y78.465 E996.49705
G0 F18000 X21.5 Y78.465
G1 F2400 X21.5 Y83.085 E996.68913
G0 F18000 X22 Y83.085
G1 F2400 X22 Y78.465 E996.88121
G0 F18000 X22.5 Y78.465
G1 F2400 X22.5 Y83.085 E997.07328
G0 F18000 X23 Y83.085
G1 F2400 X23 Y78.465 E997.26536
G0 F18000 X23.5 Y78.465
G1 F2400 X23.5 Y83.085 E997.45744
G0 F18000 X24 Y83.085
G1 F2400 X24 Y78.465 E997.64952
G0 F18000 X24.5 Y78.465
G1 F2400 X24.5 Y83.085 E997.84159
G0 F18000 X25 Y83.085
G1 F2400 X25 Y78.465 E998.03367
G0 F18000 X25.5 Y78.465
G1 F2400 X25.5 Y83.085 E998.22575
G0 F18000 X26 Y83.085
G1 F2400 X26 Y78.465 E998.41782
G0 F18000 X26.5 Y78.465
G1 F2400 X26.5 Y83.085 E998.6099
G0 F18000 X27 Y83.085
G1 F2400 X27 Y78.465 E998.80198
G0 F18000 X27.5 Y78.465
G1 F2400 X27.5 Y83.085 E998.99406
G0 F18000 X28 Y83.085
G1 F2400 X28 Y78.465 E999.18613
G0 F18000 X28.5 Y78.465
G1 F2400 X28.5 Y83.085 E999.37821
G0 F18000 X29 Y83.085
G1 F2400 X29 Y78.465 E999.57029
G0 F18000 X29.5 Y78.465
G1 F2400 X29.5 Y83.085 E999.76237
G0 F18000 X30 Y83.085
G1 F2400 X30 Y78.465 E999.95444
G0 F18000 X30.5 Y78.465
G1 F2400 X30.5 Y83.085 E1000.14652
G0 F18000 X31 Y83.085
G1 F2400 X31 Y78.465 E1000.3386
G0 F18000 X31.5 Y78.465
G1 F2400 X31.5 Y83.085 E1000.53067
G0 F18000 X32 Y83.085
G1 F2400 X32 Y78.465 E1000.72275
G0 F18000 X32.5 Y78.465
G1 F2400 X32.5 Y83.085 E1000.91483
G0 F18000 X33 Y83.085
G1 F2400 X33 Y78.465 E1001.10691
G0 F18000 X33.5 Y78.465
G1 F2400 X33.5 Y83.085 E1001.29898
G0 F18000 X34 Y83.085
G1 F2400 X34 Y78.465 E1001.49106
G0 F18000 X34.5 Y78.465
G1 F2400 X34.5 Y83.085 E1001.68314
G0 F18000 X35 Y83.085
G1 F2400 X35 Y78.465 E1001.87522
G0 F18000 X35.5 Y78.465
G1 F2400 X35.5 Y83.085 E1002.06729
G0 F18000 X36 Y83.085
G1 F2400 X36 Y78.465 E1002.25937
G0 F18000 X36.5 Y78.465
G1 F2400 X36.5 Y83.085 E1002.45145
G0 F18000 X37 Y83.085
G1 F2400 X37 Y78.465 E1002.64352
G0 F18000 X37.5 Y78.465
G1 F2400 X37.5 Y83.085 E1002.8356
G0 F18000 X38 Y83.085
G1 F2400 X38 Y78.465 E1003.02768
G0 F18000 X38.5 Y78.465
G1 F2400 X38.5 Y83.085 E1003.21976
G0 F18000 X39 Y83.085
G1 F2400 X39 Y78.465 E1003.41183
G0 F18000 X39.5 Y78.465
G1 F2400 X39.5 Y83.085 E1003.60391
G0 F18000 X40 Y83.085
G1 F2400 X40 Y78.465 E1003.79599
G0 F18000 X40.5 Y78.465
G1 F2400 X40.5 Y83.085 E1003.98807
G0 F18000 X41 Y83.085
G1 F2400 X41 Y78.465 E1004.18014
G0 F18000 X41.5 Y78.465
G1 F2400 X41.5 Y83.085 E1004.37222
G0 F18000 X42 Y83.085
G1 F2400 X42 Y78.465 E1004.5643
G0 F18000 X42.5 Y78.465
G1 F2400 X42.5 Y83.085 E1004.75637
G0 F18000 X43 Y83.085
G1 F2400 X43 Y78.465 E1004.94845
G0 F18000 X43.5 Y78.465
G1 F2400 X43.5 Y83.085 E1005.14053
G0 F18000 X44 Y83.085
G1 F2400 X44 Y78.465 E1005.33261
G0 F18000 X44.5 Y78.465
G1 F2400 X44.5 Y83.085 E1005.52468
G0 F18000 X45 Y83.085
G1 F2400 X45 Y78.465 E1005.71676
G0 F18000 X45.5 Y78.465
G1 F2400 X45.5 Y83.085 E1005.90884
G0 F18000 X46 Y83.085
G1 F2400 X46 Y78.465 E1006.10092
G0 F18000 X46.5 Y78.465
G1 F2400 X46.5 Y83.085 E1006.29299
G0 F18000 X47 Y83.085
G1 F2400 X47 Y78.465 E1006.48507
G0 F18000 X47.5 Y78.465
G1 F2400 X47.5 Y83.085 E1006.67715
G0 F18000 X48 Y83.085
G1 F2400 X48 Y78.465 E1006.86922
G0 F18000 X48.5 Y78.465
G1 F2400 X48.5 Y83.085 E1007.0613
G0 F18000 X49 Y83.085
G1 F2400 X49 Y78.465 E1007.25338
G0 F18000 X49.5 Y78.465
G1 F2400 X49.5 Y83.085 E1007.44546
G0 F18000 X50 Y83.085
G1 F2400 X50 Y78.465 E1007.63753
G0 F18000 X50.5 Y78.465
G1 F2400 X50.5 Y83.085 E1007.82961
G0 F18000 X51 Y83.085
G1 F2400 X51 Y78.465 E1008.02169
G0 F18000 X51.5 Y78.465
G1 F2400 X51.5 Y83.085 E1008.21377
G0 F18000 X52 Y83.085
G1 F2400 X52 Y78.465 E1008.40584
G0 F18000 X52.5 Y78.465
G1 F2400 X52.5 Y83.085 E1008.59792
G0 F18000 X53 Y83.085
G1 F2400 X53 Y78.465 E1008.79
G0 F18000 X53.5 Y78.465
G1 F2400 X53.5 Y83.085 E1008.98207
G0 F18000 X54 Y83.085
G1 F2400 X54 Y78.465 E1009.17415
G0 F18000 X54.5 Y78.465
G1 F2400 X54.5 Y83.085 E1009.36623
G0 F18000 X55 Y83.085
G1 F2400 X55 Y78.465 E1009.55831
G0 F18000 X55.5 Y78.465
G1 F2400 X55.5 Y83.085 E1009.75038
G0 F18000 X56 Y83.085
G1 F2400 X56 Y78.465 E1009.94246
G0 F18000 X56.5 Y78.465
G1 F2400 X56.5 Y83.085 E1010.13454
G0 F18000 X57 Y83.085
G1 F2400 X57 Y78.465 E1010.32662
G0 F18000 X57.5 Y78.465
G1 F2400 X57.5 Y83.085 E1010.51869
G0 F18000 X58 Y83.085
G1 F2400 X58 Y78.465 E1010.71077
G0 F18000 X58.5 Y78.465
G1 F2400 X58.5 Y83.085 E1010.90285
G0 F18000 X59 Y83.085
G1 F2400 X59 Y78.465 E1011.09492
G0 F18000 X59.5 Y78.464
G1 F2400 X59.5 Y83.084 E1011.287
G0 F18000 X60 Y83.084
G1 F2400 X60 Y78.464 E1011.47908
G0 F18000 X60.5 Y78.464
G1 F2400 X60.5 Y83.084 E1011.67116
G0 F18000 X61 Y83.084
G1 F2400 X61 Y78.464 E1011.86323
G0 F18000 X61.5 Y78.464
G1 F2400 X61.5 Y83.084 E1012.05531
G0 F18000 X62 Y83.084
G1 F2400 X62 Y78.464 E1012.24739
G0 F18000 X62.5 Y78.464
G1 F2400 X62.5 Y83.084 E1012.43947
G0 F18000 X63 Y83.084
G1 F2400 X63 Y78.464 E1012.63154
G0 F18000 X63.5 Y78.464
G1 F2400 X63.5 Y83.084 E1012.82362
G0 F18000 X64 Y83.084
G1 F2400 X64 Y78.464 E1013.0157
G0 F18000 X64.5 Y78.464
G1 F2400 X64.5 Y83.084 E1013.20778
G0 F18000 X65 Y83.084
G1 F2400 X65 Y78.464 E1013.39985
G0 F18000 X65.5 Y78.464
G1 F2400 X65.5 Y83.084 E1013.59193
G0 F18000 X66 Y83.084
G1 F2400 X66 Y78.464 E1013.78401
G0 F18000 X66.5 Y78.464
G1 F2400 X66.5 Y83.084 E1013.97608
G0 F18000 X67 Y83.084
G1 F2400 X67 Y78.464 E1014.16816
G0 F18000 X67.5 Y78.464
G1 F2400 X67.5 Y83.084 E1014.36024
G0 F18000 X68 Y83.084
G1 F2400 X68 Y78.464 E1014.55232
G0 F18000 X68.5 Y78.464
G1 F2400 X68.5 Y83.084 E1014.74439
G0 F18000 X69 Y83.084
G1 F2400 X69 Y78.464 E1014.93647
G0 F18000 X69.5 Y78.464
G1 F2400 X69.5 Y83.084 E1015.12855
G0 F18000 X70 Y83.084
G1 F2400 X70 Y78.464 E1015.32063
G0 F18000 X70.5 Y78.464
G1 F2400 X70.5 Y83.084 E1015.5127
G0 F18000 X71 Y83.084
G1 F2400 X71 Y78.464 E1015.70478
G0 F18000 X71.5 Y78.464
G1 F2400 X71.5 Y83.084 E1015.89686
G0 F18000 X72 Y83.084
G1 F2400 X71.999 Y-59.533 E1021.82618
G0 F18000 X71.499 Y-59.533
G1 F2400 X71.5 Y-54.914 E1022.01822
G0 F18000 X71 Y-54.914
G1 F2400 X70.999 Y-59.533 E1022.21025
G0 F18000 X70.499 Y-59.533
G1 F2400 X70.5 Y-54.914 E1022.40229
G0 F18000 X70 Y-54.914
G1 F2400 X69.999 Y-59.533 E1022.59433
G0 F18000 X69.499 Y-59.533
G1 F2400 X69.5 Y-54.914 E1022.78636
G0 F18000 X69 Y-54.914
G1 F2400 X68.999 Y-59.533 E1022.9784
G0 F18000 X68.499 Y-59.533
G1 F2400 X68.5 Y-54.914 E1023.17043
G0 F18000 X68 Y-54.914
G1 F2400 X67.999 Y-59.533 E1023.36247
G0 F18000 X67.499 Y-59.533
G1 F2400 X67.5 Y-54.914 E1023.5545
G0 F18000 X67 Y-54.914
G1 F2400 X66.999 Y-59.533 E1023.74654
G0 F18000 X66.499 Y-59.533
G1 F2400 X66.5 Y-54.914 E1023.93858
G0 F18000 X66 Y-54.914
G1 F2400 X65.999 Y-59.533 E1024.13061
G0 F18000 X65.499 Y-59.533
G1 F2400 X65.499 Y-54.914 E1024.32265
G0 F18000 X64.999 Y-54.914
G1 F2400 X64.999 Y-59.533 E1024.51468
G0 F18000 X64.499 Y-59.533
G1 F2400 X64.499 Y-54.914 E1024.70672
G0 F18000 X63.999 Y-54.914
G1 F2400 X63.999 Y-59.533 E1024.89875
G0 F18000 X63.499 Y-59.533
G1 F2400 X63.499 Y-54.914 E1025.09079
G0 F18000 X62.999 Y-54.914
G1 F2400 X62.999 Y-59.533 E1025.28283
G0 F18000 X62.499 Y-59.533
G1 F2400 X62.499 Y-54.914 E1025.47486
G0 F18000 X61.999 Y-54.914
G1 F2400 X61.999 Y-59.533 E1025.6669
G0 F18000 X61.499 Y-59.533
G1 F2400 X61.499 Y-54.914 E1025.85893
G0 F18000 X60.999 Y-54.914
G1 F2400 X60.999 Y-59.533 E1026.05097
G0 F18000 X60.499 Y-59.533
G1 F2400 X60.499 Y-54.914 E1026.243
G0 F18000 X59.999 Y-54.914
G1 F2400 X59.999 Y-59.533 E1026.43504
G0 F18000 X59.499 Y-59.533
G1 F2400 X59.499 Y-54.914 E1026.62708
G0 F18000 X58.999 Y-54.914
G1 F2400 X58.999 Y-59.533 E1026.81911
G0 F18000 X58.499 Y-59.533
G1 F2400 X58.499 Y-54.914 E1027.01115
G0 F18000 X57.999 Y-54.914
G1 F2400 X57.999 Y-59.533 E1027.20318
G0 F18000 X57.499 Y-59.533
G1 F2400 X57.499 Y-54.914 E1027.39522
G0 F18000 X56.999 Y-54.914
G1 F2400 X56.999 Y-59.533 E1027.58725
G0 F18000 X56.499 Y-59.533
G1 F2400 X56.499 Y-54.914 E1027.77929
G0 F18000 X55.999 Y-54.914
G1 F2400 X55.999 Y-59.533 E1027.97133
G0 F18000 X55.499 Y-59.533
G1 F2400 X55.499 Y-54.914 E1028.16336
G0 F18000 X54.999 Y-54.914
G1 F2400 X54.999 Y-59.533 E1028.3554
G0 F18000 X54.499 Y-59.533
G1 F2400 X54.499 Y-54.914 E1028.54743
G0 F18000 X53.999 Y-54.914
G1 F2400 X53.999 Y-59.533 E1028.73947
G0 F18000 X53.499 Y-59.533
G1 F2400 X53.499 Y-54.914 E1028.9315
G0 F18000 X52.999 Y-54.914
G1 F2400 X52.999 Y-59.533 E1029.12354
G0 F18000 X52.499 Y-59.533
G1 F2400 X52.499 Y-54.914 E1029.31558
G0 F18000 X51.999 Y-54.914
G1 F2400 X51.999 Y-59.533 E1029.50761
G0 F18000 X51.499 Y-59.533
G1 F2400 X51.499 Y-54.914 E1029.69965
G0 F18000 X50.999 Y-54.914
G1 F2400 X50.999 Y-59.533 E1029.89168
G0 F18000 X50.499 Y-59.533
G1 F2400 X50.499 Y-54.914 E1030.08372
G0 F18000 X49.999 Y-54.914
G1 F2400 X49.999 Y-59.533 E1030.27575
G0 F18000 X49.499 Y-59.533
G1 F2400 X49.499 Y-54.914 E1030.46779
G0 F18000 X48.999 Y-54.914
G1 F2400 X48.999 Y-59.533 E1030.65983
G0 F18000 X48.499 Y-59.533
G1 F2400 X48.499 Y-54.914 E1030.85186
G0 F18000 X47.999 Y-54.914
G1 F2400 X47.999 Y-59.533 E1031.0439
G0 F18000 X47.499 Y-59.533
G1 F2400 X47.499 Y-54.914 E1031.23593
G0 F18000 X46.999 Y-54.914
G1 F2400 X46.999 Y-59.533 E1031.42797
G0 F18000 X46.499 Y-59.533
G1 F2400 X46.499 Y-54.914 E1031.62
G0 F18000 X45.999 Y-54.914
G1 F2400 X45.999 Y-59.533 E1031.81204
G0 F18000 X45.499 Y-59.533
G1 F2400 X45.499 Y-54.914 E1032.00408
G0 F18000 X44.999 Y-54.914
G1 F2400 X44.999 Y-59.533 E1032.19611
G0 F18000 X44.499 Y-59.533
G1 F2400 X44.499 Y-54.914 E1032.38815
G0 F18000 X43.999 Y-54.914
G1 F2400 X43.999 Y-59.533 E1032.58018
G0 F18000 X43.499 Y-59.533
G1 F2400 X43.499 Y-54.914 E1032.77222
G0 F18000 X42.999 Y-54.914
G1 F2400 X42.999 Y-59.533 E1032.96425
G0 F18000 X42.499 Y-59.533
G1 F2400 X42.499 Y-54.914 E1033.15629
G0 F18000 X41.999 Y-54.914
G1 F2400 X41.999 Y-59.533 E1033.34833
G0 F18000 X41.499 Y-59.533
G1 F2400 X41.499 Y-54.914 E1033.54036
G0 F18000 X40.999 Y-54.914
G1 F2400 X40.999 Y-59.533 E1033.7324
G0 F18000 X40.499 Y-59.533
G1 F2400 X40.499 Y-54.914 E1033.92443
G0 F18000 X39.999 Y-54.914
G1 F2400 X39.999 Y-59.533 E1034.11647
G0 F18000 X39.499 Y-59.533
G1 F2400 X39.499 Y-54.914 E1034.3085
G0 F18000 X38.999 Y-54.914
G1 F2400 X38.999 Y-59.533 E1034.50054
G0 F18000 X38.499 Y-59.533
G1 F2400 X38.499 Y-54.914 E1034.69258
G0 F18000 X37.999 Y-54.914
G1 F2400 X37.999 Y-59.533 E1034.88461
G0 F18000 X37.499 Y-59.533
G1 F2400 X37.499 Y-54.914 E1035.07665
G0 F18000 X36.999 Y-54.914
G1 F2400 X36.999 Y-59.533 E1035.26868
G0 F18000 X36.499 Y-59.533
G1 F2400 X36.499 Y-54.914 E1035.46072
G0 F18000 X35.999 Y-54.914
G1 F2400 X35.999 Y-59.533 E1035.65275
G0 F18000 X35.499 Y-59.533
G1 F2400 X35.499 Y-54.914 E1035.84479
G0 F18000 X34.999 Y-54.914
G1 F2400 X34.999 Y-59.533 E1036.03683
G0 F18000 X34.499 Y-59.533
G1 F2400 X34.499 Y-54.914 E1036.22886
G0 F18000 X33.999 Y-54.914
G1 F2400 X33.999 Y-59.533 E1036.4209
G0 F18000 X33.499 Y-59.533
G1 F2400 X33.499 Y-54.914 E1036.61293
G0 F18000 X32.999 Y-54.914
G1 F2400 X32.999 Y-59.533 E1036.80497
G0 F18000 X32.499 Y-59.533
G1 F2400 X32.499 Y-54.914 E1036.997
G0 F18000 X31.999 Y-54.914
G1 F2400 X31.999 Y-59.533 E1037.18904
G0 F18000 X31.499 Y-59.533
G1 F2400 X31.499 Y-54.914 E1037.38107
G0 F18000 X30.999 Y-54.914
G1 F2400 X30.999 Y-59.533 E1037.57311
G0 F18000 X30.499 Y-59.533
G1 F2400 X30.499 Y-54.914 E1037.76515
G0 F18000 X29.999 Y-54.914
G1 F2400 X29.999 Y-59.533 E1037.95718
G0 F18000 X29.499 Y-59.533
G1 F2400 X29.499 Y-54.914 E1038.14922
G0 F18000 X28.999 Y-54.914
G1 F2400 X28.999 Y-59.533 E1038.34125
G0 F18000 X28.499 Y-59.533
G1 F2400 X28.499 Y-54.914 E1038.53329
G0 F18000 X27.999 Y-54.914
G1 F2400 X27.999 Y-59.533 E1038.72532
G0 F18000 X27.499 Y-59.533
G1 F2400 X27.499 Y-54.914 E1038.91736
G0 F18000 X26.999 Y-54.914
G1 F2400 X26.999 Y-59.533 E1039.1094
G0 F18000 X26.499 Y-59.533
G1 F2400 X26.499 Y-54.914 E1039.30143
G0 F18000 X25.999 Y-54.914
G1 F2400 X25.999 Y-59.533 E1039.49347
G0 F18000 X25.499 Y-59.533
G1 F2400 X25.499 Y-54.914 E1039.6855
G0 F18000 X24.999 Y-54.914
G1 F2400 X24.999 Y-59.533 E1039.87754
G0 F18000 X24.499 Y-59.533
G1 F2400 X24.499 Y-54.914 E1040.06957
G0 F18000 X23.999 Y-54.914
G1 F2400 X23.999 Y-59.533 E1040.26161
G0 F18000 X23.499 Y-59.533
G1 F2400 X23.499 Y-54.914 E1040.45365
G0 F18000 X22.999 Y-54.914
G1 F2400 X22.999 Y-59.533 E1040.64568
G0 F18000 X22.499 Y-59.533
G1 F2400 X22.499 Y-54.914 E1040.83772
G0 F18000 X21.999 Y-54.914
G1 F2400 X21.999 Y-59.533 E1041.02975
G0 F18000 X21.499 Y-59.533
G1 F2400 X21.499 Y-54.914 E1041.22179
G0 F18000 X20.999 Y-54.914
G1 F2400 X20.999 Y-59.533 E1041.41382
G0 F18000 X20.499 Y-59.533
G1 F2400 X20.499 Y-54.914 E1041.60586
G0 F18000 X19.999 Y-54.914
G1 F2400 X19.999 Y-59.533 E1041.7979
G0 F18000 X19.499 Y-59.533
G1 F2400 X19.499 Y-54.914 E1041.98993
G0 F18000 X18.999 Y-54.914
G1 F2400 X18.999 Y-59.533 E1042.18197
G0 F18000 X18.499 Y-59.533
G1 F2400 X18.499 Y-54.914 E1042.374
G0 F18000 X17.999 Y-54.914
G1 F2400 X17.999 Y-59.533 E1042.56604
G0 F18000 X17.499 Y-59.533
G1 F2400 X17.499 Y-54.914 E1042.75807
G0 F18000 X16.999 Y-54.914
G1 F2400 X16.999 Y-59.533 E1042.95011
G0 F18000 X16.499 Y-59.533
G1 F2400 X16.499 Y-54.914 E1043.14215
G0 F18000 X15.999 Y-54.914
G1 F2400 X15.999 Y-59.533 E1043.33418
G0 F18000 X15.499 Y-59.533
G1 F2400 X15.499 Y-54.914 E1043.52622
G0 F18000 X14.999 Y-54.914
G1 F2400 X14.999 Y-59.533 E1043.71825
G0 F18000 X14.499 Y-59.533
G1 F2400 X14.499 Y-54.914 E1043.91029
G0 F18000 X13.999 Y-54.914
G1 F2400 X13.999 Y-59.533 E1044.10232
G0 F18000 X13.499 Y-59.533
G1 F2400 X13.499 Y-54.914 E1044.29436
G0 F18000 X12.999 Y-54.914
G1 F2400 X12.999 Y-59.533 E1044.4864
G0 F18000 X12.499 Y-59.533
G1 F2400 X12.499 Y-54.914 E1044.67843
G0 F18000 X11.999 Y-54.914
G1 F2400 X11.999 Y-59.533 E1044.87047
G0 F18000 X11.499 Y-59.533
G1 F2400 X11.499 Y-54.914 E1045.0625
G0 F18000 X10.999 Y-54.914
G1 F2400 X10.999 Y-59.533 E1045.25454
G0 F18000 X10.499 Y-59.533
G1 F2400 X10.499 Y-54.914 E1045.44657
G0 F18000 X9.999 Y-54.914
G1 F2400 X9.999 Y-59.533 E1045.63861
G0 F18000 X9.499 Y-59.533
G1 F2400 X9.499 Y-54.914 E1045.83065
G0 F18000 X8.999 Y-54.914
G1 F2400 X8.999 Y-59.533 E1046.02268
G0 F18000 X8.499 Y-59.533
G1 F2400 X8.499 Y-54.914 E1046.21472
G0 F18000 X7.999 Y-54.914
G1 F2400 X7.999 Y-59.533 E1046.40675
G0 F18000 X7.499 Y-59.533
G1 F2400 X7.499 Y-54.914 E1046.59879
G0 F18000 X6.999 Y-54.914
G1 F2400 X6.999 Y-59.533 E1046.79082
G0 F18000 X6.499 Y-59.533
G1 F2400 X6.499 Y-54.914 E1046.98286
G0 F18000 X5.999 Y-54.914
G1 F2400 X5.999 Y-59.533 E1047.1749
G0 F18000 X5.499 Y-59.533
G1 F2400 X5.499 Y-54.914 E1047.36693
G0 F18000 X4.999 Y-54.914
G1 F2400 X4.999 Y-59.533 E1047.55897
G0 F18000 X4.499 Y-59.533
G1 F2400 X4.499 Y-54.914 E1047.751
G0 F18000 X3.999 Y-54.914
G1 F2400 X3.999 Y-59.533 E1047.94304
G0 F18000 X3.499 Y-59.533
G1 F2400 X3.499 Y-54.914 E1048.13507
G0 F18000 X2.999 Y-54.914
G1 F2400 X2.999 Y-59.533 E1048.32711
G0 F18000 X2.499 Y-59.533
G1 F2400 X2.499 Y-54.914 E1048.51915
G0 F18000 X1.999 Y-54.914
G1 F2400 X1.999 Y-59.533 E1048.71118
G0 F18000 X1.499 Y-59.533
G1 F2400 X1.499 Y-54.914 E1048.90322
G0 F18000 X-1.5 Y-54.914
G1 F2400 X-1.5 Y-59.534 E1049.09529
G0 F18000 X-2 Y-59.534
G1 F2400 X-2 Y-54.914 E1049.28737
G0 F18000 X-2.5 Y-54.914
G1 F2400 X-2.5 Y-59.534 E1049.47945
G0 F18000 X-3 Y-59.534
G1 F2400 X-3 Y-54.914 E1049.67153
G0 F18000 X-3.5 Y-54.914
G1 F2400 X-3.5 Y-59.534 E1049.8636
G0 F18000 X-4 Y-59.534
G1 F2400 X-4 Y-54.914 E1050.05568
G0 F18000 X-4.5 Y-54.914
G1 F2400 X-4.5 Y-59.534 E1050.24776
G0 F18000 X-5 Y-59.534
G1 F2400 X-5 Y-54.914 E1050.43984
G0 F18000 X-5.5 Y-54.914
G1 F2400 X-5.5 Y-59.534 E1050.63191
G0 F18000 X-6 Y-59.534
G1 F2400 X-6 Y-54.914 E1050.82399
G0 F18000 X-6.5 Y-54.914
G1 F2400 X-6.5 Y-59.534 E1051.01607
G0 F18000 X-7 Y-59.534
G1 F2400 X-7 Y-54.914 E1051.20814
G0 F18000 X-7.5 Y-54.914
G1 F2400 X-7.5 Y-59.534 E1051.40022
G0 F18000 X-8 Y-59.534
G1 F2400 X-8 Y-54.914 E1051.5923
G0 F18000 X-8.5 Y-54.914
G1 F2400 X-8.5 Y-59.534 E1051.78438
G0 F18000 X-9 Y-59.534
G1 F2400 X-9 Y-54.914 E1051.97645
G0 F18000 X-9.5 Y-54.914
G1 F2400 X-9.5 Y-59.534 E1052.16853
G0 F18000 X-10 Y-59.534
G1 F2400 X-10 Y-54.914 E1052.36061
G0 F18000 X-10.5 Y-54.914
G1 F2400 X-10.5 Y-59.534 E1052.55269
G0 F18000 X-11 Y-59.534
G1 F2400 X-11 Y-54.914 E1052.74476
G0 F18000 X-11.5 Y-54.914
G1 F2400 X-11.5 Y-59.534 E1052.93684
G0 F18000 X-12 Y-59.534
G1 F2400 X-12 Y-54.914 E1053.12892
G0 F18000 X-12.5 Y-54.914
G1 F2400 X-12.5 Y-59.534 E1053.32099
G0 F18000 X-13 Y-59.534
G1 F2400 X-13 Y-54.914 E1053.51307
G0 F18000 X-13.5 Y-54.914
G1 F2400 X-13.5 Y-59.534 E1053.70515
G0 F18000 X-14 Y-59.534
G1 F2400 X-14 Y-54.914 E1053.89723
G0 F18000 X-14.5 Y-54.914
G1 F2400 X-14.5 Y-59.534 E1054.0893
G0 F18000 X-15 Y-59.534
G1 F2400 X-15 Y-54.914 E1054.28138
G0 F18000 X-15.5 Y-54.914
G1 F2400 X-15.5 Y-59.534 E1054.47346
G0 F18000 X-16 Y-59.534
G1 F2400 X-16 Y-54.914 E1054.66554
G0 F18000 X-16.5 Y-54.914
G1 F2400 X-16.5 Y-59.534 E1054.85761
G0 F18000 X-17 Y-59.534
G1 F2400 X-17 Y-54.914 E1055.04969
G0 F18000 X-17.5 Y-54.914
G1 F2400 X-17.5 Y-59.534 E1055.24177
G0 F18000 X-18 Y-59.534
G1 F2400 X-18 Y-54.914 E1055.43384
G0 F18000 X-18.5 Y-54.914
G1 F2400 X-18.5 Y-59.534 E1055.62592
G0 F18000 X-19 Y-59.534
G1 F2400 X-19 Y-54.914 E1055.818
G0 F18000 X-19.5 Y-54.914
G1 F2400 X-19.5 Y-59.534 E1056.01008
G0 F18000 X-20 Y-59.534
G1 F2400 X-20 Y-54.914 E1056.20215
G0 F18000 X-20.5 Y-54.914
G1 F2400 X-20.5 Y-59.534 E1056.39423
G0 F18000 X-21 Y-59.534
G1 F2400 X-21 Y-54.914 E1056.58631
G0 F18000 X-21.5 Y-54.914
G1 F2400 X-21.5 Y-59.534 E1056.77839
G0 F18000 X-22 Y-59.534
G1 F2400 X-22 Y-54.914 E1056.97046
G0 F18000 X-22.5 Y-54.914
G1 F2400 X-22.5 Y-59.534 E1057.16254
G0 F18000 X-23 Y-59.534
G1 F2400 X-23 Y-54.914 E1057.35462
G0 F18000 X-23.5 Y-54.914
G1 F2400 X-23.5 Y-59.534 E1057.54669
G0 F18000 X-24 Y-59.534
G1 F2400 X-24 Y-54.914 E1057.73877
G0 F18000 X-24.5 Y-54.914
G1 F2400 X-24.5 Y-59.534 E1057.93085
G0 F18000 X-25 Y-59.534
G1 F2400 X-25 Y-54.914 E1058.12293
G0 F18000 X-25.5 Y-54.914
G1 F2400 X-25.5 Y-59.534 E1058.315
G0 F18000 X-26 Y-59.534
G1 F2400 X-26 Y-54.914 E1058.50708
G0 F18000 X-26.5 Y-54.914
G1 F2400 X-26.5 Y-59.534 E1058.69916
G0 F18000 X-27 Y-59.534
G1 F2400 X-27 Y-54.914 E1058.89124
G0 F18000 X-27.5 Y-54.914
G1 F2400 X-27.5 Y-59.534 E1059.08331
G0 F18000 X-28 Y-59.534
G1 F2400 X-28 Y-54.914 E1059.27539
G0 F18000 X-28.5 Y-54.914
G1 F2400 X-28.5 Y-59.534 E1059.46747
G0 F18000 X-29 Y-59.534
G1 F2400 X-29 Y-54.914 E1059.65954
G0 F18000 X-29.5 Y-54.914
G1 F2400 X-29.5 Y-59.534 E1059.85162
G0 F18000 X-30 Y-59.533
G1 F2400 X-30 Y-54.913 E1060.0437
G0 F18000 X-30.5 Y-54.913
G1 F2400 X-30.5 Y-59.533 E1060.23578
G0 F18000 X-31 Y-59.533
G1 F2400 X-31 Y-54.913 E1060.42785
G0 F18000 X-31.5 Y-54.913
G1 F2400 X-31.5 Y-59.533 E1060.61993
G0 F18000 X-32 Y-59.533
G1 F2400 X-32 Y-54.913 E1060.81201
G0 F18000 X-32.5 Y-54.913
G1 F2400 X-32.5 Y-59.533 E1061.00409
G0 F18000 X-33 Y-59.533
G1 F2400 X-33 Y-54.913 E1061.19616
G0 F18000 X-33.5 Y-54.913
G1 F2400 X-33.5 Y-59.533 E1061.38824
G0 F18000 X-34 Y-59.533
G1 F2400 X-34 Y-54.913 E1061.58032
G0 F18000 X-34.5 Y-54.913
G1 F2400 X-34.5 Y-59.533 E1061.7724
G0 F18000 X-35 Y-59.533
G1 F2400 X-35 Y-54.913 E1061.96447
G0 F18000 X-35.5 Y-54.913
G1 F2400 X-35.5 Y-59.533 E1062.15655
G0 F18000 X-36 Y-59.533
G1 F2400 X-36 Y-54.913 E1062.34863
G0 F18000 X-36.5 Y-54.913
G1 F2400 X-36.5 Y-59.533 E1062.5407
G0 F18000 X-37 Y-59.533
G1 F2400 X-37 Y-54.913 E1062.73278
G0 F18000 X-37.5 Y-54.913
G1 F2400 X-37.5 Y-59.533 E1062.92486
G0 F18000 X-38 Y-59.533
G1 F2400 X-38 Y-54.913 E1063.11694
G0 F18000 X-38.5 Y-54.913
G1 F2400 X-38.5 Y-59.533 E1063.30901
G0 F18000 X-39 Y-59.533
G1 F2400 X-39 Y-54.913 E1063.50109
G0 F18000 X-39.5 Y-54.913
G1 F2400 X-39.5 Y-59.533 E1063.69317
G0 F18000 X-40 Y-59.533
G1 F2400 X-40 Y-54.913 E1063.88525
G0 F18000 X-40.5 Y-54.913
G1 F2400 X-40.5 Y-59.533 E1064.07732
G0 F18000 X-41 Y-59.533
G1 F2400 X-41 Y-54.913 E1064.2694
G0 F18000 X-41.5 Y-54.913
G1 F2400 X-41.5 Y-59.533 E1064.46148
G0 F18000 X-42 Y-59.533
G1 F2400 X-42 Y-54.913 E1064.65355
G0 F18000 X-42.5 Y-54.913
G1 F2400 X-42.5 Y-59.533 E1064.84563
G0 F18000 X-43 Y-59.533
G1 F2400 X-43 Y-54.913 E1065.03771
G0 F18000 X-43.5 Y-54.913
G1 F2400 X-43.5 Y-59.533 E1065.22979
G0 F18000 X-44 Y-59.533
G1 F2400 X-44 Y-54.913 E1065.42186
G0 F18000 X-44.5 Y-54.913
G1 F2400 X-44.5 Y-59.533 E1065.61394
G0 F18000 X-45 Y-59.533
G1 F2400 X-45 Y-54.913 E1065.80602
G0 F18000 X-45.5 Y-54.913
G1 F2400 X-45.5 Y-59.533 E1065.9981
G0 F18000 X-46 Y-59.533
G1 F2400 X-46 Y-54.913 E1066.19017
G0 F18000 X-46.5 Y-54.913
G1 F2400 X-46.5 Y-59.533 E1066.38225
G0 F18000 X-47 Y-59.533
G1 F2400 X-47 Y-54.913 E1066.57433
G0 F18000 X-47.5 Y-54.913
G1 F2400 X-47.5 Y-59.533 E1066.7664
G0 F18000 X-48 Y-59.533
G1 F2400 X-48 Y-54.913 E1066.95848
G0 F18000 X-48.5 Y-54.913
G1 F2400 X-48.5 Y-59.533 E1067.15056
G0 F18000 X-49 Y-59.533
G1 F2400 X-49 Y-54.913 E1067.34264
G0 F18000 X-49.5 Y-54.913
G1 F2400 X-49.5 Y-59.533 E1067.53471
G0 F18000 X-50 Y-59.533
G1 F2400 X-50 Y-54.913 E1067.72679
G0 F18000 X-50.5 Y-54.913
G1 F2400 X-50.5 Y-59.533 E1067.91887
G0 F18000 X-51 Y-59.533
G1 F2400 X-51 Y-54.913 E1068.11095
G0 F18000 X-51.5 Y-54.913
G1 F2400 X-51.5 Y-59.533 E1068.30302
G0 F18000 X-52 Y-59.533
G1 F2400 X-52 Y-54.913 E1068.4951
G0 F18000 X-52.5 Y-54.913
G1 F2400 X-52.5 Y-59.533 E1068.68718
G0 F18000 X-53 Y-59.533
G1 F2400 X-53 Y-54.913 E1068.87925
G0 F18000 X-53.5 Y-54.913
G1 F2400 X-53.5 Y-59.533 E1069.07133
G0 F18000 X-54 Y-59.533
G1 F2400 X-54 Y-54.913 E1069.26341
G0 F18000 X-54.5 Y-54.913
G1 F2400 X-54.5 Y-59.533 E1069.45549
G0 F18000 X-55 Y-59.533
G1 F2400 X-55 Y-54.913 E1069.64756
G0 F18000 X-55.5 Y-54.913
G1 F2400 X-55.5 Y-59.533 E1069.83964
G0 F18000 X-56 Y-59.533
G1 F2400 X-56 Y-54.913 E1070.03172
G0 F18000 X-56.5 Y-54.913
G1 F2400 X-56.5 Y-59.533 E1070.2238
G0 F18000 X-57 Y-59.533
G1 F2400 X-57 Y-54.913 E1070.41587
G0 F18000 X-57.5 Y-54.913
G1 F2400 X-57.5 Y-59.533 E1070.60795
G0 F18000 X-58 Y-59.533
G1 F2400 X-58 Y-54.913 E1070.80003
G0 F18000 X-58.5 Y-54.913
G1 F2400 X-58.5 Y-59.533 E1070.9921
G0 F18000 X-59 Y-59.533
G1 F2400 X-59 Y-54.913 E1071.18418
G0 F18000 X-59.5 Y-54.913
G1 F2400 X-59.5 Y-59.533 E1071.37626
G0 F18000 X-60 Y-59.533
G1 F2400 X-60 Y-54.913 E1071.56834
G0 F18000 X-60.5 Y-54.913
G1 F2400 X-60.5 Y-59.533 E1071.76041
G0 F18000 X-61 Y-59.533
G1 F2400 X-61 Y-54.913 E1071.95249
G0 F18000 X-61.5 Y-54.913
G1 F2400 X-61.5 Y-59.533 E1072.14457
G0 F18000 X-62 Y-59.533
G1 F2400 X-62 Y-54.913 E1072.33665
G0 F18000 X-62.5 Y-54.913
G1 F2400 X-62.5 Y-59.533 E1072.52872
G0 F18000 X-63 Y-59.533
G1 F2400 X-63 Y-54.913 E1072.7208
G0 F18000 X-63.5 Y-54.913
G1 F2400 X-63.5 Y-59.533 E1072.91288
G0 F18000 X-64 Y-59.533
G1 F2400 X-64 Y-54.913 E1073.10495
G0 F18000 X-64.5 Y-54.913
G1 F2400 X-64.5 Y-59.533 E1073.29703
G0 F18000 X-65 Y-59.533
G1 F2400 X-65 Y-54.913 E1073.48911
G0 F18000 X-65.5 Y-54.913
G1 F2400 X-65.5 Y-59.533 E1073.68119
G0 F18000 X-66 Y-59.533
G1 F2400 X-66 Y-54.913 E1073.87326
G0 F18000 X-66.5 Y-54.913
G1 F2400 X-66.5 Y-59.533 E1074.06534
G0 F18000 X-67 Y-59.533
G1 F2400 X-67 Y-54.913 E1074.25742
G0 F18000 X-67.5 Y-54.913
G1 F2400 X-67.5 Y-59.533 E1074.4495
G0 F18000 X-68 Y-59.533
G1 F2400 X-68 Y-54.913 E1074.64157
G0 F18000 X-68.5 Y-54.913
G1 F2400 X-68.5 Y-59.533 E1074.83365
G0 F18000 X-69 Y-59.533
G1 F2400 X-69 Y-54.913 E1075.02573
G0 F18000 X-69.5 Y-54.913
G1 F2400 X-69.5 Y-59.533 E1075.2178
G0 F18000 X-70 Y-59.533
G1 F2400 X-70 Y-54.913 E1075.40988
G0 F18000 X-70.5 Y-54.913
G1 F2400 X-70.5 Y-59.533 E1075.60196
G0 F18000 X-71 Y-59.533
G1 F2400 X-71 Y-54.913 E1075.79404
G0 F18000 X-71.5 Y-54.913
G1 F2400 X-71.5 Y-59.533 E1075.98611
G0 F18000 X-72 Y-59.533
G1 F2400 X-71.999 Y83.084 E1081.91544
G0 F18000 X-71.499 Y83.084
G1 F2400 X-71.499 Y78.464 E1082.10752
G0 F18000 X-70.999 Y78.464
G1 F2400 X-70.999 Y83.084 E1082.29959
G0 F18000 X-70.499 Y83.084
G1 F2400 X-70.499 Y78.464 E1082.49167
G0 F18000 X-69.999 Y78.464
G1 F2400 X-69.999 Y83.084 E1082.68375
G0 F18000 X-69.499 Y83.084
G1 F2400 X-69.499 Y78.464 E1082.87583
G0 F18000 X-68.999 Y78.464
G1 F2400 X-68.999 Y83.084 E1083.0679
G0 F18000 X-68.499 Y83.084
G1 F2400 X-68.499 Y78.464 E1083.25998
G0 F18000 X-67.999 Y78.464
G1 F2400 X-67.999 Y83.084 E1083.45206
G0 F18000 X-67.499 Y83.084
G1 F2400 X-67.499 Y78.464 E1083.64414
G0 F18000 X-66.999 Y78.464
G1 F2400 X-66.999 Y83.084 E1083.83621
G0 F18000 X-66.499 Y83.084
G1 F2400 X-66.499 Y78.464 E1084.02829
G0 F18000 X-65.999 Y78.464
G1 F2400 X-65.999 Y83.084 E1084.22037
G0 F18000 X-65.499 Y83.084
G1 F2400 X-65.499 Y78.464 E1084.41244
G0 F18000 X-64.999 Y78.464
G1 F2400 X-64.999 Y83.084 E1084.60452
G0 F18000 X-64.499 Y83.084
G1 F2400 X-64.499 Y78.464 E1084.7966
G0 F18000 X-63.999 Y78.464
G1 F2400 X-63.999 Y83.084 E1084.98868
G0 F18000 X-63.499 Y83.084
G1 F2400 X-63.499 Y78.464 E1085.18075
G0 F18000 X-62.999 Y78.464
G1 F2400 X-62.999 Y83.084 E1085.37283
G0 F18000 X-62.499 Y83.084
G1 F2400 X-62.499 Y78.464 E1085.56491
G0 F18000 X-61.999 Y78.464
G1 F2400 X-61.999 Y83.084 E1085.75699
G0 F18000 X-61.499 Y83.084
G1 F2400 X-61.499 Y78.464 E1085.94906
G0 F18000 X-60.999 Y78.464
G1 F2400 X-60.999 Y83.084 E1086.14114
G0 F18000 X-60.499 Y83.084
G1 F2400 X-60.499 Y78.464 E1086.33322
G0 F18000 X-59.999 Y78.464
G1 F2400 X-59.999 Y83.084 E1086.52529
G0 F18000 X-59.499 Y83.084
G1 F2400 X-59.499 Y78.464 E1086.71737
G0 F18000 X-58.999 Y78.464
G1 F2400 X-58.999 Y83.084 E1086.90945
G0 F18000 X-58.499 Y83.084
G1 F2400 X-58.499 Y78.464 E1087.10153
G0 F18000 X-57.999 Y78.464
G1 F2400 X-57.999 Y83.084 E1087.2936
G0 F18000 X-57.499 Y83.084
G1 F2400 X-57.499 Y78.464 E1087.48568
G0 F18000 X-56.999 Y78.464
G1 F2400 X-56.999 Y83.084 E1087.67776
G0 F18000 X-56.499 Y83.084
G1 F2400 X-56.499 Y78.464 E1087.86984
G0 F18000 X-55.999 Y78.464
G1 F2400 X-55.999 Y83.084 E1088.06191
G0 F18000 X-55.499 Y83.084
G1 F2400 X-55.499 Y78.464 E1088.25399
G0 F18000 X-54.999 Y78.464
G1 F2400 X-54.999 Y83.084 E1088.44607
G0 F18000 X-54.499 Y83.084
G1 F2400 X-54.499 Y78.464 E1088.63814
G0 F18000 X-53.999 Y78.464
G1 F2400 X-53.999 Y83.084 E1088.83022
G0 F18000 X-53.499 Y83.084
G1 F2400 X-53.499 Y78.464 E1089.0223
G0 F18000 X-52.999 Y78.464
G1 F2400 X-52.999 Y83.084 E1089.21438
G0 F18000 X-52.499 Y83.084
G1 F2400 X-52.499 Y78.464 E1089.40645
G0 F18000 X-51.999 Y78.464
G1 F2400 X-51.999 Y83.084 E1089.59853
G0 F18000 X-51.499 Y83.084
G1 F2400 X-51.499 Y78.464 E1089.79061
G0 F18000 X-50.999 Y78.464
G1 F2400 X-50.999 Y83.084 E1089.98269
G0 F18000 X-50.499 Y83.084
G1 F2400 X-50.499 Y78.464 E1090.17476
G0 F18000 X-49.999 Y78.464
G1 F2400 X-49.999 Y83.084 E1090.36684
G0 F18000 X-49.499 Y83.084
G1 F2400 X-49.499 Y78.464 E1090.55892
G0 F18000 X-48.999 Y78.464
G1 F2400 X-48.999 Y83.084 E1090.75099
G0 F18000 X-48.499 Y83.084
G1 F2400 X-48.499 Y78.464 E1090.94307
G0 F18000 X-47.999 Y78.464
G1 F2400 X-47.999 Y83.084 E1091.13515
G0 F18000 X-47.499 Y83.084
G1 F2400 X-47.499 Y78.464 E1091.32723
G0 F18000 X-46.999 Y78.464
G1 F2400 X-46.999 Y83.084 E1091.5193
G0 F18000 X-46.499 Y83.084
G1 F2400 X-46.499 Y78.464 E1091.71138
G0 F18000 X-45.999 Y78.464
G1 F2400 X-45.999 Y83.084 E1091.90346
G0 F18000 X-45.499 Y83.084
G1 F2400 X-45.499 Y78.464 E1092.09554
G0 F18000 X-44.999 Y78.464
G1 F2400 X-44.999 Y83.084 E1092.28761
G0 F18000 X-44.499 Y83.084
G1 F2400 X-44.499 Y78.464 E1092.47969
G0 F18000 X-43.999 Y78.464
G1 F2400 X-43.999 Y83.084 E1092.67177
G0 F18000 X-43.499 Y83.084
G1 F2400 X-43.499 Y78.464 E1092.86384
G0 F18000 X-42.999 Y78.464
G1 F2400 X-42.999 Y83.084 E1093.05592
G0 F18000 X-42.499 Y83.084
G1 F2400 X-42.499 Y78.464 E1093.248
G0 F18000 X-41.999 Y78.464
G1 F2400 X-41.999 Y83.084 E1093.44008
G0 F18000 X-41.499 Y83.084
G1 F2400 X-41.499 Y78.464 E1093.63215
G0 F18000 X-40.999 Y78.464
G1 F2400 X-40.999 Y83.084 E1093.82423
G0 F18000 X-40.499 Y83.084
G1 F2400 X-40.499 Y78.464 E1094.01631
G0 F18000 X-39.999 Y78.464
G1 F2400 X-39.999 Y83.084 E1094.20839
G0 F18000 X-39.499 Y83.084
G1 F2400 X-39.499 Y78.464 E1094.40046
G0 F18000 X-38.999 Y78.464
G1 F2400 X-38.999 Y83.084 E1094.59254
G0 F18000 X-38.499 Y83.084
G1 F2400 X-38.499 Y78.464 E1094.78462
G0 F18000 X-37.999 Y78.464
G1 F2400 X-37.999 Y83.084 E1094.97669
G0 F18000 X-37.499 Y83.084
G1 F2400 X-37.499 Y78.464 E1095.16877
G0 F18000 X-36.999 Y78.464
G1 F2400 X-36.999 Y83.084 E1095.36085
G0 F18000 X-36.499 Y83.084
G1 F2400 X-36.499 Y78.464 E1095.55293
G0 F18000 X-35.999 Y78.465
G1 F2400 X-35.999 Y83.084 E1095.74496
G0 F18000 X-35.499 Y83.084
G1 F2400 X-35.499 Y78.465 E1095.937
G0 F18000 X-34.999 Y78.465
G1 F2400 X-34.999 Y83.084 E1096.12903
G0 F18000 X-34.499 Y83.084
G1 F2400 X-34.499 Y78.465 E1096.32107
G0 F18000 X-33.999 Y78.465
G1 F2400 X-33.999 Y83.084 E1096.5131
G0 F18000 X-33.499 Y83.084
G1 F2400 X-33.499 Y78.465 E1096.70514
G0 F18000 X-32.999 Y78.465
G1 F2400 X-32.999 Y83.084 E1096.89718
G0 F18000 X-32.499 Y83.084
G1 F2400 X-32.499 Y78.465 E1097.08921
G0 F18000 X-31.999 Y78.465
G1 F2400 X-31.999 Y83.084 E1097.28125
G0 F18000 X-31.499 Y83.084
G1 F2400 X-31.499 Y78.465 E1097.47328
G0 F18000 X-30.999 Y78.465
G1 F2400 X-30.999 Y83.084 E1097.66532
G0 F18000 X-30.499 Y83.084
G1 F2400 X-30.499 Y78.465 E1097.85735
G0 F18000 X-29.999 Y78.465
G1 F2400 X-29.999 Y83.084 E1098.04939
G0 F18000 X-29.499 Y83.084
G1 F2400 X-29.499 Y78.465 E1098.24143
G0 F18000 X-28.999 Y78.465
G1 F2400 X-28.999 Y83.084 E1098.43346
G0 F18000 X-28.499 Y83.084
G1 F2400 X-28.499 Y78.465 E1098.6255
G0 F18000 X-27.999 Y78.465
G1 F2400 X-27.999 Y83.084 E1098.81753
G0 F18000 X-27.499 Y83.084
G1 F2400 X-27.499 Y78.465 E1099.00957
G0 F18000 X-26.999 Y78.465
G1 F2400 X-26.999 Y83.084 E1099.2016
G0 F18000 X-26.499 Y83.084
G1 F2400 X-26.499 Y78.465 E1099.39364
G0 F18000 X-25.999 Y78.465
G1 F2400 X-25.999 Y83.084 E1099.58568
G0 F18000 X-25.499 Y83.084
G1 F2400 X-25.499 Y78.465 E1099.77771
G0 F18000 X-24.999 Y78.465
G1 F2400 X-24.999 Y83.084 E1099.96975
G0 F18000 X-24.499 Y83.084
G1 F2400 X-24.499 Y78.465 E1100.16178
G0 F18000 X-23.999 Y78.465
G1 F2400 X-23.999 Y83.084 E1100.35382
G0 F18000 X-23.499 Y83.084
G1 F2400 X-23.499 Y78.465 E1100.54585
G0 F18000 X-22.999 Y78.465
G1 F2400 X-22.999 Y83.084 E1100.73789
G0 F18000 X-22.499 Y83.084
G1 F2400 X-22.499 Y78.465 E1100.92993
G0 F18000 X-21.999 Y78.465
G1 F2400 X-21.999 Y83.084 E1101.12196
G0 F18000 X-21.499 Y83.084
G1 F2400 X-21.499 Y78.465 E1101.314
G0 F18000 X-20.999 Y78.465
G1 F2400 X-20.999 Y83.084 E1101.50603
G0 F18000 X-20.499 Y83.084
G1 F2400 X-20.499 Y78.465 E1101.69807
G0 F18000 X-19.999 Y78.465
G1 F2400 X-19.999 Y83.084 E1101.8901
G0 F18000 X-19.499 Y83.084
G1 F2400 X-19.499 Y78.465 E1102.08214
G0 F18000 X-18.999 Y78.465
G1 F2400 X-18.999 Y83.084 E1102.27418
G0 F18000 X-18.499 Y83.084
G1 F2400 X-18.499 Y78.465 E1102.46621
G0 F18000 X-17.999 Y78.465
G1 F2400 X-17.999 Y83.084 E1102.65825
G0 F18000 X-17.499 Y83.084
G1 F2400 X-17.499 Y78.465 E1102.85028
G0 F18000 X-16.999 Y78.465
G1 F2400 X-16.999 Y83.084 E1103.04232
G0 F18000 X-16.499 Y83.084
G1 F2400 X-16.499 Y78.465 E1103.23435
G0 F18000 X-15.999 Y78.465
G1 F2400 X-15.999 Y83.084 E1103.42639
G0 F18000 X-15.499 Y83.084
G1 F2400 X-15.499 Y78.465 E1103.61843
G0 F18000 X-14.999 Y78.465
G1 F2400 X-14.999 Y83.084 E1103.81046
G0 F18000 X-14.499 Y83.084
G1 F2400 X-14.499 Y78.465 E1104.0025
G0 F18000 X-13.999 Y78.465
G1 F2400 X-13.999 Y83.084 E1104.19453
G0 F18000 X-13.499 Y83.084
G1 F2400 X-13.499 Y78.465 E1104.38657
G0 F18000 X-12.999 Y78.465
G1 F2400 X-12.999 Y83.084 E1104.5786
G0 F18000 X-12.499 Y83.084
G1 F2400 X-12.499 Y78.465 E1104.77064
G0 F18000 X-11.999 Y78.465
G1 F2400 X-11.999 Y83.084 E1104.96268
G0 F18000 X-11.499 Y83.084
G1 F2400 X-11.499 Y78.465 E1105.15471
G0 F18000 X-10.999 Y78.465
G1 F2400 X-10.999 Y83.084 E1105.34675
G0 F18000 X-10.499 Y83.084
G1 F2400 X-10.499 Y78.465 E1105.53878
G0 F18000 X-9.999 Y78.465
G1 F2400 X-9.999 Y83.084 E1105.73082
G0 F18000 X-9.499 Y83.084
G1 F2400 X-9.499 Y78.465 E1105.92285
G0 F18000 X-8.999 Y78.465
G1 F2400 X-8.999 Y83.084 E1106.11489
G0 F18000 X-8.499 Y83.084
G1 F2400 X-8.499 Y78.465 E1106.30693
G0 F18000 X-7.999 Y78.465
G1 F2400 X-7.999 Y83.084 E1106.49896
G0 F18000 X-7.499 Y83.084
G1 F2400 X-7.499 Y78.465 E1106.691
