; Generated with MatterSlice 1.0
; filamentDiameter = 1.75
; extrusionWidth = 0.5
; firstLayerExtrusionWidth = 0.4
; layerThickness = 0.2
; firstLayerThickness = 0.3
; automatic settings before start_gcode
G21 ; set units to millimeters
M107 ; fan off
T0 ; set the active extruder to 0
; settings from start_gcode
M104 S210
M190 S50
M109 S210
G28
; automatic settings after start_gcode
T0 ; set the active extruder to 0
G90 ; use absolute coordinates
G92 E0 ; reset the expected extruder position
M82 ; use absolute distance for extrusion
; Layer count: 35
; Layer Change GCode
; LAYER:0
G4 P0
M107
G0 F6000 X105.979 Y83.229 Z0.6
; TYPE:SKIRT
G1 Z0.3
G1 F6600 E0
G1 F720 X-105.977 Y83.229 E10.57453
G1 X-105.977 Y-83.227 E18.87905
G1 X105.979 Y-83.227 E29.45358
G1 X105.979 Y83.229 E37.7581
G0 F6000 X105.579 Y82.829
G1 F720 X-105.577 Y82.829 E48.29272
G1 X-105.577 Y-82.827 E56.55733
G1 X105.579 Y-82.827 E67.09195
G1 X105.579 Y82.829 E75.35656
G1 F6600 E68.55656
G1 Z0.6
G0 F6000 X-102.177 Y79.429
; TYPE:WALL-OUTER
G1 Z0.3
G1 F6600 E75.45656
G1 F720 X-102.177 Y79.429 E75.45656
G1 X-102.177 Y-79.427 E83.38191
G1 X102.179 Y-79.427 E93.57728
G1 X102.179 Y79.429 E101.50263
G1 X-102.177 Y79.429 E111.698
G0 F6000 X-101.777 Y79.029
; TYPE:WALL-INNER
G1 F720 X-101.777 Y79.029 E111.698
G1 X-101.777 Y-79.027 E119.58344
G1 X101.779 Y-79.027 E129.73889
G1 X101.779 Y79.029 E137.62434
G1 X-101.777 Y79.029 E147.77979
G0 F6000 X-101.437 Y78.4
; TYPE:BOTTOM-FILL
G1 F720 X101.439 Y78.4 E157.90131
G0 F6000 X101.439 Y78
G1 F720 X-101.437 Y78 E168.02284
G0 F6000 X-101.437 Y77.6
G1 F720 X101.439 Y77.6 E178.14436
G0 F6000 X101.439 Y77.2
G1 F720 X-101.437 Y77.2 E188.26589
G0 F6000 X-101.437 Y76.8
G1 F720 X101.439 Y76.8 E198.38741
G0 F6000 X101.439 Y76.4
G1 F720 X-101.437 Y76.4 E208.50894
G0 F6000 X-101.437 Y76
G1 F720 X101.439 Y76 E218.63046
G0 F6000 X101.439 Y75.6
G1 F720 X-101.437 Y75.6 E228.75199
G0 F6000 X-101.437 Y75.2
G1 F720 X101.439 Y75.2 E238.87351
G0 F6000 X101.439 Y74.8
G1 F720 X-101.437 Y74.8 E248.99504
G0 F6000 X-101.437 Y74.4
G1 F720 X101.439 Y74.4 E259.11656
G0 F6000 X101.439 Y74
G1 F720 X-101.437 Y74 E269.23809
G0 F6000 X-101.437 Y73.6
G1 F720 X101.439 Y73.6 E279.35961
G0 F6000 X101.439 Y73.2
G1 F720 X-101.437 Y73.2 E289.48114
G0 F6000 X-101.437 Y72.8
G1 F720 X101.439 Y72.8 E299.60266
G0 F6000 X101.439 Y72.4
G1 F720 X-101.437 Y72.4 E309.72418
G0 F6000 X-101.437 Y72
G1 F720 X101.439 Y72 E319.84571
G0 F6000 X101.439 Y71.6
G1 F720 X-101.437 Y71.6 E329.96723
G0 F6000 X-101.437 Y71.2
G1 F720 X101.439 Y71.2 E340.08876
G0 F6000 X101.439 Y70.8
G1 F720 X-101.437 Y70.8 E350.21028
G0 F6000 X-101.437 Y70.4
G1 F720 X101.439 Y70.4 E360.33181
G0 F6000 X101.439 Y70
G1 F720 X-101.437 Y70 E370.45333
G0 F6000 X-101.437 Y69.6
G1 F720 X101.439 Y69.6 E380.57486
G0 F6000 X101.439 Y69.2
G1 F720 X-101.437 Y69.2 E390.69638
G0 F6000 X-101.437 Y68.8
G1 F720 X101.439 Y68.8 E400.81791
G0 F6000 X101.439 Y68.4
G1 F720 X-101.437 Y68.4 E410.93943
G0 F6000 X-101.437 Y68
G1 F720 X101.439 Y68 E421.06096
G0 F6000 X101.439 Y67.6
G1 F720 X-101.437 Y67.6 E431.18248
G0 F6000 X-101.437 Y67.2
G1 F720 X101.439 Y67.2 E441.30401
G0 F6000 X101.439 Y66.8
G1 F720 X-101.437 Y66.8 E451.42553
G0 F6000 X-101.437 Y66.4
G1 F720 X101.439 Y66.4 E461.54706
G0 F6000 X101.439 Y66
G1 F720 X-101.437 Y66 E471.66858
G0 F6000 X-101.437 Y65.6
G1 F720 X101.439 Y65.6 E481.79011
G0 F6000 X101.439 Y65.199
G1 F720 X-101.437 Y65.2 E491.91163
G0 F6000 X-101.437 Y64.8
G1 F720 X101.439 Y64.799 E502.03315
G0 F6000 X101.439 Y64.399
G1 F720 X-101.437 Y64.4 E512.15468
G0 F6000 X-101.437 Y64
G1 F720 X101.439 Y63.999 E522.2762
G0 F6000 X101.439 Y63.599
G1 F720 X-101.437 Y63.6 E532.39773
G0 F6000 X-101.437 Y63.2
G1 F720 X101.439 Y63.199 E542.51925
G0 F6000 X101.439 Y62.799
G1 F720 X-101.437 Y62.8 E552.64078
G0 F6000 X-101.437 Y62.4
G1 F720 X101.439 Y62.399 E562.7623
G0 F6000 X101.439 Y61.999
G1 F720 X-101.437 Y62 E572.88383
G0 F6000 X-101.437 Y61.6
G1 F720 X101.439 Y61.599 E583.00535
G0 F6000 X101.439 Y61.199
G1 F720 X-101.437 Y61.2 E593.12688
G0 F6000 X-101.437 Y60.8
G1 F720 X101.439 Y60.799 E603.2484
G0 F6000 X101.439 Y60.399
G1 F720 X-101.437 Y60.4 E613.36993
G0 F6000 X-101.437 Y60
G1 F720 X101.439 Y59.999 E623.49145
G0 F6000 X101.439 Y59.599
G1 F720 X-101.437 Y59.6 E633.61298
G0 F6000 X-101.437 Y59.2
G1 F720 X101.439 Y59.199 E643.7345
G0 F6000 X101.439 Y58.799
G1 F720 X-101.437 Y58.8 E653.85603
G0 F6000 X-101.437 Y58.4
G1 F720 X101.439 Y58.399 E663.97755
G0 F6000 X101.439 Y57.999
G1 F720 X-101.437 Y58 E674.09908
G0 F6000 X-101.437 Y57.6
G1 F720 X101.439 Y57.599 E684.2206
G0 F6000 X101.439 Y57.199
G1 F720 X-101.437 Y57.2 E694.34212
G0 F6000 X-101.437 Y56.8
G1 F720 X101.439 Y56.799 E704.46365
G0 F6000 X101.439 Y56.399
G1 F720 X-101.437 Y56.4 E714.58517
G0 F6000 X-101.437 Y56
G1 F720 X101.439 Y55.999 E724.7067
G0 F6000 X101.439 Y55.599
G1 F720 X-101.437 Y55.6 E734.82822
G0 F6000 X-101.437 Y55.2
G1 F720 X101.439 Y55.199 E744.94975
G0 F6000 X101.439 Y54.799
G1 F720 X-101.437 Y54.8 E755.07127
G0 F6000 X-101.437 Y54.4
G1 F720 X101.439 Y54.399 E765.1928
G0 F6000 X101.439 Y53.999
G1 F720 X-101.437 Y54 E775.31432
G0 F6000 X-101.437 Y53.6
G1 F720 X101.439 Y53.599 E785.43585
G0 F6000 X101.439 Y53.199
G1 F720 X-101.437 Y53.2 E795.55737
G0 F6000 X-101.437 Y52.8
G1 F720 X101.439 Y52.799 E805.6789
G0 F6000 X101.439 Y52.399
G1 F720 X-101.437 Y52.4 E815.80042
G0 F6000 X-101.437 Y52
G1 F720 X101.439 Y51.999 E825.92195
G0 F6000 X101.439 Y51.599
G1 F720 X-101.437 Y51.6 E836.04347
G0 F6000 X-101.437 Y51.2
G1 F720 X101.439 Y51.199 E846.165
G0 F6000 X101.439 Y50.799
G1 F720 X-101.437 Y50.8 E856.28652
G0 F6000 X-101.437 Y50.4
G1 F720 X101.439 Y50.399 E866.40805
G0 F6000 X101.439 Y49.999
G1 F720 X-101.437 Y50 E876.52957
G0 F6000 X-101.437 Y49.6
G1 F720 X101.439 Y49.599 E886.65109
G0 F6000 X101.439 Y49.199
G1 F720 X-101.437 Y49.2 E896.77262
G0 F6000 X-101.437 Y48.8
G1 F720 X101.439 Y48.799 E906.89414
G0 F6000 X101.439 Y48.399
G1 F720 X-101.437 Y48.4 E917.01567
G0 F6000 X-101.437 Y48
G1 F720 X101.439 Y47.999 E927.13719
G0 F6000 X101.439 Y47.599
G1 F720 X-101.437 Y47.6 E937.25872
G0 F6000 X-101.437 Y47.2
G1 F720 X101.439 Y47.199 E947.38024
G0 F6000 X101.439 Y46.799
G1 F720 X-101.437 Y46.8 E957.50177
G0 F6000 X-101.437 Y46.4
G1 F720 X101.439 Y46.399 E967.62329
G0 F6000 X101.439 Y45.999
G1 F720 X-101.437 Y46 E977.74482
G0 F6000 X-101.437 Y45.6
G1 F720 X101.439 Y45.599 E987.86634
G0 F6000 X101.439 Y45.199
G1 F720 X-101.437 Y45.2 E997.98787
G0 F6000 X-101.437 Y44.8
G1 F720 X101.439 Y44.799 E1008.10939
G0 F6000 X101.439 Y44.399
G1 F720 X-101.437 Y44.4 E1018.23092
G0 F6000 X-101.437 Y44
G1 F720 X101.439 Y43.999 E1028.35244
G0 F6000 X101.439 Y43.599
G1 F720 X-101.437 Y43.6 E1038.47397
G0 F6000 X-101.437 Y43.2
G1 F720 X101.439 Y43.199 E1048.59549
G0 F6000 X101.439 Y42.799
G1 F720 X-101.437 Y42.8 E1058.71702
G0 F6000 X-101.437 Y42.4
G1 F720 X101.439 Y42.399 E1068.83854
G0 F6000 X101.439 Y41.999
G1 F720 X-101.437 Y42 E1078.96006
G0 F6000 X-101.437 Y41.6
G1 F720 X101.439 Y41.599 E1089.08159
G0 F6000 X101.439 Y41.199
G1 F720 X-101.437 Y41.2 E1099.20311
G0 F6000 X-101.437 Y40.8
G1 F720 X101.439 Y40.799 E1109.32464
G0 F6000 X101.439 Y40.399
G1 F720 X-101.437 Y40.4 E1119.44616
G0 F6000 X-101.437 Y40
G1 F720 X101.439 Y39.999 E1129.56769
G0 F6000 X101.439 Y39.599
G1 F720 X-101.437 Y39.6 E1139.68921
G0 F6000 X-101.437 Y39.2
G1 F720 X101.439 Y39.199 E1149.81074
G0 F6000 X101.439 Y38.799
G1 F720 X-101.437 Y38.8 E1159.93226
G0 F6000 X-101.437 Y38.4
G1 F720 X101.439 Y38.399 E1170.05379
G0 F6000 X101.439 Y37.999
G1 F720 X-101.437 Y38 E1180.17531
G0 F6000 X-101.437 Y37.6
G1 F720 X101.439 Y37.599 E1190.29684
G0 F6000 X101.439 Y37.199
G1 F720 X-101.437 Y37.2 E1200.41836
G0 F6000 X-101.437 Y36.8
G1 F720 X101.439 Y36.799 E1210.53989
G0 F6000 X101.439 Y36.399
G1 F720 X-101.437 Y36.4 E1220.66141
G0 F6000 X-101.437 Y36
G1 F720 X101.439 Y35.999 E1230.78294
G0 F6000 X101.439 Y35.599
G1 F720 X-101.437 Y35.6 E1240.90446
G0 F6000 X-101.437 Y35.2
G1 F720 X101.439 Y35.199 E1251.02599
G0 F6000 X101.439 Y34.799
G1 F720 X-101.437 Y34.8 E1261.14751
G0 F6000 X-101.437 Y34.4
G1 F720 X101.439 Y34.399 E1271.26903
G0 F6000 X101.439 Y33.999
G1 F720 X-101.437 Y34 E1281.39056
G0 F6000 X-101.437 Y33.6
G1 F720 X101.439 Y33.599 E1291.51208
G0 F6000 X101.439 Y33.199
G1 F720 X-101.437 Y33.2 E1301.63361
G0 F6000 X-101.437 Y32.8
G1 F720 X101.439 Y32.799 E1311.75513
G0 F6000 X101.439 Y32.399
G1 F720 X-101.437 Y32.4 E1321.87666
G0 F6000 X-101.437 Y32
G1 F720 X101.439 Y31.999 E1331.99818
G0 F6000 X101.439 Y31.599
G1 F720 X-101.437 Y31.6 E1342.11971
G0 F6000 X-101.437 Y31.2
G1 F720 X101.439 Y31.199 E1352.24123
G0 F6000 X101.439 Y30.799
G1 F720 X-101.437 Y30.8 E1362.36276
G0 F6000 X-101.437 Y30.4
G1 F720 X101.439 Y30.399 E1372.48428
G0 F6000 X101.439 Y29.999
G1 F720 X-101.437 Y30 E1382.60581
G0 F6000 X-101.437 Y29.6
G1 F720 X101.439 Y29.599 E1392.72733
G0 F6000 X101.439 Y29.199
G1 F720 X-101.437 Y29.2 E1402.84886
G0 F6000 X-101.437 Y28.8
G1 F720 X101.439 Y28.799 E1412.97038
G0 F6000 X101.439 Y28.399
G1 F720 X-101.437 Y28.4 E1423.09191
G0 F6000 X-101.437 Y28
G1 F720 X101.439 Y27.999 E1433.21343
G0 F6000 X101.439 Y27.599
G1 F720 X-101.437 Y27.6 E1443.33496
G0 F6000 X-101.437 Y27.2
G1 F720 X101.439 Y27.199 E1453.45648
G0 F6000 X101.439 Y26.799
G1 F720 X-101.437 Y26.8 E1463.578
G0 F6000 X-101.437 Y26.4
G1 F720 X101.439 Y26.399 E1473.69953
G0 F6000 X101.439 Y25.999
G1 F720 X-101.437 Y26 E1483.82105
G0 F6000 X-101.437 Y25.6
G1 F720 X101.439 Y25.599 E1493.94258
G0 F6000 X101.439 Y25.199
G1 F720 X-101.437 Y25.2 E1504.0641
G0 F6000 X-101.437 Y24.8
G1 F720 X101.439 Y24.799 E1514.18563
G0 F6000 X101.439 Y24.399
G1 F720 X-101.437 Y24.4 E1524.30715
G0 F6000 X-101.437 Y24
G1 F720 X101.439 Y23.999 E1534.42868
G0 F6000 X101.439 Y23.599
G1 F720 X-101.437 Y23.6 E1544.5502
G0 F6000 X-101.437 Y23.2
G1 F720 X101.439 Y23.199 E1554.67173
G0 F6000 X101.439 Y22.799
G1 F720 X-101.437 Y22.8 E1564.79325
G0 F6000 X-101.437 Y22.4
G1 F720 X101.439 Y22.399 E1574.91478
G0 F6000 X101.439 Y21.999
G1 F720 X-101.437 Y22 E1585.0363
G0 F6000 X-101.437 Y21.6
G1 F720 X101.439 Y21.599 E1595.15783
G0 F6000 X101.439 Y21.199
G1 F720 X-101.437 Y21.2 E1605.27935
G0 F6000 X-101.437 Y20.8
G1 F720 X101.439 Y20.799 E1615.40088
G0 F6000 X101.439 Y20.399
G1 F720 X-101.437 Y20.4 E1625.5224
G0 F6000 X-101.437 Y20
G1 F720 X101.439 Y19.999 E1635.64393
G0 F6000 X101.439 Y19.599
G1 F720 X-101.437 Y19.6 E1645.76545
G0 F6000 X-101.437 Y19.2
G1 F720 X101.439 Y19.199 E1655.88697
G0 F6000 X101.439 Y18.799
G1 F720 X-101.437 Y18.8 E1666.0085
G0 F6000 X-101.437 Y18.4
G1 F720 X101.439 Y18.399 E1676.13002
G0 F6000 X101.439 Y17.999
G1 F720 X-101.437 Y18 E1686.25155
G0 F6000 X-101.437 Y17.6
G1 F720 X101.439 Y17.599 E1696.37307
G0 F6000 X101.439 Y17.199
G1 F720 X-101.437 Y17.2 E1706.4946
G0 F6000 X-101.437 Y16.8
G1 F720 X101.439 Y16.799 E1716.61612
G0 F6000 X101.439 Y16.399
G1 F720 X-101.437 Y16.4 E1726.73765
G0 F6000 X-101.437 Y16
G1 F720 X101.439 Y15.999 E1736.85917
G0 F6000 X101.439 Y15.599
G1 F720 X-101.437 Y15.6 E1746.9807
G0 F6000 X-101.437 Y15.2
G1 F720 X101.439 Y15.199 E1757.10222
G0 F6000 X101.439 Y14.799
G1 F720 X-101.437 Y14.8 E1767.22375
G0 F6000 X-101.437 Y14.4
G1 F720 X101.439 Y14.399 E1777.34527
G0 F6000 X101.439 Y13.999
G1 F720 X-101.437 Y14 E1787.4668
G0 F6000 X-101.437 Y13.6
G1 F720 X101.439 Y13.599 E1797.58832
G0 F6000 X101.439 Y13.199
G1 F720 X-101.437 Y13.2 E1807.70985
G0 F6000 X-101.437 Y12.8
G1 F720 X101.439 Y12.799 E1817.83137
G0 F6000 X101.439 Y12.399
G1 F720 X-101.437 Y12.4 E1827.9529
G0 F6000 X-101.437 Y12
G1 F720 X101.439 Y11.999 E1838.07442
G0 F6000 X101.439 Y11.599
G1 F720 X-101.437 Y11.6 E1848.19594
G0 F6000 X-101.437 Y11.2
G1 F720 X101.439 Y11.199 E1858.31747
G0 F6000 X101.439 Y10.799
G1 F720 X-101.437 Y10.8 E1868.43899
G0 F6000 X-101.437 Y10.4
G1 F720 X101.439 Y10.399 E1878.56052
G0 F6000 X101.439 Y9.999
G1 F720 X-101.437 Y10 E1888.68204
G0 F6000 X-101.437 Y9.6
G1 F720 X101.439 Y9.599 E1898.80357
G0 F6000 X101.439 Y9.199
G1 F720 X-101.437 Y9.2 E1908.92509
G0 F6000 X-101.437 Y8.8
G1 F720 X101.439 Y8.799 E1919.04662
G0 F6000 X101.439 Y8.399
G1 F720 X-101.437 Y8.4 E1929.16814
G0 F6000 X-101.437 Y8
G1 F720 X101.439 Y7.999 E1939.28967
G0 F6000 X101.439 Y7.599
G1 F720 X-101.437 Y7.6 E1949.41119
G0 F6000 X-101.437 Y7.2
G1 F720 X101.439 Y7.199 E1959.53272
G0 F6000 X101.439 Y6.799
G1 F720 X-101.437 Y6.8 E1969.65424
G0 F6000 X-101.437 Y6.4
G1 F720 X101.439 Y6.399 E1979.77577
G0 F6000 X101.439 Y5.999
G1 F720 X-101.437 Y6 E1989.89729
G0 F6000 X-101.437 Y5.6
G1 F720 X101.439 Y5.599 E2000.01882
G0 F6000 X101.439 Y5.199
G1 F720 X-101.437 Y5.2 E2010.14034
G0 F6000 X-101.437 Y4.8
G1 F720 X101.439 Y4.799 E2020.26187
G0 F6000 X101.439 Y4.399
G1 F720 X-101.437 Y4.4 E2030.38339
G0 F6000 X-101.437 Y4
G1 F720 X101.439 Y3.999 E2040.50491
G0 F6000 X101.439 Y3.599
G1 F720 X-101.437 Y3.6 E2050.62644
G0 F6000 X-101.437 Y3.2
G1 F720 X101.439 Y3.199 E2060.74796
G0 F6000 X101.439 Y2.799
G1 F720 X-101.437 Y2.8 E2070.86949
G0 F6000 X-101.437 Y2.4
G1 F720 X101.439 Y2.399 E2080.99101
G0 F6000 X101.439 Y1.999
G1 F720 X-101.437 Y2 E2091.11254
G0 F6000 X-101.437 Y1.6
G1 F720 X101.439 Y1.599 E2101.23406
G0 F6000 X101.439 Y1.199
G1 F720 X-101.437 Y1.2 E2111.35559
G0 F6000 X-101.437 Y0.8
G1 F720 X101.439 Y0.799 E2121.47711
G0 F6000 X101.439 Y0.399
G1 F720 X-101.437 Y0.4 E2131.59864
G0 F6000 X-101.437 Y0
G1 F720 X101.439 Y0 E2141.72016
G0 F6000 X101.439 Y-0.4
G1 F720 X-101.437 Y-0.399 E2151.84169
G0 F6000 X-101.437 Y-0.799
G1 F720 X101.439 Y-0.8 E2161.96321
G0 F6000 X101.439 Y-1.2
G1 F720 X-101.437 Y-1.199 E2172.08474
G0 F6000 X-101.437 Y-1.599
G1 F720 X101.439 Y-1.6 E2182.20626
G0 F6000 X101.439 Y-2
G1 F720 X-101.437 Y-1.999 E2192.32779
G0 F6000 X-101.437 Y-2.399
G1 F720 X101.439 Y-2.4 E2202.44931
G0 F6000 X101.439 Y-2.8
G1 F720 X-101.437 Y-2.799 E2212.57084
G0 F6000 X-101.437 Y-3.199
G1 F720 X101.439 Y-3.2 E2222.69236
G0 F6000 X101.439 Y-3.6
G1 F720 X-101.437 Y-3.599 E2232.81388
G0 F6000 X-101.437 Y-3.999
G1 F720 X101.439 Y-4 E2242.93541
G0 F6000 X101.439 Y-4.4
G1 F720 X-101.437 Y-4.399 E2253.05693
G0 F6000 X-101.437 Y-4.799
G1 F720 X101.439 Y-4.8 E2263.17846
G0 F6000 X101.439 Y-5.2
G1 F720 X-101.437 Y-5.199 E2273.29998
G0 F6000 X-101.437 Y-5.599
G1 F720 X101.439 Y-5.6 E2283.42151
G0 F6000 X101.439 Y-6
G1 F720 X-101.437 Y-5.999 E2293.54303
G0 F6000 X-101.437 Y-6.399
G1 F720 X101.439 Y-6.4 E2303.66456
G0 F6000 X101.439 Y-6.8
G1 F720 X-101.437 Y-6.799 E2313.78608
G0 F6000 X-101.437 Y-7.199
G1 F720 X101.439 Y-7.2 E2323.90761
G0 F6000 X101.439 Y-7.6
G1 F720 X-101.437 Y-7.599 E2334.02913
G0 F6000 X-101.437 Y-7.999
G1 F720 X101.439 Y-8 E2344.15066
G0 F6000 X101.439 Y-8.4
G1 F720 X-101.437 Y-8.399 E2354.27218
G0 F6000 X-101.437 Y-8.799
G1 F720 X101.439 Y-8.8 E2364.39371
G0 F6000 X101.439 Y-9.2
G1 F720 X-101.437 Y-9.199 E2374.51523
G0 F6000 X-101.437 Y-9.599
G1 F720 X101.439 Y-9.6 E2384.63676
G0 F6000 X101.439 Y-10
G1 F720 X-101.437 Y-9.999 E2394.75828
G0 F6000 X-101.437 Y-10.399
G1 F720 X101.439 Y-10.4 E2404.87981
G0 F6000 X101.439 Y-10.8
G1 F720 X-101.437 Y-10.799 E2415.00133
G0 F6000 X-101.437 Y-11.199
G1 F720 X101.439 Y-11.2 E2425.12285
G0 F6000 X101.439 Y-11.6
G1 F720 X-101.437 Y-11.599 E2435.24438
G0 F6000 X-101.437 Y-11.999
G1 F720 X101.439 Y-12 E2445.3659
G0 F6000 X101.439 Y-12.4
G1 F720 X-101.437 Y-12.399 E2455.48743
G0 F6000 X-101.437 Y-12.799
G1 F720 X101.439 Y-12.8 E2465.60895
G0 F6000 X101.439 Y-13.2
G1 F720 X-101.437 Y-13.199 E2475.73048
G0 F6000 X-101.437 Y-13.599
G1 F720 X101.439 Y-13.6 E2485.852
G0 F6000 X101.439 Y-14
G1 F720 X-101.437 Y-13.999 E2495.97353
G0 F6000 X-101.437 Y-14.399
G1 F720 X101.439 Y-14.4 E2506.09505
G0 F6000 X101.439 Y-14.8
G1 F720 X-101.437 Y-14.799 E2516.21658
G0 F6000 X-101.437 Y-15.199
G1 F720 X101.439 Y-15.2 E2526.3381
G0 F6000 X101.439 Y-15.6
G1 F720 X-101.437 Y-15.599 E2536.45963
G0 F6000 X-101.437 Y-15.999
G1 F720 X101.439 Y-16 E2546.58115
G0 F6000 X101.439 Y-16.4
G1 F720 X-101.437 Y-16.399 E2556.70268
G0 F6000 X-101.437 Y-16.799
G1 F720 X101.439 Y-16.8 E2566.8242
G0 F6000 X101.439 Y-17.2
G1 F720 X-101.437 Y-17.199 E2576.94573
G0 F6000 X-101.437 Y-17.599
G1 F720 X101.439 Y-17.6 E2587.06725
G0 F6000 X101.439 Y-18
G1 F720 X-101.437 Y-17.999 E2597.18878
G0 F6000 X-101.437 Y-18.399
G1 F720 X101.439 Y-18.4 E2607.3103
G0 F6000 X101.439 Y-18.8
G1 F720 X-101.437 Y-18.799 E2617.43182
G0 F6000 X-101.437 Y-19.199
G1 F720 X101.439 Y-19.2 E2627.55335
G0 F6000 X101.439 Y-19.6
G1 F720 X-101.437 Y-19.599 E2637.67487
G0 F6000 X-101.437 Y-19.999
G1 F720 X101.439 Y-20 E2647.7964
G0 F6000 X101.439 Y-20.4
G1 F720 X-101.437 Y-20.399 E2657.91792
G0 F6000 X-101.437 Y-20.799
G1 F720 X101.439 Y-20.8 E2668.03945
G0 F6000 X101.439 Y-21.2
G1 F720 X-101.437 Y-21.199 E2678.16097
G0 F6000 X-101.437 Y-21.599
G1 F720 X101.439 Y-21.6 E2688.2825
G0 F6000 X101.439 Y-22
G1 F720 X-101.437 Y-21.999 E2698.40402
G0 F6000 X-101.437 Y-22.399
G1 F720 X101.439 Y-22.4 E2708.52555
G0 F6000 X101.439 Y-22.8
G1 F720 X-101.437 Y-22.799 E2718.64707
G0 F6000 X-101.437 Y-23.199
G1 F720 X101.439 Y-23.2 E2728.7686
G0 F6000 X101.439 Y-23.6
G1 F720 X-101.437 Y-23.599 E2738.89012
G0 F6000 X-101.437 Y-23.999
G1 F720 X101.439 Y-24 E2749.01165
G0 F6000 X101.439 Y-24.4
G1 F720 X-101.437 Y-24.399 E2759.13317
G0 F6000 X-101.437 Y-24.799
G1 F720 X101.439 Y-24.8 E2769.2547
G0 F6000 X101.439 Y-25.2
G1 F720 X-101.437 Y-25.199 E2779.37622
G0 F6000 X-101.437 Y-25.599
G1 F720 X101.439 Y-25.6 E2789.49775
G0 F6000 X101.439 Y-26
G1 F720 X-101.437 Y-25.999 E2799.61927
G0 F6000 X-101.437 Y-26.399
G1 F720 X101.439 Y-26.4 E2809.74079
G0 F6000 X101.439 Y-26.8
G1 F720 X-101.437 Y-26.799 E2819.86232
G0 F6000 X-101.437 Y-27.199
G1 F720 X101.439 Y-27.2 E2829.98384
G0 F6000 X101.439 Y-27.6
G1 F720 X-101.437 Y-27.599 E2840.10537
G0 F6000 X-101.437 Y-27.999
G1 F720 X101.439 Y-28 E2850.22689
G0 F6000 X101.439 Y-28.4
G1 F720 X-101.437 Y-28.399 E2860.34842
G0 F6000 X-101.437 Y-28.799
G1 F720 X101.439 Y-28.8 E2870.46994
G0 F6000 X101.439 Y-29.2
G1 F720 X-101.437 Y-29.199 E2880.59147
G0 F6000 X-101.437 Y-29.599
G1 F720 X101.439 Y-29.6 E2890.71299
G0 F6000 X101.439 Y-30
G1 F720 X-101.437 Y-29.999 E2900.83452
G0 F6000 X-101.437 Y-30.399
G1 F720 X101.439 Y-30.4 E2910.95604
G0 F6000 X101.439 Y-30.8
G1 F720 X-101.437 Y-30.799 E2921.07757
G0 F6000 X-101.437 Y-31.199
G1 F720 X101.439 Y-31.2 E2931.19909
G0 F6000 X101.439 Y-31.6
G1 F720 X-101.437 Y-31.599 E2941.32062
G0 F6000 X-101.437 Y-31.999
G1 F720 X101.439 Y-32 E2951.44214
G0 F6000 X101.439 Y-32.4
G1 F720 X-101.437 Y-32.399 E2961.56367
G0 F6000 X-101.437 Y-32.799
G1 F720 X101.439 Y-32.8 E2971.68519
G0 F6000 X101.439 Y-33.2
G1 F720 X-101.437 Y-33.199 E2981.80672
G0 F6000 X-101.437 Y-33.599
G1 F720 X101.439 Y-33.6 E2991.92824
G0 F6000 X101.439 Y-34
G1 F720 X-101.437 Y-33.999 E3002.04976
G0 F6000 X-101.437 Y-34.399
G1 F720 X101.439 Y-34.4 E3012.17129
G0 F6000 X101.439 Y-34.8
G1 F720 X-101.437 Y-34.799 E3022.29281
G0 F6000 X-101.437 Y-35.199
G1 F720 X101.439 Y-35.2 E3032.41434
G0 F6000 X101.439 Y-35.6
G1 F720 X-101.437 Y-35.599 E3042.53586
G0 F6000 X-101.437 Y-35.999
G1 F720 X101.439 Y-36 E3052.65739
G0 F6000 X101.439 Y-36.4
G1 F720 X-101.437 Y-36.399 E3062.77891
G0 F6000 X-101.437 Y-36.799
G1 F720 X101.439 Y-36.8 E3072.90044
G0 F6000 X101.439 Y-37.2
G1 F720 X-101.437 Y-37.199 E3083.02196
G0 F6000 X-101.437 Y-37.599
G1 F720 X101.439 Y-37.6 E3093.14349
G0 F6000 X101.439 Y-38
G1 F720 X-101.437 Y-37.999 E3103.26501
G0 F6000 X-101.437 Y-38.399
G1 F720 X101.439 Y-38.4 E3113.38654
G0 F6000 X101.439 Y-38.8
G1 F720 X-101.437 Y-38.799 E3123.50806
G0 F6000 X-101.437 Y-39.199
G1 F720 X101.439 Y-39.2 E3133.62959
G0 F6000 X101.439 Y-39.6
G1 F720 X-101.437 Y-39.599 E3143.75111
G0 F6000 X-101.437 Y-39.999
G1 F720 X101.439 Y-40 E3153.87264
G0 F6000 X101.439 Y-40.4
G1 F720 X-101.437 Y-40.399 E3163.99416
G0 F6000 X-101.437 Y-40.799
G1 F720 X101.439 Y-40.8 E3174.11569
G0 F6000 X101.439 Y-41.2
G1 F720 X-101.437 Y-41.199 E3184.23721
G0 F6000 X-101.437 Y-41.599
G1 F720 X101.439 Y-41.6 E3194.35873
G0 F6000 X101.439 Y-42
G1 F720 X-101.437 Y-41.999 E3204.48026
G0 F6000 X-101.437 Y-42.399
G1 F720 X101.439 Y-42.4 E3214.60178
G0 F6000 X101.439 Y-42.8
G1 F720 X-101.437 Y-42.799 E3224.72331
G0 F6000 X-101.437 Y-43.199
G1 F720 X101.439 Y-43.2 E3234.84483
G0 F6000 X101.439 Y-43.6
G1 F720 X-101.437 Y-43.599 E3244.96636
G0 F6000 X-101.437 Y-43.999
G1 F720 X101.439 Y-44 E3255.08788
G0 F6000 X101.439 Y-44.4
G1 F720 X-101.437 Y-44.399 E3265.20941
G0 F6000 X-101.437 Y-44.799
G1 F720 X101.439 Y-44.8 E3275.33093
G0 F6000 X101.439 Y-45.2
G1 F720 X-101.437 Y-45.199 E3285.45246
G0 F6000 X-101.437 Y-45.599
G1 F720 X101.439 Y-45.6 E3295.57398
G0 F6000 X101.439 Y-46
G1 F720 X-101.437 Y-45.999 E3305.69551
G0 F6000 X-101.437 Y-46.399
G1 F720 X101.439 Y-46.4 E3315.81703
G0 F6000 X101.439 Y-46.8
G1 F720 X-101.437 Y-46.799 E3325.93856
G0 F6000 X-101.437 Y-47.199
G1 F720 X101.439 Y-47.2 E3336.06008
G0 F6000 X101.439 Y-47.6
G1 F720 X-101.437 Y-47.599 E3346.18161
G0 F6000 X-101.437 Y-47.999
G1 F720 X101.439 Y-48 E3356.30313
G0 F6000 X101.439 Y-48.4
G1 F720 X-101.437 Y-48.399 E3366.42466
G0 F6000 X-101.437 Y-48.799
G1 F720 X101.439 Y-48.8 E3376.54618
G0 F6000 X101.439 Y-49.2
G1 F720 X-101.437 Y-49.199 E3386.6677
G0 F6000 X-101.437 Y-49.599
G1 F720 X101.439 Y-49.6 E3396.78923
G0 F6000 X101.439 Y-50
G1 F720 X-101.437 Y-49.999 E3406.91075
G0 F6000 X-101.437 Y-50.399
G1 F720 X101.439 Y-50.4 E3417.03228
G0 F6000 X101.439 Y-50.8
G1 F720 X-101.437 Y-50.799 E3427.1538
G0 F6000 X-101.437 Y-51.199
G1 F720 X101.439 Y-51.2 E3437.27533
G0 F6000 X101.439 Y-51.6
G1 F720 X-101.437 Y-51.599 E3447.39685
G0 F6000 X-101.437 Y-51.999
G1 F720 X101.439 Y-52 E3457.51838
G0 F6000 X101.439 Y-52.4
G1 F720 X-101.437 Y-52.399 E3467.6399
G0 F6000 X-101.437 Y-52.799
G1 F720 X101.439 Y-52.8 E3477.76143
G0 F6000 X101.439 Y-53.2
G1 F720 X-101.437 Y-53.199 E3487.88295
G0 F6000 X-101.437 Y-53.599
G1 F720 X101.439 Y-53.6 E3498.00448
G0 F6000 X101.439 Y-54
G1 F720 X-101.437 Y-53.999 E3508.126
G0 F6000 X-101.437 Y-54.399
G1 F720 X101.439 Y-54.4 E3518.24753
G0 F6000 X101.439 Y-54.8
G1 F720 X-101.437 Y-54.799 E3528.36905
G0 F6000 X-101.437 Y-55.199
G1 F720 X101.439 Y-55.2 E3538.49058
G0 F6000 X101.439 Y-55.6
G1 F720 X-101.437 Y-55.599 E3548.6121
G0 F6000 X-101.437 Y-55.999
G1 F720 X101.439 Y-56 E3558.73363
G0 F6000 X101.439 Y-56.4
G1 F720 X-101.437 Y-56.399 E3568.85515
G0 F6000 X-101.437 Y-56.799
G1 F720 X101.439 Y-56.8 E3578.97667
G0 F6000 X101.439 Y-57.2
G1 F720 X-101.437 Y-57.199 E3589.0982
G0 F6000 X-101.437 Y-57.599
G1 F720 X101.439 Y-57.6 E3599.21972
G0 F6000 X101.439 Y-58
G1 F720 X-101.437 Y-57.999 E3609.34125
G0 F6000 X-101.437 Y-58.399
G1 F720 X101.439 Y-58.4 E3619.46277
G0 F6000 X101.439 Y-58.8
G1 F720 X-101.437 Y-58.799 E3629.5843
G0 F6000 X-101.437 Y-59.199
G1 F720 X101.439 Y-59.2 E3639.70582
G0 F6000 X101.439 Y-59.6
G1 F720 X-101.437 Y-59.599 E3649.82735
G0 F6000 X-101.437 Y-59.999
G1 F720 X101.439 Y-60 E3659.94887
G0 F6000 X101.439 Y-60.4
G1 F720 X-101.437 Y-60.399 E3670.0704
G0 F6000 X-101.437 Y-60.799
G1 F720 X101.439 Y-60.8 E3680.19192
G0 F6000 X101.439 Y-61.2
G1 F720 X-101.437 Y-61.199 E3690.31345
G0 F6000 X-101.437 Y-61.599
G1 F720 X101.439 Y-61.6 E3700.43497
G0 F6000 X101.439 Y-62
G1 F720 X-101.437 Y-61.999 E3710.5565
G0 F6000 X-101.437 Y-62.399
G1 F720 X101.439 Y-62.4 E3720.67802
G0 F6000 X101.439 Y-62.8
G1 F720 X-101.437 Y-62.799 E3730.79955
G0 F6000 X-101.437 Y-63.199
G1 F720 X101.439 Y-63.2 E3740.92107
G0 F6000 X101.439 Y-63.6
G1 F720 X-101.437 Y-63.599 E3751.0426
G0 F6000 X-101.437 Y-63.999
G1 F720 X101.439 Y-64 E3761.16412
G0 F6000 X101.439 Y-64.4
G1 F720 X-101.437 Y-64.399 E3771.28564
G0 F6000 X-101.437 Y-64.799
G1 F720 X101.439 Y-64.8 E3781.40717
G0 F6000 X101.439 Y-65.2
G1 F720 X-101.437 Y-65.199 E3791.52869
G0 F6000 X-101.437 Y-65.6
G1 F720 X101.439 Y-65.6 E3801.65022
G0 F6000 X101.439 Y-66
G1 F720 X-101.437 Y-66 E3811.77174
G0 F6000 X-101.437 Y-66.4
G1 F720 X101.439 Y-66.4 E3821.89327
G0 F6000 X101.439 Y-66.8
G1 F720 X-101.437 Y-66.8 E3832.01479
G0 F6000 X-101.437 Y-67.2
G1 F720 X101.439 Y-67.2 E3842.13632
G0 F6000 X101.439 Y-67.6
G1 F720 X-101.437 Y-67.6 E3852.25784
G0 F6000 X-101.437 Y-68
G1 F720 X101.439 Y-68 E3862.37937
G0 F6000 X101.439 Y-68.4
G1 F720 X-101.437 Y-68.4 E3872.50089
G0 F6000 X-101.437 Y-68.8
G1 F720 X101.439 Y-68.8 E3882.62242
G0 F6000 X101.439 Y-69.2
G1 F720 X-101.437 Y-69.2 E3892.74394
G0 F6000 X-101.437 Y-69.6
G1 F720 X101.439 Y-69.6 E3902.86547
G0 F6000 X101.439 Y-70
G1 F720 X-101.437 Y-70 E3912.98699
G0 F6000 X-101.437 Y-70.4
G1 F720 X101.439 Y-70.4 E3923.10852
G0 F6000 X101.439 Y-70.8
G1 F720 X-101.437 Y-70.8 E3933.23004
G0 F6000 X-101.437 Y-71.2
G1 F720 X101.439 Y-71.2 E3943.35157
G0 F6000 X101.439 Y-71.6
G1 F720 X-101.437 Y-71.6 E3953.47309
G0 F6000 X-101.437 Y-72
G1 F720 X101.439 Y-72 E3963.59461
G0 F6000 X101.439 Y-72.4
G1 F720 X-101.437 Y-72.4 E3973.71614
G0 F6000 X-101.437 Y-72.8
G1 F720 X101.439 Y-72.8 E3983.83766
G0 F6000 X101.439 Y-73.2
G1 F720 X-101.437 Y-73.2 E3993.95919
G0 F6000 X-101.437 Y-73.6
G1 F720 X101.439 Y-73.6 E4004.08071
G0 F6000 X101.439 Y-74
G1 F720 X-101.437 Y-74 E4014.20224
G0 F6000 X-101.437 Y-74.4
G1 F720 X101.439 Y-74.4 E4024.32376
G0 F6000 X101.439 Y-74.8
G1 F720 X-101.437 Y-74.8 E4034.44529
G0 F6000 X-101.437 Y-75.2
G1 F720 X101.439 Y-75.2 E4044.56681
G0 F6000 X101.439 Y-75.6
G1 F720 X-101.437 Y-75.6 E4054.68834
G0 F6000 X-101.437 Y-76
G1 F720 X101.439 Y-76 E4064.80986
G0 F6000 X101.439 Y-76.4
G1 F720 X-101.437 Y-76.4 E4074.93139
G0 F6000 X-101.437 Y-76.8
G1 F720 X101.439 Y-76.8 E4085.05291
G0 F6000 X101.439 Y-77.2
G1 F720 X-101.437 Y-77.2 E4095.17444
G0 F6000 X-101.437 Y-77.6
G1 F720 X101.439 Y-77.6 E4105.29596
G0 F6000 X101.439 Y-78
G1 F720 X-101.437 Y-78 E4115.41749
G0 F6000 X-101.437 Y-78.4
G1 F720 X101.439 Y-78.4 E4125.53901
; Layer Change GCode
; LAYER:1
G0 F6000 X-102.1 Y79.295 Z0.5
G0 X-102.417 Y79.539
G0 X-102.248 Y79.409
G0 X-102.248 Y79.409
G0 X-102.508 Y79.759
G0 X-102.508 Y79.759
G0 X-102.008 Y79.259
; TYPE:WALL-INNER
G1 F2400 X-102.008 Y79.259 E4125.53901
G1 X-102.008 Y-79.258 E4132.12938
G1 X102.009 Y-79.258 E4140.61142
G1 X102.009 Y79.259 E4147.20179
G1 X-102.008 Y79.259 E4155.68384
G0 F6000 X-102.508 Y79.759
; TYPE:WALL-OUTER
G1 F2100 X-102.508 Y79.759 E4155.68384
G1 X-102.508 Y-79.758 E4162.31578
G1 X102.509 Y-79.758 E4170.8394
G1 X102.509 Y79.759 E4177.47134
G1 X-102.508 Y79.759 E4185.99496
G0 F6000 X-101.499 Y78.818
; TYPE:FILL
G1 F2400 X-101.5 Y-78.817 E4192.54866
G0 F6000 X-101 Y-78.817
G1 F2400 X-100.999 Y78.818 E4199.10236
G0 F6000 X-100.499 Y78.818
G1 F2400 X-100.5 Y-78.817 E4205.65607
G0 F6000 X-100 Y-78.817
G1 F2400 X-99.999 Y78.818 E4212.20977
G0 F6000 X-99.499 Y78.818
G1 F2400 X-99.5 Y-78.817 E4218.76347
G0 F6000 X-99 Y-78.817
G1 F2400 X-98.999 Y78.818 E4225.31717
G0 F6000 X-98.499 Y78.818
G1 F2400 X-98.5 Y-78.817 E4231.87087
G0 F6000 X-98 Y-78.817
G1 F2400 X-97.999 Y78.818 E4238.42457
G0 F6000 X-97.499 Y78.818
G1 F2400 X-97.5 Y-78.817 E4244.97828
G0 F6000 X-97 Y-78.817
G1 F2400 X-96.999 Y78.818 E4251.53198
G0 F6000 X-96.499 Y78.818
G1 F2400 X-96.5 Y-78.817 E4258.08568
G0 F6000 X-96 Y-78.817
G1 F2400 X-95.999 Y78.818 E4264.63938
G0 F6000 X-95.499 Y78.818
G1 F2400 X-95.5 Y-78.817 E4271.19308
G0 F6000 X-95 Y-78.817
G1 F2400 X-94.999 Y78.818 E4277.74678
G0 F6000 X-94.499 Y78.818
G1 F2400 X-94.5 Y-78.817 E4284.30049
G0 F6000 X-94 Y-78.817
G1 F2400 X-93.999 Y78.818 E4290.85419
G0 F6000 X-93.499 Y78.818
G1 F2400 X-93.5 Y-78.817 E4297.40789
G0 F6000 X-93 Y-78.817
G1 F2400 X-92.999 Y78.818 E4303.96159
G0 F6000 X-92.499 Y78.818
G1 F2400 X-92.5 Y-78.817 E4310.51529
G0 F6000 X-92 Y-78.817
G1 F2400 X-91.999 Y78.818 E4317.06899
G0 F6000 X-91.499 Y78.818
G1 F2400 X-91.5 Y-78.817 E4323.6227
G0 F6000 X-91 Y-78.817
G1 F2400 X-90.999 Y78.818 E4330.1764
G0 F6000 X-90.499 Y78.818
G1 F2400 X-90.5 Y-78.817 E4336.7301
G0 F6000 X-90 Y-78.817
G1 F2400 X-89.999 Y78.818 E4343.2838
G0 F6000 X-89.499 Y78.818
G1 F2400 X-89.5 Y-78.817 E4349.8375
G0 F6000 X-89 Y-78.817
G1 F2400 X-88.999 Y78.818 E4356.39121
G0 F6000 X-88.499 Y78.818
G1 F2400 X-88.5 Y-78.817 E4362.94491
G0 F6000 X-88 Y-78.817
G1 F2400 X-87.999 Y78.818 E4369.49861
G0 F6000 X-87.499 Y78.818
G1 F2400 X-87.5 Y-78.817 E4376.05231
G0 F6000 X-87 Y-78.817
G1 F2400 X-86.999 Y78.818 E4382.60601
G0 F6000 X-86.499 Y78.818
G1 F2400 X-86.5 Y-78.817 E4389.15971
G0 F6000 X-86 Y-78.817
G1 F2400 X-85.999 Y78.818 E4395.71342
G0 F6000 X-85.499 Y78.818
G1 F2400 X-85.5 Y-78.817 E4402.26712
G0 F6000 X-85 Y-78.817
G1 F2400 X-84.999 Y78.818 E4408.82082
G0 F6000 X-84.499 Y78.818
G1 F2400 X-84.5 Y-78.817 E4415.37452
G0 F6000 X-84 Y-78.817
G1 F2400 X-83.999 Y78.818 E4421.92822
G0 F6000 X-83.499 Y78.818
G1 F2400 X-83.5 Y-78.817 E4428.48192
G0 F6000 X-83 Y-78.817
G1 F2400 X-82.999 Y78.818 E4435.03563
G0 F6000 X-82.499 Y78.818
G1 F2400 X-82.5 Y-78.817 E4441.58933
G0 F6000 X-82 Y-78.817
G1 F2400 X-81.999 Y78.818 E4448.14303
G0 F6000 X-81.499 Y78.818
G1 F2400 X-81.5 Y-78.817 E4454.69673
G0 F6000 X-81 Y-78.817
G1 F2400 X-80.999 Y78.818 E4461.25043
G0 F6000 X-80.499 Y78.818
G1 F2400 X-80.5 Y-78.817 E4467.80413
G0 F6000 X-80 Y-78.817
G1 F2400 X-79.999 Y78.818 E4474.35784
G0 F6000 X-79.499 Y78.818
G1 F2400 X-79.5 Y-78.817 E4480.91154
G0 F6000 X-79 Y-78.817
G1 F2400 X-78.999 Y78.818 E4487.46524
G0 F6000 X-78.499 Y78.818
G1 F2400 X-78.5 Y-78.817 E4494.01894
G0 F6000 X-78 Y-78.817
G1 F2400 X-77.999 Y78.818 E4500.57264
G0 F6000 X-77.499 Y78.818
G1 F2400 X-77.5 Y-78.817 E4507.12635
G0 F6000 X-77 Y-78.817
G1 F2400 X-76.999 Y78.818 E4513.68005
G0 F6000 X-76.499 Y78.818
G1 F2400 X-76.5 Y-78.817 E4520.23375
G0 F6000 X-76 Y-78.817
G1 F2400 X-75.999 Y78.818 E4526.78745
G0 F6000 X-75.499 Y78.818
G1 F2400 X-75.5 Y-78.817 E4533.34115
G0 F6000 X-75 Y-78.817
G1 F2400 X-74.999 Y78.818 E4539.89485
G0 F6000 X-74.499 Y78.818
G1 F2400 X-74.5 Y-78.817 E4546.44856
G0 F6000 X-74 Y-78.817
G1 F2400 X-73.999 Y78.818 E4553.00226
G0 F6000 X-73.499 Y78.818
G1 F2400 X-73.5 Y-78.817 E4559.55596
G0 F6000 X-73 Y-78.817
G1 F2400 X-72.999 Y78.818 E4566.10966
G0 F6000 X-72.499 Y78.818
G1 F2400 X-72.5 Y-78.817 E4572.66336
G0 F6000 X-72 Y-78.817
G1 F2400 X-71.999 Y78.818 E4579.21706
G0 F6000 X-71.499 Y78.818
G1 F2400 X-71.5 Y-78.817 E4585.77077
G0 F6000 X-71 Y-78.817
G1 F2400 X-70.999 Y78.818 E4592.32447
G0 F6000 X-70.499 Y78.818
G1 F2400 X-70.5 Y-78.817 E4598.87817
G0 F6000 X-70 Y-78.817
G1 F2400 X-69.999 Y78.818 E4605.43187
G0 F6000 X-69.499 Y78.818
G1 F2400 X-69.5 Y-78.817 E4611.98557
G0 F6000 X-69 Y-78.817
G1 F2400 X-68.999 Y78.818 E4618.53927
G0 F6000 X-68.499 Y78.818
G1 F2400 X-68.5 Y-78.817 E4625.09298
G0 F6000 X-68 Y-78.817
G1 F2400 X-67.999 Y78.818 E4631.64668
G0 F6000 X-67.499 Y78.818
G1 F2400 X-67.5 Y-78.817 E4638.20038
G0 F6000 X-67 Y-78.817
G1 F2400 X-66.999 Y78.818 E4644.75408
G0 F6000 X-66.499 Y78.818
G1 F2400 X-66.5 Y-78.817 E4651.30778
G0 F6000 X-66 Y-78.817
G1 F2400 X-65.999 Y78.818 E4657.86149
G0 F6000 X-65.499 Y78.818
G1 F2400 X-65.5 Y-78.817 E4664.41519
G0 F6000 X-65 Y-78.817
G1 F2400 X-64.999 Y78.818 E4670.96889
G0 F6000 X-64.499 Y78.818
G1 F2400 X-64.5 Y-78.817 E4677.52259
G0 F6000 X-64 Y-78.817
G1 F2400 X-63.999 Y78.818 E4684.07629
G0 F6000 X-63.499 Y78.818
G1 F2400 X-63.5 Y-78.817 E4690.62999
G0 F6000 X-63 Y-78.817
G1 F2400 X-62.999 Y78.818 E4697.1837
G0 F6000 X-62.499 Y78.818
G1 F2400 X-62.5 Y-78.817 E4703.7374
G0 F6000 X-62 Y-78.817
G1 F2400 X-61.999 Y78.818 E4710.2911
G0 F6000 X-61.499 Y78.818
G1 F2400 X-61.5 Y-78.817 E4716.8448
G0 F6000 X-61 Y-78.817
G1 F2400 X-60.999 Y78.818 E4723.3985
G0 F6000 X-60.499 Y78.818
G1 F2400 X-60.5 Y-78.817 E4729.9522
G0 F6000 X-60 Y-78.817
G1 F2400 X-59.999 Y78.818 E4736.50591
G0 F6000 X-59.499 Y78.818
G1 F2400 X-59.5 Y-78.817 E4743.05961
G0 F6000 X-59 Y-78.818
G1 F2400 X-58.999 Y78.818 E4749.61335
G0 F6000 X-58.499 Y78.818
G1 F2400 X-58.5 Y-78.818 E4756.16709
G0 F6000 X-58 Y-78.818
G1 F2400 X-57.999 Y78.818 E4762.72084
G0 F6000 X-57.499 Y78.818
G1 F2400 X-57.5 Y-78.818 E4769.27458
G0 F6000 X-57 Y-78.818
G1 F2400 X-56.999 Y78.818 E4775.82832
G0 F6000 X-56.499 Y78.818
G1 F2400 X-56.5 Y-78.818 E4782.38207
G0 F6000 X-56 Y-78.818
G1 F2400 X-55.999 Y78.818 E4788.93581
G0 F6000 X-55.499 Y78.818
G1 F2400 X-55.5 Y-78.818 E4795.48955
G0 F6000 X-55 Y-78.818
G1 F2400 X-54.999 Y78.818 E4802.0433
G0 F6000 X-54.499 Y78.818
G1 F2400 X-54.5 Y-78.818 E4808.59704
G0 F6000 X-54 Y-78.818
G1 F2400 X-53.999 Y78.818 E4815.15078
G0 F6000 X-53.499 Y78.818
G1 F2400 X-53.5 Y-78.818 E4821.70453
G0 F6000 X-53 Y-78.818
G1 F2400 X-52.999 Y78.818 E4828.25827
G0 F6000 X-52.499 Y78.818
G1 F2400 X-52.5 Y-78.818 E4834.81201
G0 F6000 X-52 Y-78.818
G1 F2400 X-51.999 Y78.818 E4841.36576
G0 F6000 X-51.499 Y78.818
G1 F2400 X-51.5 Y-78.818 E4847.9195
G0 F6000 X-51 Y-78.818
G1 F2400 X-50.999 Y78.818 E4854.47324
G0 F6000 X-50.499 Y78.818
G1 F2400 X-50.5 Y-78.818 E4861.02699
G0 F6000 X-50 Y-78.818
G1 F2400 X-49.999 Y78.818 E4867.58073
G0 F6000 X-49.499 Y78.818
G1 F2400 X-49.5 Y-78.818 E4874.13447
G0 F6000 X-49 Y-78.818
G1 F2400 X-48.999 Y78.818 E4880.68822
G0 F6000 X-48.499 Y78.818
G1 F2400 X-48.5 Y-78.818 E4887.24196
G0 F6000 X-48 Y-78.818
G1 F2400 X-47.999 Y78.818 E4893.7957
G0 F6000 X-47.499 Y78.818
G1 F2400 X-47.5 Y-78.818 E4900.34945
G0 F6000 X-47 Y-78.818
G1 F2400 X-46.999 Y78.818 E4906.90319
G0 F6000 X-46.499 Y78.818
G1 F2400 X-46.5 Y-78.818 E4913.45693
G0 F6000 X-46 Y-78.818
G1 F2400 X-45.999 Y78.818 E4920.01068
G0 F6000 X-45.499 Y78.818
G1 F2400 X-45.5 Y-78.818 E4926.56442
G0 F6000 X-45 Y-78.818
G1 F2400 X-44.999 Y78.818 E4933.11816
G0 F6000 X-44.499 Y78.818
G1 F2400 X-44.5 Y-78.818 E4939.67191
G0 F6000 X-44 Y-78.818
G1 F2400 X-43.999 Y78.818 E4946.22565
G0 F6000 X-43.499 Y78.818
G1 F2400 X-43.5 Y-78.818 E4952.77939
G0 F6000 X-43 Y-78.818
G1 F2400 X-42.999 Y78.818 E4959.33314
G0 F6000 X-42.499 Y78.818
G1 F2400 X-42.5 Y-78.818 E4965.88688
G0 F6000 X-42 Y-78.818
G1 F2400 X-41.999 Y78.818 E4972.44062
G0 F6000 X-41.499 Y78.818
G1 F2400 X-41.5 Y-78.818 E4978.99437
G0 F6000 X-41 Y-78.818
G1 F2400 X-40.999 Y78.818 E4985.54811
G0 F6000 X-40.499 Y78.818
G1 F2400 X-40.5 Y-78.818 E4992.10185
G0 F6000 X-40 Y-78.818
G1 F2400 X-39.999 Y78.818 E4998.6556
G0 F6000 X-39.499 Y78.818
G1 F2400 X-39.5 Y-78.818 E5005.20934
G0 F6000 X-39 Y-78.818
G1 F2400 X-38.999 Y78.818 E5011.76308
G0 F6000 X-38.499 Y78.818
G1 F2400 X-38.5 Y-78.818 E5018.31683
G0 F6000 X-38 Y-78.818
G1 F2400 X-37.999 Y78.818 E5024.87057
G0 F6000 X-37.499 Y78.818
G1 F2400 X-37.5 Y-78.818 E5031.42431
G0 F6000 X-37 Y-78.818
G1 F2400 X-36.999 Y78.818 E5037.97806
G0 F6000 X-36.499 Y78.818
G1 F2400 X-36.5 Y-78.818 E5044.5318
G0 F6000 X-36 Y-78.818
G1 F2400 X-35.999 Y78.818 E5051.08554
G0 F6000 X-35.499 Y78.818
G1 F2400 X-35.5 Y-78.818 E5057.63929
G0 F6000 X-35 Y-78.818
G1 F2400 X-34.999 Y78.818 E5064.19303
G0 F6000 X-34.499 Y78.818
G1 F2400 X-34.5 Y-78.818 E5070.74677
G0 F6000 X-34 Y-78.818
G1 F2400 X-33.999 Y78.818 E5077.30052
G0 F6000 X-33.499 Y78.818
G1 F2400 X-33.5 Y-78.818 E5083.85426
G0 F6000 X-33 Y-78.818
G1 F2400 X-32.999 Y78.818 E5090.408
G0 F6000 X-32.499 Y78.818
G1 F2400 X-32.5 Y-78.818 E5096.96175
G0 F6000 X-32 Y-78.818
G1 F2400 X-31.999 Y78.818 E5103.51549
G0 F6000 X-31.499 Y78.818
G1 F2400 X-31.5 Y-78.818 E5110.06923
G0 F6000 X-31 Y-78.818
G1 F2400 X-30.999 Y78.818 E5116.62298
G0 F6000 X-30.499 Y78.818
G1 F2400 X-30.5 Y-78.818 E5123.17672
G0 F6000 X-30 Y-78.818
G1 F2400 X-29.999 Y78.818 E5129.73046
G0 F6000 X-29.499 Y78.818
G1 F2400 X-29.5 Y-78.818 E5136.28421
G0 F6000 X-29 Y-78.818
G1 F2400 X-28.999 Y78.818 E5142.83795
G0 F6000 X-28.499 Y78.818
G1 F2400 X-28.5 Y-78.818 E5149.39169
G0 F6000 X-28 Y-78.818
G1 F2400 X-27.999 Y78.818 E5155.94544
G0 F6000 X-27.499 Y78.818
G1 F2400 X-27.5 Y-78.818 E5162.49918
G0 F6000 X-27 Y-78.818
G1 F2400 X-26.999 Y78.818 E5169.05292
G0 F6000 X-26.499 Y78.818
G1 F2400 X-26.5 Y-78.818 E5175.60667
G0 F6000 X-26 Y-78.818
G1 F2400 X-25.999 Y78.818 E5182.16041
G0 F6000 X-25.499 Y78.818
G1 F2400 X-25.5 Y-78.818 E5188.71415
G0 F6000 X-25 Y-78.818
G1 F2400 X-24.999 Y78.818 E5195.2679
G0 F6000 X-24.499 Y78.818
G1 F2400 X-24.5 Y-78.818 E5201.82164
G0 F6000 X-24 Y-78.818
G1 F2400 X-23.999 Y78.818 E5208.37538
G0 F6000 X-23.499 Y78.818
G1 F2400 X-23.5 Y-78.818 E5214.92913
G0 F6000 X-23 Y-78.818
G1 F2400 X-22.999 Y78.818 E5221.48287
G0 F6000 X-22.499 Y78.818
G1 F2400 X-22.5 Y-78.818 E5228.03661
G0 F6000 X-22 Y-78.818
G1 F2400 X-21.999 Y78.818 E5234.59036
G0 F6000 X-21.499 Y78.818
G1 F2400 X-21.5 Y-78.818 E5241.1441
G0 F6000 X-21 Y-78.818
G1 F2400 X-20.999 Y78.818 E5247.69784
G0 F6000 X-20.499 Y78.818
G1 F2400 X-20.5 Y-78.818 E5254.25159
G0 F6000 X-20 Y-78.818
G1 F2400 X-19.999 Y78.818 E5260.80533
G0 F6000 X-19.499 Y78.818
G1 F2400 X-19.5 Y-78.818 E5267.35907
G0 F6000 X-19 Y-78.818
G1 F2400 X-18.999 Y78.818 E5273.91282
G0 F6000 X-18.499 Y78.818
G1 F2400 X-18.5 Y-78.818 E5280.46656
G0 F6000 X-18 Y-78.818
G1 F2400 X-17.999 Y78.818 E5287.0203
G0 F6000 X-17.499 Y78.818
G1 F2400 X-17.5 Y-78.818 E5293.57405
G0 F6000 X-17 Y-78.818
G1 F2400 X-16.999 Y78.818 E5300.12779
G0 F6000 X-16.499 Y78.818
G1 F2400 X-16.5 Y-78.818 E5306.68153
G0 F6000 X-16 Y-78.818
G1 F2400 X-15.999 Y78.818 E5313.23528
G0 F6000 X-15.499 Y78.818
G1 F2400 X-15.5 Y-78.818 E5319.78902
G0 F6000 X-15 Y-78.818
G1 F2400 X-14.999 Y78.818 E5326.34276
G0 F6000 X-14.499 Y78.818
G1 F2400 X-14.5 Y-78.818 E5332.89651
G0 F6000 X-14 Y-78.818
G1 F2400 X-13.999 Y78.818 E5339.45025
G0 F6000 X-13.499 Y78.818
G1 F2400 X-13.5 Y-78.818 E5346.00399
G0 F6000 X-13 Y-78.818
G1 F2400 X-12.999 Y78.818 E5352.55774
G0 F6000 X-12.499 Y78.818
G1 F2400 X-12.5 Y-78.818 E5359.11148
G0 F6000 X-12 Y-78.818
G1 F2400 X-11.999 Y78.818 E5365.66522
G0 F6000 X-11.499 Y78.818
G1 F2400 X-11.5 Y-78.818 E5372.21897
G0 F6000 X-11 Y-78.818
G1 F2400 X-10.999 Y78.818 E5378.77271
G0 F6000 X-10.499 Y78.818
G1 F2400 X-10.5 Y-78.818 E5385.32645
G0 F6000 X-10 Y-78.818
G1 F2400 X-9.999 Y78.818 E5391.8802
G0 F6000 X-9.499 Y78.818
G1 F2400 X-9.5 Y-78.818 E5398.43394
G0 F6000 X-9 Y-78.818
G1 F2400 X-8.999 Y78.818 E5404.98768
G0 F6000 X-8.499 Y78.818
G1 F2400 X-8.5 Y-78.818 E5411.54143
G0 F6000 X-8 Y-78.818
G1 F2400 X-7.999 Y78.818 E5418.09517
G0 F6000 X-7.499 Y78.818
G1 F2400 X-7.5 Y-78.818 E5424.64891
G0 F6000 X-7 Y-78.818
G1 F2400 X-6.999 Y78.818 E5431.20266
G0 F6000 X-6.499 Y78.818
G1 F2400 X-6.5 Y-78.818 E5437.7564
G0 F6000 X-6 Y-78.818
G1 F2400 X-5.999 Y78.818 E5444.31014
G0 F6000 X-5.499 Y78.818
G1 F2400 X-5.5 Y-78.818 E5450.86389
G0 F6000 X-5 Y-78.818
G1 F2400 X-4.999 Y78.818 E5457.41763
G0 F6000 X-4.499 Y78.818
G1 F2400 X-4.5 Y-78.818 E5463.97137
G0 F6000 X-4 Y-78.818
G1 F2400 X-3.999 Y78.818 E5470.52512
G0 F6000 X-3.499 Y78.818
G1 F2400 X-3.5 Y-78.818 E5477.07886
G0 F6000 X-3 Y-78.818
G1 F2400 X-2.999 Y78.818 E5483.6326
G0 F6000 X-2.499 Y78.818
G1 F2400 X-2.5 Y-78.818 E5490.18635
G0 F6000 X-2 Y-78.818
G1 F2400 X-1.999 Y78.818 E5496.74009
G0 F6000 X-1.499 Y78.818
G1 F2400 X-1.5 Y-78.818 E5503.29383
G0 F6000 X-1 Y-78.818
G1 F2400 X-0.999 Y78.818 E5509.84757
G0 F6000 X-0.499 Y78.818
G1 F2400 X-0.5 Y-78.818 E5516.40132
G0 F6000 X0 Y-78.818
G1 F2400 X0 Y78.819 E5522.9551
G0 F6000 X0.5 Y78.819
G1 F2400 X0.499 Y-78.817 E5529.50885
G0 F6000 X0.999 Y-78.817
G1 F2400 X1 Y78.819 E5536.06259
G0 F6000 X1.5 Y78.819
G1 F2400 X1.499 Y-78.817 E5542.61633
G0 F6000 X1.999 Y-78.817
G1 F2400 X2 Y78.819 E5549.17008
G0 F6000 X2.5 Y78.819
G1 F2400 X2.499 Y-78.817 E5555.72382
G0 F6000 X2.999 Y-78.817
G1 F2400 X3 Y78.819 E5562.27756
G0 F6000 X3.5 Y78.819
G1 F2400 X3.499 Y-78.817 E5568.83131
G0 F6000 X3.999 Y-78.817
G1 F2400 X4 Y78.819 E5575.38505
G0 F6000 X4.5 Y78.819
G1 F2400 X4.499 Y-78.817 E5581.93879
G0 F6000 X4.999 Y-78.817
G1 F2400 X5 Y78.819 E5588.49254
G0 F6000 X5.5 Y78.819
G1 F2400 X5.499 Y-78.817 E5595.04628
G0 F6000 X5.999 Y-78.817
G1 F2400 X6 Y78.819 E5601.60002
G0 F6000 X6.5 Y78.819
G1 F2400 X6.499 Y-78.817 E5608.15377
G0 F6000 X6.999 Y-78.817
G1 F2400 X7 Y78.819 E5614.70751
G0 F6000 X7.5 Y78.819
G1 F2400 X7.499 Y-78.817 E5621.26125
G0 F6000 X7.999 Y-78.817
G1 F2400 X8 Y78.819 E5627.815
G0 F6000 X8.5 Y78.819
G1 F2400 X8.499 Y-78.817 E5634.36874
G0 F6000 X8.999 Y-78.817
G1 F2400 X9 Y78.819 E5640.92248
G0 F6000 X9.5 Y78.819
G1 F2400 X9.499 Y-78.817 E5647.47623
G0 F6000 X9.999 Y-78.817
G1 F2400 X10 Y78.819 E5654.02997
G0 F6000 X10.5 Y78.819
G1 F2400 X10.499 Y-78.817 E5660.58371
G0 F6000 X10.999 Y-78.817
G1 F2400 X11 Y78.819 E5667.13746
G0 F6000 X11.5 Y78.819
G1 F2400 X11.499 Y-78.817 E5673.6912
G0 F6000 X11.999 Y-78.817
G1 F2400 X12 Y78.819 E5680.24494
G0 F6000 X12.5 Y78.819
G1 F2400 X12.499 Y-78.817 E5686.79869
G0 F6000 X12.999 Y-78.817
G1 F2400 X13 Y78.819 E5693.35243
G0 F6000 X13.5 Y78.819
G1 F2400 X13.499 Y-78.817 E5699.90617
G0 F6000 X13.999 Y-78.817
G1 F2400 X14 Y78.819 E5706.45992
G0 F6000 X14.5 Y78.819
G1 F2400 X14.499 Y-78.817 E5713.01366
G0 F6000 X14.999 Y-78.817
G1 F2400 X15 Y78.819 E5719.5674
G0 F6000 X15.5 Y78.819
G1 F2400 X15.499 Y-78.817 E5726.12115
G0 F6000 X15.999 Y-78.817
G1 F2400 X16 Y78.819 E5732.67489
G0 F6000 X16.5 Y78.819
G1 F2400 X16.499 Y-78.817 E5739.22863
G0 F6000 X16.999 Y-78.817
G1 F2400 X17 Y78.819 E5745.78238
G0 F6000 X17.5 Y78.819
G1 F2400 X17.499 Y-78.817 E5752.33612
G0 F6000 X17.999 Y-78.817
G1 F2400 X18 Y78.819 E5758.88986
G0 F6000 X18.5 Y78.819
G1 F2400 X18.499 Y-78.817 E5765.44361
G0 F6000 X18.999 Y-78.817
G1 F2400 X19 Y78.819 E5771.99735
G0 F6000 X19.5 Y78.819
G1 F2400 X19.499 Y-78.817 E5778.55109
G0 F6000 X19.999 Y-78.817
G1 F2400 X20 Y78.819 E5785.10484
G0 F6000 X20.5 Y78.819
G1 F2400 X20.499 Y-78.817 E5791.65858
G0 F6000 X20.999 Y-78.817
G1 F2400 X21 Y78.819 E5798.21232
G0 F6000 X21.5 Y78.819
G1 F2400 X21.499 Y-78.817 E5804.76607
G0 F6000 X21.999 Y-78.817
G1 F2400 X22 Y78.819 E5811.31981
G0 F6000 X22.5 Y78.819
G1 F2400 X22.499 Y-78.817 E5817.87355
G0 F6000 X22.999 Y-78.817
G1 F2400 X23 Y78.819 E5824.4273
G0 F6000 X23.5 Y78.819
G1 F2400 X23.499 Y-78.817 E5830.98104
G0 F6000 X23.999 Y-78.817
G1 F2400 X24 Y78.819 E5837.53478
G0 F6000 X24.5 Y78.819
G1 F2400 X24.499 Y-78.817 E5844.08853
G0 F6000 X24.999 Y-78.817
G1 F2400 X25 Y78.819 E5850.64227
G0 F6000 X25.5 Y78.819
G1 F2400 X25.499 Y-78.817 E5857.19601
G0 F6000 X25.999 Y-78.817
G1 F2400 X26 Y78.819 E5863.74976
G0 F6000 X26.5 Y78.819
G1 F2400 X26.499 Y-78.817 E5870.3035
G0 F6000 X26.999 Y-78.817
G1 F2400 X27 Y78.819 E5876.85724
G0 F6000 X27.5 Y78.819
G1 F2400 X27.499 Y-78.817 E5883.41099
G0 F6000 X27.999 Y-78.817
G1 F2400 X28 Y78.819 E5889.96473
G0 F6000 X28.5 Y78.819
G1 F2400 X28.499 Y-78.817 E5896.51847
G0 F6000 X28.999 Y-78.817
G1 F2400 X29 Y78.819 E5903.07222
G0 F6000 X29.5 Y78.819
G1 F2400 X29.499 Y-78.817 E5909.62596
G0 F6000 X29.999 Y-78.817
G1 F2400 X30 Y78.819 E5916.1797
G0 F6000 X30.5 Y78.819
G1 F2400 X30.499 Y-78.817 E5922.73345
G0 F6000 X30.999 Y-78.817
G1 F2400 X31 Y78.819 E5929.28719
G0 F6000 X31.5 Y78.819
G1 F2400 X31.499 Y-78.817 E5935.84093
G0 F6000 X31.999 Y-78.817
G1 F2400 X32 Y78.819 E5942.39468
G0 F6000 X32.5 Y78.819
G1 F2400 X32.499 Y-78.817 E5948.94842
G0 F6000 X32.999 Y-78.817
G1 F2400 X33 Y78.819 E5955.50216
G0 F6000 X33.5 Y78.819
G1 F2400 X33.499 Y-78.817 E5962.0559
G0 F6000 X33.999 Y-78.817
G1 F2400 X34 Y78.819 E5968.60965
G0 F6000 X34.5 Y78.819
G1 F2400 X34.499 Y-78.817 E5975.16339
G0 F6000 X34.999 Y-78.817
G1 F2400 X35 Y78.819 E5981.71713
G0 F6000 X35.5 Y78.819
G1 F2400 X35.499 Y-78.817 E5988.27088
G0 F6000 X35.999 Y-78.817
G1 F2400 X36 Y78.819 E5994.82462
G0 F6000 X36.5 Y78.819
G1 F2400 X36.499 Y-78.817 E6001.37836
G0 F6000 X36.999 Y-78.817
G1 F2400 X37 Y78.819 E6007.93211
G0 F6000 X37.5 Y78.819
G1 F2400 X37.499 Y-78.817 E6014.48585
G0 F6000 X37.999 Y-78.817
G1 F2400 X38 Y78.819 E6021.03959
G0 F6000 X38.5 Y78.819
G1 F2400 X38.499 Y-78.817 E6027.59334
G0 F6000 X38.999 Y-78.817
G1 F2400 X39 Y78.819 E6034.14708
G0 F6000 X39.5 Y78.819
G1 F2400 X39.499 Y-78.817 E6040.70082
G0 F6000 X39.999 Y-78.817
G1 F2400 X40 Y78.819 E6047.25457
G0 F6000 X40.5 Y78.819
G1 F2400 X40.499 Y-78.817 E6053.80831
G0 F6000 X40.999 Y-78.817
G1 F2400 X41 Y78.819 E6060.36205
G0 F6000 X41.5 Y78.819
G1 F2400 X41.499 Y-78.817 E6066.9158
G0 F6000 X41.999 Y-78.817
G1 F2400 X42 Y78.819 E6073.46954
G0 F6000 X42.5 Y78.819
G1 F2400 X42.499 Y-78.817 E6080.02328
G0 F6000 X42.999 Y-78.817
G1 F2400 X43 Y78.819 E6086.57703
G0 F6000 X43.5 Y78.819
G1 F2400 X43.499 Y-78.817 E6093.13077
G0 F6000 X43.999 Y-78.817
G1 F2400 X44 Y78.819 E6099.68451
G0 F6000 X44.5 Y78.819
G1 F2400 X44.499 Y-78.817 E6106.23826
G0 F6000 X44.999 Y-78.817
G1 F2400 X45 Y78.819 E6112.792
G0 F6000 X45.5 Y78.819
G1 F2400 X45.499 Y-78.817 E6119.34574
G0 F6000 X45.999 Y-78.817
G1 F2400 X46 Y78.819 E6125.89949
G0 F6000 X46.5 Y78.819
G1 F2400 X46.499 Y-78.817 E6132.45323
G0 F6000 X46.999 Y-78.817
G1 F2400 X47 Y78.819 E6139.00697
G0 F6000 X47.5 Y78.819
G1 F2400 X47.499 Y-78.817 E6145.56072
G0 F6000 X47.999 Y-78.817
G1 F2400 X48 Y78.819 E6152.11446
G0 F6000 X48.5 Y78.819
G1 F2400 X48.499 Y-78.817 E6158.6682
G0 F6000 X48.999 Y-78.817
G1 F2400 X49 Y78.819 E6165.22195
G0 F6000 X49.5 Y78.819
G1 F2400 X49.499 Y-78.817 E6171.77569
G0 F6000 X49.999 Y-78.817
G1 F2400 X50 Y78.819 E6178.32943
G0 F6000 X50.5 Y78.819
G1 F2400 X50.499 Y-78.817 E6184.88318
G0 F6000 X50.999 Y-78.817
G1 F2400 X51 Y78.819 E6191.43692
G0 F6000 X51.5 Y78.819
G1 F2400 X51.499 Y-78.817 E6197.99066
G0 F6000 X51.999 Y-78.817
G1 F2400 X52 Y78.819 E6204.54441
G0 F6000 X52.5 Y78.819
G1 F2400 X52.499 Y-78.817 E6211.09815
G0 F6000 X52.999 Y-78.817
G1 F2400 X53 Y78.819 E6217.65189
G0 F6000 X53.5 Y78.819
G1 F2400 X53.499 Y-78.817 E6224.20564
G0 F6000 X53.999 Y-78.817
G1 F2400 X54 Y78.819 E6230.75938
G0 F6000 X54.5 Y78.819
G1 F2400 X54.499 Y-78.817 E6237.31312
G0 F6000 X54.999 Y-78.817
G1 F2400 X55 Y78.819 E6243.86687
G0 F6000 X55.5 Y78.819
G1 F2400 X55.499 Y-78.817 E6250.42061
G0 F6000 X55.999 Y-78.817
G1 F2400 X56 Y78.819 E6256.97435
G0 F6000 X56.5 Y78.819
G1 F2400 X56.499 Y-78.817 E6263.5281
G0 F6000 X56.999 Y-78.817
G1 F2400 X57 Y78.819 E6270.08184
G0 F6000 X57.5 Y78.819
G1 F2400 X57.499 Y-78.817 E6276.63558
G0 F6000 X57.999 Y-78.817
G1 F2400 X58 Y78.819 E6283.18933
G0 F6000 X58.5 Y78.819
G1 F2400 X58.499 Y-78.817 E6289.74307
G0 F6000 X58.999 Y-78.817
G1 F2400 X59 Y78.819 E6296.29681
G0 F6000 X59.5 Y78.818
G1 F2400 X59.499 Y-78.817 E6302.85052
G0 F6000 X59.999 Y-78.817
G1 F2400 X60 Y78.818 E6309.40422
G0 F6000 X60.5 Y78.818
G1 F2400 X60.499 Y-78.817 E6315.95792
G0 F6000 X60.999 Y-78.817
G1 F2400 X61 Y78.818 E6322.51162
G0 F6000 X61.5 Y78.818
G1 F2400 X61.499 Y-78.817 E6329.06532
G0 F6000 X61.999 Y-78.817
G1 F2400 X62 Y78.818 E6335.61902
G0 F6000 X62.5 Y78.818
G1 F2400 X62.499 Y-78.817 E6342.17273
G0 F6000 X62.999 Y-78.817
G1 F2400 X63 Y78.818 E6348.72643
G0 F6000 X63.5 Y78.818
G1 F2400 X63.499 Y-78.817 E6355.28013
G0 F6000 X63.999 Y-78.817
G1 F2400 X64 Y78.818 E6361.83383
G0 F6000 X64.5 Y78.818
G1 F2400 X64.499 Y-78.817 E6368.38753
G0 F6000 X64.999 Y-78.817
G1 F2400 X65 Y78.818 E6374.94123
G0 F6000 X65.5 Y78.818
G1 F2400 X65.499 Y-78.817 E6381.49494
G0 F6000 X65.999 Y-78.817
G1 F2400 X66 Y78.818 E6388.04864
G0 F6000 X66.5 Y78.818
G1 F2400 X66.499 Y-78.817 E6394.60234
G0 F6000 X66.999 Y-78.817
G1 F2400 X67 Y78.818 E6401.15604
G0 F6000 X67.5 Y78.818
G1 F2400 X67.499 Y-78.817 E6407.70974
G0 F6000 X67.999 Y-78.817
G1 F2400 X68 Y78.818 E6414.26345
G0 F6000 X68.5 Y78.818
G1 F2400 X68.499 Y-78.817 E6420.81715
G0 F6000 X68.999 Y-78.817
G1 F2400 X69 Y78.818 E6427.37085
G0 F6000 X69.5 Y78.818
G1 F2400 X69.499 Y-78.817 E6433.92455
G0 F6000 X69.999 Y-78.817
G1 F2400 X70 Y78.818 E6440.47825
G0 F6000 X70.5 Y78.818
G1 F2400 X70.499 Y-78.817 E6447.03195
G0 F6000 X70.999 Y-78.817
G1 F2400 X71 Y78.818 E6453.58566
G0 F6000 X71.5 Y78.818
G1 F2400 X71.499 Y-78.817 E6460.13936
G0 F6000 X71.999 Y-78.817
G1 F2400 X72 Y78.818 E6466.69306
G0 F6000 X72.5 Y78.818
G1 F2400 X72.499 Y-78.817 E6473.24676
G0 F6000 X72.999 Y-78.817
G1 F2400 X73 Y78.818 E6479.80046
G0 F6000 X73.5 Y78.818
G1 F2400 X73.499 Y-78.817 E6486.35416
G0 F6000 X73.999 Y-78.817
G1 F2400 X74 Y78.818 E6492.90787
G0 F6000 X74.5 Y78.818
G1 F2400 X74.499 Y-78.817 E6499.46157
G0 F6000 X74.999 Y-78.817
G1 F2400 X75 Y78.818 E6506.01527
G0 F6000 X75.5 Y78.818
G1 F2400 X75.499 Y-78.817 E6512.56897
G0 F6000 X75.999 Y-78.817
G1 F2400 X76 Y78.818 E6519.12267
G0 F6000 X76.5 Y78.818
G1 F2400 X76.499 Y-78.817 E6525.67637
G0 F6000 X76.999 Y-78.817
G1 F2400 X77 Y78.818 E6532.23008
G0 F6000 X77.5 Y78.818
G1 F2400 X77.499 Y-78.817 E6538.78378
G0 F6000 X77.999 Y-78.817
G1 F2400 X78 Y78.818 E6545.33748
G0 F6000 X78.5 Y78.818
G1 F2400 X78.499 Y-78.817 E6551.89118
G0 F6000 X78.999 Y-78.817
G1 F2400 X79 Y78.818 E6558.44488
G0 F6000 X79.5 Y78.818
G1 F2400 X79.499 Y-78.817 E6564.99858
G0 F6000 X79.999 Y-78.817
G1 F2400 X80 Y78.818 E6571.55229
G0 F6000 X80.5 Y78.818
G1 F2400 X80.499 Y-78.817 E6578.10599
G0 F6000 X80.999 Y-78.817
G1 F2400 X81 Y78.818 E6584.65969
G0 F6000 X81.5 Y78.818
G1 F2400 X81.499 Y-78.817 E6591.21339
G0 F6000 X81.999 Y-78.817
G1 F2400 X82 Y78.818 E6597.76709
G0 F6000 X82.5 Y78.818
G1 F2400 X82.499 Y-78.817 E6604.3208
G0 F6000 X82.999 Y-78.817
G1 F2400 X83 Y78.818 E6610.8745
G0 F6000 X83.5 Y78.818
G1 F2400 X83.499 Y-78.817 E6617.4282
G0 F6000 X83.999 Y-78.817
G1 F2400 X84 Y78.818 E6623.9819
G0 F6000 X84.5 Y78.818
G1 F2400 X84.499 Y-78.817 E6630.5356
G0 F6000 X84.999 Y-78.817
G1 F2400 X85 Y78.818 E6637.0893
G0 F6000 X85.5 Y78.818
G1 F2400 X85.499 Y-78.817 E6643.64301
G0 F6000 X85.999 Y-78.817
G1 F2400 X86 Y78.818 E6650.19671
G0 F6000 X86.5 Y78.818
G1 F2400 X86.499 Y-78.817 E6656.75041
G0 F6000 X86.999 Y-78.817
G1 F2400 X87 Y78.818 E6663.30411
G0 F6000 X87.5 Y78.818
G1 F2400 X87.499 Y-78.817 E6669.85781
G0 F6000 X87.999 Y-78.817
G1 F2400 X88 Y78.818 E6676.41151
G0 F6000 X88.5 Y78.818
G1 F2400 X88.499 Y-78.817 E6682.96522
G0 F6000 X88.999 Y-78.817
G1 F2400 X89 Y78.818 E6689.51892
G0 F6000 X89.5 Y78.818
G1 F2400 X89.499 Y-78.817 E6696.07262
G0 F6000 X89.999 Y-78.817
G1 F2400 X90 Y78.818 E6702.62632
G0 F6000 X90.5 Y78.818
G1 F2400 X90.499 Y-78.817 E6709.18002
G0 F6000 X90.999 Y-78.817
G1 F2400 X91 Y78.818 E6715.73372
G0 F6000 X91.5 Y78.818
G1 F2400 X91.499 Y-78.817 E6722.28743
G0 F6000 X91.999 Y-78.817
G1 F2400 X92 Y78.818 E6728.84113
G0 F6000 X92.5 Y78.818
G1 F2400 X92.499 Y-78.817 E6735.39483
G0 F6000 X92.999 Y-78.817
G1 F2400 X93 Y78.818 E6741.94853
G0 F6000 X93.5 Y78.818
G1 F2400 X93.499 Y-78.817 E6748.50223
G0 F6000 X93.999 Y-78.817
G1 F2400 X94 Y78.818 E6755.05594
G0 F6000 X94.5 Y78.818
G1 F2400 X94.499 Y-78.817 E6761.60964
G0 F6000 X94.999 Y-78.817
G1 F2400 X95 Y78.818 E6768.16334
G0 F6000 X95.5 Y78.818
G1 F2400 X95.499 Y-78.817 E6774.71704
G0 F6000 X95.999 Y-78.817
G1 F2400 X96 Y78.818 E6781.27074
G0 F6000 X96.5 Y78.818
G1 F2400 X96.499 Y-78.817 E6787.82444
G0 F6000 X96.999 Y-78.817
G1 F2400 X97 Y78.818 E6794.37815
G0 F6000 X97.5 Y78.818
G1 F2400 X97.499 Y-78.817 E6800.93185
G0 F6000 X97.999 Y-78.817
G1 F2400 X98 Y78.818 E6807.48555
G0 F6000 X98.5 Y78.818
G1 F2400 X98.499 Y-78.817 E6814.03925
G0 F6000 X98.999 Y-78.817
G1 F2400 X99 Y78.818 E6820.59295
G0 F6000 X99.5 Y78.818
G1 F2400 X99.499 Y-78.817 E6827.14665
G0 F6000 X99.999 Y-78.817
G1 F2400 X100 Y78.818 E6833.70036
G0 F6000 X100.5 Y78.818
G1 F2400 X100.499 Y-78.817 E6840.25406
G0 F6000 X100.999 Y-78.817
G1 F2400 X101 Y78.818 E6846.80776
G0 F6000 X101.5 Y78.818
G1 F2400 X101.499 Y-78.817 E6853.36146
; Layer Change GCode
; LAYER:2
G4 P0
M106 S255
G0 F6000 X-102.275 Y79.468 Z0.7
G0 X-102.59 Y79.713
G0 X-102.423 Y79.584
G0 X-102.423 Y79.584
G0 X-102.683 Y79.934
G0 X-102.683 Y79.934
G0 X-102.183 Y79.434
; TYPE:WALL-INNER
G1 F2400 X-102.183 Y79.434 E6853.36146
G1 X-102.183 Y-79.433 E6859.96638
G1 X102.184 Y-79.433 E6868.46298
G1 X102.184 Y79.434 E6875.0679
G1 X-102.183 Y79.434 E6883.56449
G0 F6000 X-102.683 Y79.934
; TYPE:WALL-OUTER
G1 F2100 X-102.683 Y79.934 E6883.56449
G1 X-102.683 Y-79.933 E6890.21099
G1 X102.684 Y-79.933 E6898.74916
G1 X102.684 Y79.934 E6905.39565
G1 X-102.683 Y79.934 E6913.93382
G0 F6000 X-102.423 Y79.584
G0 X-101.743 Y78.5
G0 X-101.743 Y78.5
; TYPE:FILL
G1 F2400 X101.744 Y78.5 E6922.39383
G0 F6000 X101.744 Y78
G1 F2400 X-101.743 Y78 E6930.85383
G0 F6000 X-101.743 Y77.5
G1 F2400 X101.744 Y77.5 E6939.31384
G0 F6000 X101.744 Y77
G1 F2400 X-101.743 Y77 E6947.77385
G0 F6000 X-101.743 Y76.5
G1 F2400 X101.744 Y76.5 E6956.23385
G0 F6000 X101.744 Y76
G1 F2400 X-101.743 Y76 E6964.69386
G0 F6000 X-101.743 Y75.5
G1 F2400 X101.744 Y75.5 E6973.15387
G0 F6000 X101.744 Y75
G1 F2400 X-101.743 Y75 E6981.61387
G0 F6000 X-101.743 Y74.5
G1 F2400 X101.744 Y74.5 E6990.07388
G0 F6000 X101.744 Y74
G1 F2400 X-101.743 Y74 E6998.53389
G0 F6000 X-101.743 Y73.5
G1 F2400 X101.744 Y73.5 E7006.99389
G0 F6000 X101.744 Y73
G1 F2400 X-101.743 Y73 E7015.4539
G0 F6000 X-101.743 Y72.5
G1 F2400 X101.744 Y72.5 E7023.9139
G0 F6000 X101.744 Y72
G1 F2400 X-101.743 Y72 E7032.37391
G0 F6000 X-101.743 Y71.5
G1 F2400 X101.744 Y71.5 E7040.83392
G0 F6000 X101.744 Y71
G1 F2400 X-101.743 Y71 E7049.29392
G0 F6000 X-101.743 Y70.5
G1 F2400 X101.744 Y70.5 E7057.75393
G0 F6000 X101.744 Y70
G1 F2400 X-101.743 Y70 E7066.21394
G0 F6000 X-101.743 Y69.5
G1 F2400 X101.744 Y69.5 E7074.67394
G0 F6000 X101.744 Y69
G1 F2400 X-101.743 Y69 E7083.13395
G0 F6000 X-101.743 Y68.5
G1 F2400 X101.744 Y68.5 E7091.59396
G0 F6000 X101.744 Y68
G1 F2400 X-101.743 Y68 E7100.05396
G0 F6000 X-101.743 Y67.5
G1 F2400 X101.744 Y67.5 E7108.51397
G0 F6000 X101.744 Y67
G1 F2400 X-101.743 Y67 E7116.97397
G0 F6000 X-101.743 Y66.5
G1 F2400 X101.744 Y66.5 E7125.43398
G0 F6000 X101.744 Y66
G1 F2400 X-101.743 Y66 E7133.89399
G0 F6000 X-101.743 Y65.5
G1 F2400 X101.744 Y65.499 E7142.35399
G0 F6000 X101.744 Y64.999
G1 F2400 X-101.743 Y65 E7150.814
G0 F6000 X-101.743 Y64.5
G1 F2400 X101.744 Y64.499 E7159.27401
G0 F6000 X101.744 Y63.999
G1 F2400 X-101.743 Y64 E7167.73401
G0 F6000 X-101.743 Y63.5
G1 F2400 X101.744 Y63.499 E7176.19402
G0 F6000 X101.744 Y62.999
G1 F2400 X-101.743 Y63 E7184.65403
G0 F6000 X-101.743 Y62.5
G1 F2400 X101.744 Y62.499 E7193.11403
G0 F6000 X101.744 Y61.999
G1 F2400 X-101.743 Y62 E7201.57404
G0 F6000 X-101.743 Y61.5
G1 F2400 X101.744 Y61.499 E7210.03404
G0 F6000 X101.744 Y60.999
G1 F2400 X-101.743 Y61 E7218.49405
G0 F6000 X-101.743 Y60.5
G1 F2400 X101.744 Y60.499 E7226.95406
G0 F6000 X101.744 Y59.999
G1 F2400 X-101.743 Y60 E7235.41406
G0 F6000 X-101.743 Y59.5
G1 F2400 X101.744 Y59.499 E7243.87407
G0 F6000 X101.744 Y58.999
G1 F2400 X-101.743 Y59 E7252.33408
G0 F6000 X-101.743 Y58.5
G1 F2400 X101.744 Y58.499 E7260.79408
G0 F6000 X101.744 Y57.999
G1 F2400 X-101.743 Y58 E7269.25409
G0 F6000 X-101.743 Y57.5
G1 F2400 X101.744 Y57.499 E7277.7141
G0 F6000 X101.744 Y56.999
G1 F2400 X-101.743 Y57 E7286.1741
G0 F6000 X-101.743 Y56.5
G1 F2400 X101.744 Y56.499 E7294.63411
G0 F6000 X101.744 Y55.999
G1 F2400 X-101.743 Y56 E7303.09411
G0 F6000 X-101.743 Y55.5
G1 F2400 X101.744 Y55.499 E7311.55412
G0 F6000 X101.744 Y54.999
G1 F2400 X-101.743 Y55 E7320.01413
G0 F6000 X-101.743 Y54.5
G1 F2400 X101.744 Y54.499 E7328.47413
G0 F6000 X101.744 Y53.999
G1 F2400 X-101.743 Y54 E7336.93414
G0 F6000 X-101.743 Y53.5
G1 F2400 X101.744 Y53.499 E7345.39415
G0 F6000 X101.744 Y52.999
G1 F2400 X-101.743 Y53 E7353.85415
G0 F6000 X-101.743 Y52.5
G1 F2400 X101.744 Y52.499 E7362.31416
G0 F6000 X101.744 Y51.999
G1 F2400 X-101.743 Y52 E7370.77417
G0 F6000 X-101.743 Y51.5
G1 F2400 X101.744 Y51.499 E7379.23417
G0 F6000 X101.744 Y50.999
G1 F2400 X-101.743 Y51 E7387.69418
G0 F6000 X-101.743 Y50.5
G1 F2400 X101.744 Y50.499 E7396.15418
G0 F6000 X101.744 Y49.999
G1 F2400 X-101.743 Y50 E7404.61419
G0 F6000 X-101.743 Y49.5
G1 F2400 X101.744 Y49.499 E7413.0742
G0 F6000 X101.744 Y48.999
G1 F2400 X-101.743 Y49 E7421.5342
G0 F6000 X-101.743 Y48.5
G1 F2400 X101.744 Y48.499 E7429.99421
G0 F6000 X101.744 Y47.999
G1 F2400 X-101.743 Y48 E7438.45422
G0 F6000 X-101.743 Y47.5
G1 F2400 X101.744 Y47.499 E7446.91422
G0 F6000 X101.744 Y46.999
G1 F2400 X-101.743 Y47 E7455.37423
G0 F6000 X-101.743 Y46.5
G1 F2400 X101.744 Y46.499 E7463.83424
G0 F6000 X101.744 Y45.999
G1 F2400 X-101.743 Y46 E7472.29424
G0 F6000 X-101.743 Y45.5
G1 F2400 X101.744 Y45.499 E7480.75425
G0 F6000 X101.744 Y44.999
G1 F2400 X-101.743 Y45 E7489.21425
G0 F6000 X-101.743 Y44.5
G1 F2400 X101.744 Y44.499 E7497.67426
G0 F6000 X101.744 Y43.999
G1 F2400 X-101.743 Y44 E7506.13427
G0 F6000 X-101.743 Y43.5
G1 F2400 X101.744 Y43.499 E7514.59427
G0 F6000 X101.744 Y42.999
G1 F2400 X-101.743 Y43 E7523.05428
G0 F6000 X-101.743 Y42.5
G1 F2400 X101.744 Y42.499 E7531.51429
G0 F6000 X101.744 Y41.999
G1 F2400 X-101.743 Y42 E7539.97429
G0 F6000 X-101.743 Y41.5
G1 F2400 X101.744 Y41.499 E7548.4343
G0 F6000 X101.744 Y40.999
G1 F2400 X-101.743 Y41 E7556.89431
G0 F6000 X-101.743 Y40.5
G1 F2400 X101.744 Y40.499 E7565.35431
G0 F6000 X101.744 Y39.999
G1 F2400 X-101.743 Y40 E7573.81432
G0 F6000 X-101.743 Y39.5
G1 F2400 X101.744 Y39.499 E7582.27433
G0 F6000 X101.744 Y38.999
G1 F2400 X-101.743 Y39 E7590.73433
G0 F6000 X-101.743 Y38.5
G1 F2400 X101.744 Y38.499 E7599.19434
G0 F6000 X101.744 Y37.999
G1 F2400 X-101.743 Y38 E7607.65434
G0 F6000 X-101.743 Y37.5
G1 F2400 X101.744 Y37.499 E7616.11435
G0 F6000 X101.744 Y36.999
G1 F2400 X-101.743 Y37 E7624.57436
G0 F6000 X-101.743 Y36.5
G1 F2400 X101.744 Y36.499 E7633.03436
G0 F6000 X101.744 Y35.999
G1 F2400 X-101.743 Y36 E7641.49437
G0 F6000 X-101.743 Y35.5
G1 F2400 X101.744 Y35.499 E7649.95438
G0 F6000 X101.744 Y34.999
G1 F2400 X-101.743 Y35 E7658.41438
G0 F6000 X-101.743 Y34.5
G1 F2400 X101.744 Y34.499 E7666.87439
G0 F6000 X101.744 Y33.999
G1 F2400 X-101.743 Y34 E7675.3344
G0 F6000 X-101.743 Y33.5
G1 F2400 X101.744 Y33.499 E7683.7944
G0 F6000 X101.744 Y32.999
G1 F2400 X-101.743 Y33 E7692.25441
G0 F6000 X-101.743 Y32.5
G1 F2400 X101.744 Y32.499 E7700.71441
G0 F6000 X101.744 Y31.999
G1 F2400 X-101.743 Y32 E7709.17442
G0 F6000 X-101.743 Y31.5
G1 F2400 X101.744 Y31.499 E7717.63443
G0 F6000 X101.744 Y30.999
G1 F2400 X-101.743 Y31 E7726.09443
G0 F6000 X-101.743 Y30.5
G1 F2400 X101.744 Y30.499 E7734.55444
G0 F6000 X101.744 Y29.999
G1 F2400 X-101.743 Y30 E7743.01445
G0 F6000 X-101.743 Y29.5
G1 F2400 X101.744 Y29.499 E7751.47445
G0 F6000 X101.744 Y28.999
G1 F2400 X-101.743 Y29 E7759.93446
G0 F6000 X-101.743 Y28.5
G1 F2400 X101.744 Y28.499 E7768.39447
G0 F6000 X101.744 Y27.999
G1 F2400 X-101.743 Y28 E7776.85447
G0 F6000 X-101.743 Y27.5
G1 F2400 X101.744 Y27.499 E7785.31448
G0 F6000 X101.744 Y26.999
G1 F2400 X-101.743 Y27 E7793.77448
G0 F6000 X-101.743 Y26.5
G1 F2400 X101.744 Y26.499 E7802.23449
G0 F6000 X101.744 Y25.999
G1 F2400 X-101.743 Y26 E7810.6945
G0 F6000 X-101.743 Y25.5
G1 F2400 X101.744 Y25.499 E7819.1545
G0 F6000 X101.744 Y24.999
G1 F2400 X-101.743 Y25 E7827.61451
G0 F6000 X-101.743 Y24.5
G1 F2400 X101.744 Y24.499 E7836.07452
G0 F6000 X101.744 Y23.999
G1 F2400 X-101.743 Y24 E7844.53452
G0 F6000 X-101.743 Y23.5
G1 F2400 X101.744 Y23.499 E7852.99453
G0 F6000 X101.744 Y22.999
G1 F2400 X-101.743 Y23 E7861.45454
G0 F6000 X-101.743 Y22.5
G1 F2400 X101.744 Y22.499 E7869.91454
G0 F6000 X101.744 Y21.999
G1 F2400 X-101.743 Y22 E7878.37455
G0 F6000 X-101.743 Y21.5
G1 F2400 X101.744 Y21.499 E7886.83455
G0 F6000 X101.744 Y20.999
G1 F2400 X-101.743 Y21 E7895.29456
G0 F6000 X-101.743 Y20.5
G1 F2400 X101.744 Y20.499 E7903.75457
G0 F6000 X101.744 Y19.999
G1 F2400 X-101.743 Y20 E7912.21457
G0 F6000 X-101.743 Y19.5
G1 F2400 X101.744 Y19.499 E7920.67458
G0 F6000 X101.744 Y18.999
G1 F2400 X-101.743 Y19 E7929.13459
G0 F6000 X-101.743 Y18.5
G1 F2400 X101.744 Y18.499 E7937.59459
G0 F6000 X101.744 Y17.999
G1 F2400 X-101.743 Y18 E7946.0546
G0 F6000 X-101.743 Y17.5
G1 F2400 X101.744 Y17.499 E7954.51461
G0 F6000 X101.744 Y16.999
G1 F2400 X-101.743 Y17 E7962.97461
G0 F6000 X-101.743 Y16.5
G1 F2400 X101.744 Y16.499 E7971.43462
G0 F6000 X101.744 Y15.999
G1 F2400 X-101.743 Y16 E7979.89462
G0 F6000 X-101.743 Y15.5
G1 F2400 X101.744 Y15.499 E7988.35463
G0 F6000 X101.744 Y14.999
G1 F2400 X-101.743 Y15 E7996.81464
G0 F6000 X-101.743 Y14.5
G1 F2400 X101.744 Y14.499 E8005.27464
G0 F6000 X101.744 Y13.999
G1 F2400 X-101.743 Y14 E8013.73465
G0 F6000 X-101.743 Y13.5
G1 F2400 X101.744 Y13.499 E8022.19466
G0 F6000 X101.744 Y12.999
G1 F2400 X-101.743 Y13 E8030.65466
G0 F6000 X-101.743 Y12.5
G1 F2400 X101.744 Y12.499 E8039.11467
G0 F6000 X101.744 Y11.999
G1 F2400 X-101.743 Y12 E8047.57468
G0 F6000 X-101.743 Y11.5
G1 F2400 X101.744 Y11.499 E8056.03468
G0 F6000 X101.744 Y10.999
G1 F2400 X-101.743 Y11 E8064.49469
G0 F6000 X-101.743 Y10.5
G1 F2400 X101.744 Y10.499 E8072.95469
G0 F6000 X101.744 Y9.999
G1 F2400 X-101.743 Y10 E8081.4147
G0 F6000 X-101.743 Y9.5
G1 F2400 X101.744 Y9.499 E8089.87471
G0 F6000 X101.744 Y8.999
G1 F2400 X-101.743 Y9 E8098.33471
G0 F6000 X-101.743 Y8.5
G1 F2400 X101.744 Y8.499 E8106.79472
G0 F6000 X101.744 Y7.999
G1 F2400 X-101.743 Y8 E8115.25473
G0 F6000 X-101.743 Y7.5
G1 F2400 X101.744 Y7.499 E8123.71473
G0 F6000 X101.744 Y6.999
G1 F2400 X-101.743 Y7 E8132.17474
G0 F6000 X-101.743 Y6.5
G1 F2400 X101.744 Y6.499 E8140.63475
G0 F6000 X101.744 Y5.999
G1 F2400 X-101.743 Y6 E8149.09475
G0 F6000 X-101.743 Y5.5
G1 F2400 X101.744 Y5.499 E8157.55476
G0 F6000 X101.744 Y4.999
G1 F2400 X-101.743 Y5 E8166.01476
G0 F6000 X-101.743 Y4.5
G1 F2400 X101.744 Y4.499 E8174.47477
G0 F6000 X101.744 Y3.999
G1 F2400 X-101.743 Y4 E8182.93478
G0 F6000 X-101.743 Y3.5
G1 F2400 X101.744 Y3.499 E8191.39478
G0 F6000 X101.744 Y2.999
G1 F2400 X-101.743 Y3 E8199.85479
G0 F6000 X-101.743 Y2.5
G1 F2400 X101.744 Y2.499 E8208.3148
G0 F6000 X101.744 Y1.999
G1 F2400 X-101.743 Y2 E8216.7748
G0 F6000 X-101.743 Y1.5
G1 F2400 X101.744 Y1.499 E8225.23481
G0 F6000 X101.744 Y0.999
G1 F2400 X-101.743 Y1 E8233.69482
G0 F6000 X-101.743 Y0.5
G1 F2400 X101.744 Y0.499 E8242.15482
G0 F6000 X101.744 Y0
G1 F2400 X-101.743 Y0 E8250.61483
G0 F6000 X-101.743 Y-0.499
G1 F2400 X101.744 Y-0.5 E8259.07484
G0 F6000 X101.744 Y-1
G1 F2400 X-101.743 Y-0.999 E8267.53484
G0 F6000 X-101.743 Y-1.499
G1 F2400 X101.744 Y-1.5 E8275.99485
G0 F6000 X101.744 Y-2
G1 F2400 X-101.743 Y-1.999 E8284.45485
G0 F6000 X-101.743 Y-2.499
G1 F2400 X101.744 Y-2.5 E8292.91486
G0 F6000 X101.744 Y-3
G1 F2400 X-101.743 Y-2.999 E8301.37487
G0 F6000 X-101.743 Y-3.499
G1 F2400 X101.744 Y-3.5 E8309.83487
G0 F6000 X101.744 Y-4
G1 F2400 X-101.743 Y-3.999 E8318.29488
G0 F6000 X-101.743 Y-4.499
G1 F2400 X101.744 Y-4.5 E8326.75489
G0 F6000 X101.744 Y-5
G1 F2400 X-101.743 Y-4.999 E8335.21489
G0 F6000 X-101.743 Y-5.499
G1 F2400 X101.744 Y-5.5 E8343.6749
G0 F6000 X101.744 Y-6
G1 F2400 X-101.743 Y-5.999 E8352.13491
G0 F6000 X-101.743 Y-6.499
G1 F2400 X101.744 Y-6.5 E8360.59491
G0 F6000 X101.744 Y-7
G1 F2400 X-101.743 Y-6.999 E8369.05492
G0 F6000 X-101.743 Y-7.499
G1 F2400 X101.744 Y-7.5 E8377.51492
G0 F6000 X101.744 Y-8
G1 F2400 X-101.743 Y-7.999 E8385.97493
G0 F6000 X-101.743 Y-8.499
G1 F2400 X101.744 Y-8.5 E8394.43494
G0 F6000 X101.744 Y-9
G1 F2400 X-101.743 Y-8.999 E8402.89494
G0 F6000 X-101.743 Y-9.499
G1 F2400 X101.744 Y-9.5 E8411.35495
G0 F6000 X101.744 Y-10
G1 F2400 X-101.743 Y-9.999 E8419.81496
G0 F6000 X-101.743 Y-10.499
G1 F2400 X101.744 Y-10.5 E8428.27496
G0 F6000 X101.744 Y-11
G1 F2400 X-101.743 Y-10.999 E8436.73497
G0 F6000 X-101.743 Y-11.499
G1 F2400 X101.744 Y-11.5 E8445.19498
G0 F6000 X101.744 Y-12
G1 F2400 X-101.743 Y-11.999 E8453.65498
G0 F6000 X-101.743 Y-12.499
G1 F2400 X101.744 Y-12.5 E8462.11499
G0 F6000 X101.744 Y-13
G1 F2400 X-101.743 Y-12.999 E8470.57499
G0 F6000 X-101.743 Y-13.499
G1 F2400 X101.744 Y-13.5 E8479.035
G0 F6000 X101.744 Y-14
G1 F2400 X-101.743 Y-13.999 E8487.49501
G0 F6000 X-101.743 Y-14.499
G1 F2400 X101.744 Y-14.5 E8495.95501
G0 F6000 X101.744 Y-15
G1 F2400 X-101.743 Y-14.999 E8504.41502
G0 F6000 X-101.743 Y-15.499
G1 F2400 X101.744 Y-15.5 E8512.87503
G0 F6000 X101.744 Y-16
G1 F2400 X-101.743 Y-15.999 E8521.33503
G0 F6000 X-101.743 Y-16.499
G1 F2400 X101.744 Y-16.5 E8529.79504
G0 F6000 X101.744 Y-17
G1 F2400 X-101.743 Y-16.999 E8538.25505
G0 F6000 X-101.743 Y-17.499
G1 F2400 X101.744 Y-17.5 E8546.71505
G0 F6000 X101.744 Y-18
G1 F2400 X-101.743 Y-17.999 E8555.17506
G0 F6000 X-101.743 Y-18.499
G1 F2400 X101.744 Y-18.5 E8563.63506
G0 F6000 X101.744 Y-19
G1 F2400 X-101.743 Y-18.999 E8572.09507
G0 F6000 X-101.743 Y-19.499
G1 F2400 X101.744 Y-19.5 E8580.55508
G0 F6000 X101.744 Y-20
G1 F2400 X-101.743 Y-19.999 E8589.01508
G0 F6000 X-101.743 Y-20.499
G1 F2400 X101.744 Y-20.5 E8597.47509
G0 F6000 X101.744 Y-21
G1 F2400 X-101.743 Y-20.999 E8605.9351
G0 F6000 X-101.743 Y-21.499
G1 F2400 X101.744 Y-21.5 E8614.3951
G0 F6000 X101.744 Y-22
G1 F2400 X-101.743 Y-21.999 E8622.85511
G0 F6000 X-101.743 Y-22.499
G1 F2400 X101.744 Y-22.5 E8631.31512
G0 F6000 X101.744 Y-23
G1 F2400 X-101.743 Y-22.999 E8639.77512
G0 F6000 X-101.743 Y-23.499
G1 F2400 X101.744 Y-23.5 E8648.23513
G0 F6000 X101.744 Y-24
G1 F2400 X-101.743 Y-23.999 E8656.69513
G0 F6000 X-101.743 Y-24.499
G1 F2400 X101.744 Y-24.5 E8665.15514
G0 F6000 X101.744 Y-25
G1 F2400 X-101.743 Y-24.999 E8673.61515
G0 F6000 X-101.743 Y-25.499
G1 F2400 X101.744 Y-25.5 E8682.07515
G0 F6000 X101.744 Y-26
G1 F2400 X-101.743 Y-25.999 E8690.53516
G0 F6000 X-101.743 Y-26.499
G1 F2400 X101.744 Y-26.5 E8698.99517
G0 F6000 X101.744 Y-27
G1 F2400 X-101.743 Y-26.999 E8707.45517
G0 F6000 X-101.743 Y-27.499
G1 F2400 X101.744 Y-27.5 E8715.91518
G0 F6000 X101.744 Y-28
G1 F2400 X-101.743 Y-27.999 E8724.37519
G0 F6000 X-101.743 Y-28.499
G1 F2400 X101.744 Y-28.5 E8732.83519
G0 F6000 X101.744 Y-29
G1 F2400 X-101.743 Y-28.999 E8741.2952
G0 F6000 X-101.743 Y-29.499
G1 F2400 X101.744 Y-29.5 E8749.7552
G0 F6000 X101.744 Y-30
G1 F2400 X-101.743 Y-29.999 E8758.21521
G0 F6000 X-101.743 Y-30.499
G1 F2400 X101.744 Y-30.5 E8766.67522
G0 F6000 X101.744 Y-31
G1 F2400 X-101.743 Y-30.999 E8775.13522
G0 F6000 X-101.743 Y-31.499
G1 F2400 X101.744 Y-31.5 E8783.59523
G0 F6000 X101.744 Y-32
G1 F2400 X-101.743 Y-31.999 E8792.05524
G0 F6000 X-101.743 Y-32.499
G1 F2400 X101.744 Y-32.5 E8800.51524
G0 F6000 X101.744 Y-33
G1 F2400 X-101.743 Y-32.999 E8808.97525
G0 F6000 X-101.743 Y-33.499
G1 F2400 X101.744 Y-33.5 E8817.43526
G0 F6000 X101.744 Y-34
G1 F2400 X-101.743 Y-33.999 E8825.89526
G0 F6000 X-101.743 Y-34.499
G1 F2400 X101.744 Y-34.5 E8834.35527
G0 F6000 X101.744 Y-35
G1 F2400 X-101.743 Y-34.999 E8842.81527
G0 F6000 X-101.743 Y-35.499
G1 F2400 X101.744 Y-35.5 E8851.27528
G0 F6000 X101.744 Y-36
G1 F2400 X-101.743 Y-35.999 E8859.73529
G0 F6000 X-101.743 Y-36.499
G1 F2400 X101.744 Y-36.5 E8868.19529
G0 F6000 X101.744 Y-37
G1 F2400 X-101.743 Y-36.999 E8876.6553
G0 F6000 X-101.743 Y-37.499
G1 F2400 X101.744 Y-37.5 E8885.11531
G0 F6000 X101.744 Y-38
G1 F2400 X-101.743 Y-37.999 E8893.57531
G0 F6000 X-101.743 Y-38.499
G1 F2400 X101.744 Y-38.5 E8902.03532
G0 F6000 X101.744 Y-39
G1 F2400 X-101.743 Y-38.999 E8910.49533
G0 F6000 X-101.743 Y-39.499
G1 F2400 X101.744 Y-39.5 E8918.95533
G0 F6000 X101.744 Y-40
G1 F2400 X-101.743 Y-39.999 E8927.41534
G0 F6000 X-101.743 Y-40.499
G1 F2400 X101.744 Y-40.5 E8935.87535
G0 F6000 X101.744 Y-41
G1 F2400 X-101.743 Y-40.999 E8944.33535
G0 F6000 X-101.743 Y-41.499
G1 F2400 X101.744 Y-41.5 E8952.79536
G0 F6000 X101.744 Y-42
G1 F2400 X-101.743 Y-41.999 E8961.25536
G0 F6000 X-101.743 Y-42.499
G1 F2400 X101.744 Y-42.5 E8969.71537
G0 F6000 X101.744 Y-43
G1 F2400 X-101.743 Y-42.999 E8978.17538
G0 F6000 X-101.743 Y-43.499
G1 F2400 X101.744 Y-43.5 E8986.63538
G0 F6000 X101.744 Y-44
G1 F2400 X-101.743 Y-43.999 E8995.09539
G0 F6000 X-101.743 Y-44.499
G1 F2400 X101.744 Y-44.5 E9003.5554
G0 F6000 X101.744 Y-45
G1 F2400 X-101.743 Y-44.999 E9012.0154
G0 F6000 X-101.743 Y-45.499
G1 F2400 X101.744 Y-45.5 E9020.47541
G0 F6000 X101.744 Y-46
G1 F2400 X-101.743 Y-45.999 E9028.93542
G0 F6000 X-101.743 Y-46.499
G1 F2400 X101.744 Y-46.5 E9037.39542
G0 F6000 X101.744 Y-47
G1 F2400 X-101.743 Y-46.999 E9045.85543
G0 F6000 X-101.743 Y-47.499
G1 F2400 X101.744 Y-47.5 E9054.31543
G0 F6000 X101.744 Y-48
G1 F2400 X-101.743 Y-47.999 E9062.77544
G0 F6000 X-101.743 Y-48.499
G1 F2400 X101.744 Y-48.5 E9071.23545
G0 F6000 X101.744 Y-49
G1 F2400 X-101.743 Y-48.999 E9079.69545
G0 F6000 X-101.743 Y-49.499
G1 F2400 X101.744 Y-49.5 E9088.15546
G0 F6000 X101.744 Y-50
G1 F2400 X-101.743 Y-49.999 E9096.61547
G0 F6000 X-101.743 Y-50.499
G1 F2400 X101.744 Y-50.5 E9105.07547
G0 F6000 X101.744 Y-51
G1 F2400 X-101.743 Y-50.999 E9113.53548
G0 F6000 X-101.743 Y-51.499
G1 F2400 X101.744 Y-51.5 E9121.99549
G0 F6000 X101.744 Y-52
G1 F2400 X-101.743 Y-51.999 E9130.45549
G0 F6000 X-101.743 Y-52.499
G1 F2400 X101.744 Y-52.5 E9138.9155
G0 F6000 X101.744 Y-53
G1 F2400 X-101.743 Y-52.999 E9147.3755
G0 F6000 X-101.743 Y-53.499
G1 F2400 X101.744 Y-53.5 E9155.83551
G0 F6000 X101.744 Y-54
G1 F2400 X-101.743 Y-53.999 E9164.29552
G0 F6000 X-101.743 Y-54.499
G1 F2400 X101.744 Y-54.5 E9172.75552
G0 F6000 X101.744 Y-55
G1 F2400 X-101.743 Y-54.999 E9181.21553
G0 F6000 X-101.743 Y-55.499
G1 F2400 X101.744 Y-55.5 E9189.67554
G0 F6000 X101.744 Y-56
G1 F2400 X-101.743 Y-55.999 E9198.13554
G0 F6000 X-101.743 Y-56.499
G1 F2400 X101.744 Y-56.5 E9206.59555
G0 F6000 X101.744 Y-57
G1 F2400 X-101.743 Y-56.999 E9215.05556
G0 F6000 X-101.743 Y-57.499
G1 F2400 X101.744 Y-57.5 E9223.51556
G0 F6000 X101.744 Y-58
G1 F2400 X-101.743 Y-57.999 E9231.97557
G0 F6000 X-101.743 Y-58.499
G1 F2400 X101.744 Y-58.5 E9240.43557
G0 F6000 X101.744 Y-59
G1 F2400 X-101.743 Y-58.999 E9248.89558
G0 F6000 X-101.743 Y-59.499
G1 F2400 X101.744 Y-59.5 E9257.35559
G0 F6000 X101.744 Y-60
G1 F2400 X-101.743 Y-59.999 E9265.81559
G0 F6000 X-101.743 Y-60.499
G1 F2400 X101.744 Y-60.5 E9274.2756
G0 F6000 X101.744 Y-61
G1 F2400 X-101.743 Y-60.999 E9282.73561
G0 F6000 X-101.743 Y-61.499
G1 F2400 X101.744 Y-61.5 E9291.19561
G0 F6000 X101.744 Y-62
G1 F2400 X-101.743 Y-61.999 E9299.65562
G0 F6000 X-101.743 Y-62.499
G1 F2400 X101.744 Y-62.5 E9308.11563
G0 F6000 X101.744 Y-63
G1 F2400 X-101.743 Y-62.999 E9316.57563
G0 F6000 X-101.743 Y-63.499
G1 F2400 X101.744 Y-63.5 E9325.03564
G0 F6000 X101.744 Y-64
G1 F2400 X-101.743 Y-63.999 E9333.49564
G0 F6000 X-101.743 Y-64.499
G1 F2400 X101.744 Y-64.5 E9341.95565
G0 F6000 X101.744 Y-65
G1 F2400 X-101.743 Y-64.999 E9350.41566
G0 F6000 X-101.743 Y-65.499
G1 F2400 X101.744 Y-65.5 E9358.87566
G0 F6000 X101.744 Y-66
G1 F2400 X-101.743 Y-66 E9367.33567
G0 F6000 X-101.743 Y-66.5
G1 F2400 X101.744 Y-66.5 E9375.79568
G0 F6000 X101.744 Y-67
G1 F2400 X-101.743 Y-67 E9384.25568
G0 F6000 X-101.743 Y-67.5
G1 F2400 X101.744 Y-67.5 E9392.71569
G0 F6000 X101.744 Y-68
G1 F2400 X-101.743 Y-68 E9401.1757
G0 F6000 X-101.743 Y-68.5
G1 F2400 X101.744 Y-68.5 E9409.6357
G0 F6000 X101.744 Y-69
G1 F2400 X-101.743 Y-69 E9418.09571
G0 F6000 X-101.743 Y-69.5
G1 F2400 X101.744 Y-69.5 E9426.55571
G0 F6000 X101.744 Y-70
G1 F2400 X-101.743 Y-70 E9435.01572
G0 F6000 X-101.743 Y-70.5
G1 F2400 X101.744 Y-70.5 E9443.47573
G0 F6000 X101.744 Y-71
G1 F2400 X-101.743 Y-71 E9451.93573
G0 F6000 X-101.743 Y-71.5
G1 F2400 X101.744 Y-71.5 E9460.39574
G0 F6000 X101.744 Y-72
G1 F2400 X-101.743 Y-72 E9468.85575
G0 F6000 X-101.743 Y-72.5
G1 F2400 X101.744 Y-72.5 E9477.31575
G0 F6000 X101.744 Y-73
G1 F2400 X-101.743 Y-73 E9485.77576
G0 F6000 X-101.743 Y-73.5
G1 F2400 X101.744 Y-73.5 E9494.23577
G0 F6000 X101.744 Y-74
G1 F2400 X-101.743 Y-74 E9502.69577
G0 F6000 X-101.743 Y-74.5
G1 F2400 X101.744 Y-74.5 E9511.15578
G0 F6000 X101.744 Y-75
G1 F2400 X-101.743 Y-75 E9519.61579
G0 F6000 X-101.743 Y-75.5
G1 F2400 X101.744 Y-75.5 E9528.07579
G0 F6000 X101.744 Y-76
G1 F2400 X-101.743 Y-76 E9536.5358
G0 F6000 X-101.743 Y-76.5
G1 F2400 X101.744 Y-76.5 E9544.9958
G0 F6000 X101.744 Y-77
G1 F2400 X-101.743 Y-77 E9553.45581
G0 F6000 X-101.743 Y-77.5
G1 F2400 X101.744 Y-77.5 E9561.91582
G0 F6000 X101.744 Y-78
G1 F2400 X-101.743 Y-78 E9570.37582
G0 F6000 X-101.743 Y-78.5
G1 F2400 X101.744 Y-78.5 E9578.83583
; Layer Change GCode
; LAYER:3
G0 F6000 X-102.411 Y79.604 Z0.9
G0 X-102.727 Y79.849
G0 X-102.559 Y79.72
G0 X-102.559 Y79.72
G0 X-102.819 Y80.07
G0 X-102.819 Y80.07
G0 X-102.319 Y79.57
; TYPE:WALL-INNER
G1 F2400 X-102.319 Y79.57 E9578.83583
G1 X-102.319 Y-79.569 E9585.45206
G1 X102.32 Y-79.569 E9593.95996
G1 X102.32 Y79.57 E9600.57619
G1 X-102.319 Y79.57 E9609.08409
G0 F6000 X-102.819 Y80.07
; TYPE:WALL-OUTER
G1 F2100 X-102.819 Y80.07 E9609.08409
G1 X-102.819 Y-80.069 E9615.7419
G1 X102.82 Y-80.069 E9624.29138
G1 X102.82 Y80.07 E9630.94918
G1 X-102.819 Y80.07 E9639.49866
G0 F6000 X-102.559 Y79.72
G0 X-101.499 Y79.129
G0 X-101.499 Y79.129
; TYPE:FILL
G1 F2400 X-101.5 Y-79.128 E9646.07822
G0 F6000 X-101 Y-79.128
G1 F2400 X-100.999 Y79.129 E9652.65778
G0 F6000 X-100.499 Y79.129
G1 F2400 X-100.5 Y-79.128 E9659.23734
G0 F6000 X-100 Y-79.128
G1 F2400 X-99.999 Y79.129 E9665.8169
G0 F6000 X-99.499 Y79.129
G1 F2400 X-99.5 Y-79.128 E9672.39646
G0 F6000 X-99 Y-79.128
G1 F2400 X-98.999 Y79.129 E9678.97603
G0 F6000 X-98.499 Y79.129
G1 F2400 X-98.5 Y-79.128 E9685.55559
G0 F6000 X-98 Y-79.128
G1 F2400 X-97.999 Y79.129 E9692.13515
G0 F6000 X-97.499 Y79.129
G1 F2400 X-97.5 Y-79.128 E9698.71471
G0 F6000 X-97 Y-79.128
G1 F2400 X-96.999 Y79.129 E9705.29427
G0 F6000 X-96.499 Y79.129
G1 F2400 X-96.5 Y-79.128 E9711.87383
G0 F6000 X-96 Y-79.128
G1 F2400 X-95.999 Y79.129 E9718.4534
G0 F6000 X-95.499 Y79.129
G1 F2400 X-95.5 Y-79.128 E9725.03296
G0 F6000 X-95 Y-79.128
G1 F2400 X-94.999 Y79.129 E9731.61252
G0 F6000 X-94.499 Y79.129
G1 F2400 X-94.5 Y-79.128 E9738.19208
G0 F6000 X-94 Y-79.128
G1 F2400 X-93.999 Y79.129 E9744.77164
G0 F6000 X-93.499 Y79.129
G1 F2400 X-93.5 Y-79.128 E9751.3512
G0 F6000 X-93 Y-79.128
G1 F2400 X-92.999 Y79.129 E9757.93076
G0 F6000 X-92.499 Y79.129
G1 F2400 X-92.5 Y-79.128 E9764.51033
G0 F6000 X-92 Y-79.128
G1 F2400 X-91.999 Y79.129 E9771.08989
G0 F6000 X-91.499 Y79.129
G1 F2400 X-91.5 Y-79.128 E9777.66945
G0 F6000 X-91 Y-79.128
G1 F2400 X-90.999 Y79.129 E9784.24901
G0 F6000 X-90.499 Y79.129
G1 F2400 X-90.5 Y-79.128 E9790.82857
G0 F6000 X-90 Y-79.128
G1 F2400 X-89.999 Y79.129 E9797.40813
G0 F6000 X-89.499 Y79.129
G1 F2400 X-89.5 Y-79.128 E9803.98769
G0 F6000 X-89 Y-79.128
G1 F2400 X-88.999 Y79.129 E9810.56726
G0 F6000 X-88.499 Y79.129
G1 F2400 X-88.5 Y-79.128 E9817.14682
G0 F6000 X-88 Y-79.128
G1 F2400 X-87.999 Y79.129 E9823.72638
G0 F6000 X-87.499 Y79.129
G1 F2400 X-87.5 Y-79.128 E9830.30594
G0 F6000 X-87 Y-79.128
G1 F2400 X-86.999 Y79.129 E9836.8855
G0 F6000 X-86.499 Y79.129
G1 F2400 X-86.5 Y-79.128 E9843.46506
G0 F6000 X-86 Y-79.128
G1 F2400 X-85.999 Y79.129 E9850.04463
G0 F6000 X-85.499 Y79.129
G1 F2400 X-85.5 Y-79.128 E9856.62419
G0 F6000 X-85 Y-79.128
G1 F2400 X-84.999 Y79.129 E9863.20375
G0 F6000 X-84.499 Y79.129
G1 F2400 X-84.5 Y-79.128 E9869.78331
G0 F6000 X-84 Y-79.128
G1 F2400 X-83.999 Y79.129 E9876.36287
G0 F6000 X-83.499 Y79.129
G1 F2400 X-83.5 Y-79.128 E9882.94243
G0 F6000 X-83 Y-79.128
G1 F2400 X-82.999 Y79.129 E9889.52199
G0 F6000 X-82.499 Y79.129
G1 F2400 X-82.5 Y-79.128 E9896.10156
G0 F6000 X-82 Y-79.128
G1 F2400 X-81.999 Y79.129 E9902.68112
G0 F6000 X-81.499 Y79.129
G1 F2400 X-81.5 Y-79.128 E9909.26068
G0 F6000 X-81 Y-79.128
G1 F2400 X-80.999 Y79.129 E9915.84024
G0 F6000 X-80.499 Y79.129
G1 F2400 X-80.5 Y-79.128 E9922.4198
G0 F6000 X-80 Y-79.128
G1 F2400 X-79.999 Y79.129 E9928.99936
G0 F6000 X-79.499 Y79.129
G1 F2400 X-79.5 Y-79.128 E9935.57892
G0 F6000 X-79 Y-79.128
G1 F2400 X-78.999 Y79.129 E9942.15849
G0 F6000 X-78.499 Y79.129
G1 F2400 X-78.5 Y-79.128 E9948.73805
G0 F6000 X-78 Y-79.128
G1 F2400 X-77.999 Y79.129 E9955.31761
G0 F6000 X-77.499 Y79.129
G1 F2400 X-77.5 Y-79.128 E9961.89717
G0 F6000 X-77 Y-79.128
G1 F2400 X-76.999 Y79.129 E9968.47673
G0 F6000 X-76.499 Y79.129
G1 F2400 X-76.5 Y-79.128 E9975.05629
G0 F6000 X-76 Y-79.128
G1 F2400 X-75.999 Y79.129 E9981.63585
G0 F6000 X-75.499 Y79.129
G1 F2400 X-75.5 Y-79.128 E9988.21542
G0 F6000 X-75 Y-79.128
G1 F2400 X-74.999 Y79.129 E9994.79498
G0 F6000 X-74.499 Y79.129
G1 F2400 X-74.5 Y-79.128 E10001.37454
G0 F6000 X-74 Y-79.128
G1 F2400 X-73.999 Y79.129 E10007.9541
G0 F6000 X-73.499 Y79.129
G1 F2400 X-73.5 Y-79.128 E10014.53366
G0 F6000 X-73 Y-79.128
G1 F2400 X-72.999 Y79.129 E10021.11322
G0 F6000 X-72.499 Y79.129
G1 F2400 X-72.5 Y-79.128 E10027.69279
G0 F6000 X-72 Y-79.128
G1 F2400 X-71.999 Y79.129 E10034.27235
G0 F6000 X-71.499 Y79.129
G1 F2400 X-71.5 Y-79.128 E10040.85191
G0 F6000 X-71 Y-79.128
G1 F2400 X-70.999 Y79.129 E10047.43147
G0 F6000 X-70.499 Y79.129
G1 F2400 X-70.5 Y-79.128 E10054.01103
G0 F6000 X-70 Y-79.128
G1 F2400 X-69.999 Y79.129 E10060.59059
G0 F6000 X-69.499 Y79.129
G1 F2400 X-69.5 Y-79.128 E10067.17015
G0 F6000 X-69 Y-79.128
G1 F2400 X-68.999 Y79.129 E10073.74972
G0 F6000 X-68.499 Y79.129
G1 F2400 X-68.5 Y-79.128 E10080.32928
G0 F6000 X-68 Y-79.128
G1 F2400 X-67.999 Y79.129 E10086.90884
G0 F6000 X-67.499 Y79.129
G1 F2400 X-67.5 Y-79.128 E10093.4884
G0 F6000 X-67 Y-79.128
G1 F2400 X-66.999 Y79.129 E10100.06796
G0 F6000 X-66.499 Y79.129
G1 F2400 X-66.5 Y-79.128 E10106.64752
G0 F6000 X-66 Y-79.128
G1 F2400 X-65.999 Y79.129 E10113.22708
G0 F6000 X-65.499 Y79.129
G1 F2400 X-65.5 Y-79.128 E10119.80665
G0 F6000 X-65 Y-79.128
G1 F2400 X-64.999 Y79.129 E10126.38621
G0 F6000 X-64.499 Y79.129
G1 F2400 X-64.5 Y-79.128 E10132.96577
G0 F6000 X-64 Y-79.128
G1 F2400 X-63.999 Y79.129 E10139.54533
G0 F6000 X-63.499 Y79.129
G1 F2400 X-63.5 Y-79.128 E10146.12489
G0 F6000 X-63 Y-79.128
G1 F2400 X-62.999 Y79.129 E10152.70445
G0 F6000 X-62.499 Y79.129
G1 F2400 X-62.5 Y-79.128 E10159.28402
G0 F6000 X-62 Y-79.128
G1 F2400 X-61.999 Y79.129 E10165.86358
G0 F6000 X-61.499 Y79.129
G1 F2400 X-61.5 Y-79.128 E10172.44314
G0 F6000 X-61 Y-79.128
G1 F2400 X-60.999 Y79.129 E10179.0227
G0 F6000 X-60.499 Y79.129
G1 F2400 X-60.5 Y-79.128 E10185.60226
G0 F6000 X-60 Y-79.128
G1 F2400 X-59.999 Y79.129 E10192.18182
G0 F6000 X-59.499 Y79.129
G1 F2400 X-59.5 Y-79.128 E10198.76138
G0 F6000 X-59 Y-79.129
G1 F2400 X-58.999 Y79.129 E10205.34099
G0 F6000 X-58.499 Y79.129
G1 F2400 X-58.5 Y-79.129 E10211.92059
G0 F6000 X-58 Y-79.129
G1 F2400 X-57.999 Y79.129 E10218.50019
G0 F6000 X-57.499 Y79.129
G1 F2400 X-57.5 Y-79.129 E10225.0798
G0 F6000 X-57 Y-79.129
G1 F2400 X-56.999 Y79.129 E10231.6594
G0 F6000 X-56.499 Y79.129
G1 F2400 X-56.5 Y-79.129 E10238.239
G0 F6000 X-56 Y-79.129
G1 F2400 X-55.999 Y79.129 E10244.81861
G0 F6000 X-55.499 Y79.129
G1 F2400 X-55.5 Y-79.129 E10251.39821
G0 F6000 X-55 Y-79.129
G1 F2400 X-54.999 Y79.129 E10257.97781
G0 F6000 X-54.499 Y79.129
G1 F2400 X-54.5 Y-79.129 E10264.55741
G0 F6000 X-54 Y-79.129
G1 F2400 X-53.999 Y79.129 E10271.13702
G0 F6000 X-53.499 Y79.129
G1 F2400 X-53.5 Y-79.129 E10277.71662
G0 F6000 X-53 Y-79.129
G1 F2400 X-52.999 Y79.129 E10284.29622
G0 F6000 X-52.499 Y79.129
G1 F2400 X-52.5 Y-79.129 E10290.87583
G0 F6000 X-52 Y-79.129
G1 F2400 X-51.999 Y79.129 E10297.45543
G0 F6000 X-51.499 Y79.129
G1 F2400 X-51.5 Y-79.129 E10304.03503
G0 F6000 X-51 Y-79.129
G1 F2400 X-50.999 Y79.129 E10310.61464
G0 F6000 X-50.499 Y79.129
G1 F2400 X-50.5 Y-79.129 E10317.19424
G0 F6000 X-50 Y-79.129
G1 F2400 X-49.999 Y79.129 E10323.77384
G0 F6000 X-49.499 Y79.129
G1 F2400 X-49.5 Y-79.129 E10330.35345
G0 F6000 X-49 Y-79.129
G1 F2400 X-48.999 Y79.129 E10336.93305
G0 F6000 X-48.499 Y79.129
G1 F2400 X-48.5 Y-79.129 E10343.51265
G0 F6000 X-48 Y-79.129
G1 F2400 X-47.999 Y79.129 E10350.09225
G0 F6000 X-47.499 Y79.129
G1 F2400 X-47.5 Y-79.129 E10356.67186
G0 F6000 X-47 Y-79.129
G1 F2400 X-46.999 Y79.129 E10363.25146
G0 F6000 X-46.499 Y79.129
G1 F2400 X-46.5 Y-79.129 E10369.83106
G0 F6000 X-46 Y-79.129
G1 F2400 X-45.999 Y79.129 E10376.41067
G0 F6000 X-45.499 Y79.129
G1 F2400 X-45.5 Y-79.129 E10382.99027
G0 F6000 X-45 Y-79.129
G1 F2400 X-44.999 Y79.129 E10389.56987
G0 F6000 X-44.499 Y79.129
G1 F2400 X-44.5 Y-79.129 E10396.14948
G0 F6000 X-44 Y-79.129
G1 F2400 X-43.999 Y79.129 E10402.72908
G0 F6000 X-43.499 Y79.129
G1 F2400 X-43.5 Y-79.129 E10409.30868
G0 F6000 X-43 Y-79.129
G1 F2400 X-42.999 Y79.129 E10415.88829
G0 F6000 X-42.499 Y79.129
G1 F2400 X-42.5 Y-79.129 E10422.46789
G0 F6000 X-42 Y-79.129
G1 F2400 X-41.999 Y79.129 E10429.04749
G0 F6000 X-41.499 Y79.129
G1 F2400 X-41.5 Y-79.129 E10435.62709
G0 F6000 X-41 Y-79.129
G1 F2400 X-40.999 Y79.129 E10442.2067
G0 F6000 X-40.499 Y79.129
G1 F2400 X-40.5 Y-79.129 E10448.7863
G0 F6000 X-40 Y-79.129
G1 F2400 X-39.999 Y79.129 E10455.3659
G0 F6000 X-39.499 Y79.129
G1 F2400 X-39.5 Y-79.129 E10461.94551
G0 F6000 X-39 Y-79.129
G1 F2400 X-38.999 Y79.129 E10468.52511
G0 F6000 X-38.499 Y79.129
G1 F2400 X-38.5 Y-79.129 E10475.10471
G0 F6000 X-38 Y-79.129
G1 F2400 X-37.999 Y79.129 E10481.68432
G0 F6000 X-37.499 Y79.129
G1 F2400 X-37.5 Y-79.129 E10488.26392
G0 F6000 X-37 Y-79.129
G1 F2400 X-36.999 Y79.129 E10494.84352
G0 F6000 X-36.499 Y79.129
G1 F2400 X-36.5 Y-79.129 E10501.42313
G0 F6000 X-36 Y-79.129
G1 F2400 X-35.999 Y79.129 E10508.00273
G0 F6000 X-35.499 Y79.129
G1 F2400 X-35.5 Y-79.129 E10514.58233
G0 F6000 X-35 Y-79.129
G1 F2400 X-34.999 Y79.129 E10521.16193
G0 F6000 X-34.499 Y79.129
G1 F2400 X-34.5 Y-79.129 E10527.74154
G0 F6000 X-34 Y-79.129
G1 F2400 X-33.999 Y79.129 E10534.32114
G0 F6000 X-33.499 Y79.129
G1 F2400 X-33.5 Y-79.129 E10540.90074
G0 F6000 X-33 Y-79.129
G1 F2400 X-32.999 Y79.129 E10547.48035
G0 F6000 X-32.499 Y79.129
G1 F2400 X-32.5 Y-79.129 E10554.05995
G0 F6000 X-32 Y-79.129
G1 F2400 X-31.999 Y79.129 E10560.63955
G0 F6000 X-31.499 Y79.129
G1 F2400 X-31.5 Y-79.129 E10567.21916
G0 F6000 X-31 Y-79.129
G1 F2400 X-30.999 Y79.129 E10573.79876
G0 F6000 X-30.499 Y79.129
G1 F2400 X-30.5 Y-79.129 E10580.37836
G0 F6000 X-30 Y-79.129
G1 F2400 X-29.999 Y79.129 E10586.95796
G0 F6000 X-29.499 Y79.129
G1 F2400 X-29.5 Y-79.129 E10593.53757
G0 F6000 X-29 Y-79.129
G1 F2400 X-28.999 Y79.129 E10600.11717
G0 F6000 X-28.499 Y79.129
G1 F2400 X-28.5 Y-79.129 E10606.69677
G0 F6000 X-28 Y-79.129
G1 F2400 X-27.999 Y79.129 E10613.27638
G0 F6000 X-27.499 Y79.129
G1 F2400 X-27.5 Y-79.129 E10619.85598
G0 F6000 X-27 Y-79.129
G1 F2400 X-26.999 Y79.129 E10626.43558
G0 F6000 X-26.499 Y79.129
G1 F2400 X-26.5 Y-79.129 E10633.01519
G0 F6000 X-26 Y-79.129
G1 F2400 X-25.999 Y79.129 E10639.59479
G0 F6000 X-25.499 Y79.129
G1 F2400 X-25.5 Y-79.129 E10646.17439
G0 F6000 X-25 Y-79.129
G1 F2400 X-24.999 Y79.129 E10652.754
G0 F6000 X-24.499 Y79.129
G1 F2400 X-24.5 Y-79.129 E10659.3336
G0 F6000 X-24 Y-79.129
G1 F2400 X-23.999 Y79.129 E10665.9132
G0 F6000 X-23.499 Y79.129
G1 F2400 X-23.5 Y-79.129 E10672.4928
G0 F6000 X-23 Y-79.129
G1 F2400 X-22.999 Y79.129 E10679.07241
G0 F6000 X-22.499 Y79.129
G1 F2400 X-22.5 Y-79.129 E10685.65201
G0 F6000 X-22 Y-79.129
G1 F2400 X-21.999 Y79.129 E10692.23161
G0 F6000 X-21.499 Y79.129
G1 F2400 X-21.5 Y-79.129 E10698.81122
G0 F6000 X-21 Y-79.129
G1 F2400 X-20.999 Y79.129 E10705.39082
G0 F6000 X-20.499 Y79.129
G1 F2400 X-20.5 Y-79.129 E10711.97042
G0 F6000 X-20 Y-79.129
G1 F2400 X-19.999 Y79.129 E10718.55003
G0 F6000 X-19.499 Y79.129
G1 F2400 X-19.5 Y-79.129 E10725.12963
G0 F6000 X-19 Y-79.129
G1 F2400 X-18.999 Y79.129 E10731.70923
G0 F6000 X-18.499 Y79.129
G1 F2400 X-18.5 Y-79.129 E10738.28884
G0 F6000 X-18 Y-79.129
G1 F2400 X-17.999 Y79.129 E10744.86844
G0 F6000 X-17.499 Y79.129
G1 F2400 X-17.5 Y-79.129 E10751.44804
G0 F6000 X-17 Y-79.129
G1 F2400 X-16.999 Y79.129 E10758.02764
G0 F6000 X-16.499 Y79.129
G1 F2400 X-16.5 Y-79.129 E10764.60725
G0 F6000 X-16 Y-79.129
G1 F2400 X-15.999 Y79.129 E10771.18685
G0 F6000 X-15.499 Y79.129
G1 F2400 X-15.5 Y-79.129 E10777.76645
G0 F6000 X-15 Y-79.129
G1 F2400 X-14.999 Y79.129 E10784.34606
G0 F6000 X-14.499 Y79.129
G1 F2400 X-14.5 Y-79.129 E10790.92566
G0 F6000 X-14 Y-79.129
G1 F2400 X-13.999 Y79.129 E10797.50526
G0 F6000 X-13.499 Y79.129
G1 F2400 X-13.5 Y-79.129 E10804.08487
G0 F6000 X-13 Y-79.129
G1 F2400 X-12.999 Y79.129 E10810.66447
G0 F6000 X-12.499 Y79.129
G1 F2400 X-12.5 Y-79.129 E10817.24407
G0 F6000 X-12 Y-79.129
G1 F2400 X-11.999 Y79.129 E10823.82368
G0 F6000 X-11.499 Y79.129
G1 F2400 X-11.5 Y-79.129 E10830.40328
G0 F6000 X-11 Y-79.129
G1 F2400 X-10.999 Y79.129 E10836.98288
G0 F6000 X-10.499 Y79.129
G1 F2400 X-10.5 Y-79.129 E10843.56248
G0 F6000 X-10 Y-79.129
G1 F2400 X-9.999 Y79.129 E10850.14209
G0 F6000 X-9.499 Y79.129
G1 F2400 X-9.5 Y-79.129 E10856.72169
G0 F6000 X-9 Y-79.129
G1 F2400 X-8.999 Y79.129 E10863.30129
G0 F6000 X-8.499 Y79.129
G1 F2400 X-8.5 Y-79.129 E10869.8809
G0 F6000 X-8 Y-79.129
G1 F2400 X-7.999 Y79.129 E10876.4605
G0 F6000 X-7.499 Y79.129
G1 F2400 X-7.5 Y-79.129 E10883.0401
G0 F6000 X-7 Y-79.129
G1 F2400 X-6.999 Y79.129 E10889.61971
G0 F6000 X-6.499 Y79.129
G1 F2400 X-6.5 Y-79.129 E10896.19931
G0 F6000 X-6 Y-79.129
G1 F2400 X-5.999 Y79.129 E10902.77891
G0 F6000 X-5.499 Y79.129
G1 F2400 X-5.5 Y-79.129 E10909.35852
G0 F6000 X-5 Y-79.129
G1 F2400 X-4.999 Y79.129 E10915.93812
G0 F6000 X-4.499 Y79.129
G1 F2400 X-4.5 Y-79.129 E10922.51772
G0 F6000 X-4 Y-79.129
G1 F2400 X-3.999 Y79.129 E10929.09732
G0 F6000 X-3.499 Y79.129
G1 F2400 X-3.5 Y-79.129 E10935.67693
G0 F6000 X-3 Y-79.129
G1 F2400 X-2.999 Y79.129 E10942.25653
G0 F6000 X-2.499 Y79.129
G1 F2400 X-2.5 Y-79.129 E10948.83613
G0 F6000 X-2 Y-79.129
G1 F2400 X-1.999 Y79.129 E10955.41574
G0 F6000 X-1.499 Y79.129
G1 F2400 X-1.5 Y-79.129 E10961.99534
G0 F6000 X-1 Y-79.129
G1 F2400 X-0.999 Y79.129 E10968.57494
G0 F6000 X-0.499 Y79.129
G1 F2400 X-0.5 Y-79.129 E10975.15455
G0 F6000 X0 Y-79.129
G1 F2400 X0 Y79.13 E10981.73419
G0 F6000 X0.5 Y79.13
G1 F2400 X0.499 Y-79.128 E10988.31379
G0 F6000 X0.999 Y-79.128
G1 F2400 X1 Y79.13 E10994.8934
G0 F6000 X1.5 Y79.13
G1 F2400 X1.499 Y-79.128 E11001.473
G0 F6000 X1.999 Y-79.128
G1 F2400 X2 Y79.13 E11008.0526
G0 F6000 X2.5 Y79.13
G1 F2400 X2.499 Y-79.128 E11014.63221
G0 F6000 X2.999 Y-79.128
G1 F2400 X3 Y79.13 E11021.21181
G0 F6000 X3.5 Y79.13
G1 F2400 X3.499 Y-79.128 E11027.79141
G0 F6000 X3.999 Y-79.128
G1 F2400 X4 Y79.13 E11034.37101
G0 F6000 X4.5 Y79.13
G1 F2400 X4.499 Y-79.128 E11040.95062
G0 F6000 X4.999 Y-79.128
G1 F2400 X5 Y79.13 E11047.53022
G0 F6000 X5.5 Y79.13
G1 F2400 X5.499 Y-79.128 E11054.10982
G0 F6000 X5.999 Y-79.128
G1 F2400 X6 Y79.13 E11060.68943
G0 F6000 X6.5 Y79.13
G1 F2400 X6.499 Y-79.128 E11067.26903
G0 F6000 X6.999 Y-79.128
G1 F2400 X7 Y79.13 E11073.84863
G0 F6000 X7.5 Y79.13
G1 F2400 X7.499 Y-79.128 E11080.42824
G0 F6000 X7.999 Y-79.128
G1 F2400 X8 Y79.13 E11087.00784
G0 F6000 X8.5 Y79.13
G1 F2400 X8.499 Y-79.128 E11093.58744
G0 F6000 X8.999 Y-79.128
G1 F2400 X9 Y79.13 E11100.16705
G0 F6000 X9.5 Y79.13
G1 F2400 X9.499 Y-79.128 E11106.74665
G0 F6000 X9.999 Y-79.128
G1 F2400 X10 Y79.13 E11113.32625
G0 F6000 X10.5 Y79.13
G1 F2400 X10.499 Y-79.128 E11119.90585
G0 F6000 X10.999 Y-79.128
G1 F2400 X11 Y79.13 E11126.48546
G0 F6000 X11.5 Y79.13
G1 F2400 X11.499 Y-79.128 E11133.06506
G0 F6000 X11.999 Y-79.128
G1 F2400 X12 Y79.13 E11139.64466
G0 F6000 X12.5 Y79.13
G1 F2400 X12.499 Y-79.128 E11146.22427
G0 F6000 X12.999 Y-79.128
G1 F2400 X13 Y79.13 E11152.80387
G0 F6000 X13.5 Y79.13
G1 F2400 X13.499 Y-79.128 E11159.38347
G0 F6000 X13.999 Y-79.128
G1 F2400 X14 Y79.13 E11165.96308
G0 F6000 X14.5 Y79.13
G1 F2400 X14.499 Y-79.128 E11172.54268
G0 F6000 X14.999 Y-79.128
G1 F2400 X15 Y79.13 E11179.12228
G0 F6000 X15.5 Y79.13
G1 F2400 X15.499 Y-79.128 E11185.70189
G0 F6000 X15.999 Y-79.128
G1 F2400 X16 Y79.13 E11192.28149
G0 F6000 X16.5 Y79.13
G1 F2400 X16.499 Y-79.128 E11198.86109
G0 F6000 X16.999 Y-79.128
G1 F2400 X17 Y79.13 E11205.44069
G0 F6000 X17.5 Y79.13
G1 F2400 X17.499 Y-79.128 E11212.0203
G0 F6000 X17.999 Y-79.128
G1 F2400 X18 Y79.13 E11218.5999
G0 F6000 X18.5 Y79.13
G1 F2400 X18.499 Y-79.128 E11225.1795
G0 F6000 X18.999 Y-79.128
G1 F2400 X19 Y79.13 E11231.75911
G0 F6000 X19.5 Y79.13
G1 F2400 X19.499 Y-79.128 E11238.33871
G0 F6000 X19.999 Y-79.128
G1 F2400 X20 Y79.13 E11244.91831
G0 F6000 X20.5 Y79.13
G1 F2400 X20.499 Y-79.128 E11251.49792
G0 F6000 X20.999 Y-79.128
G1 F2400 X21 Y79.13 E11258.07752
G0 F6000 X21.5 Y79.13
G1 F2400 X21.499 Y-79.128 E11264.65712
G0 F6000 X21.999 Y-79.128
G1 F2400 X22 Y79.13 E11271.23673
G0 F6000 X22.5 Y79.13
G1 F2400 X22.499 Y-79.128 E11277.81633
G0 F6000 X22.999 Y-79.128
G1 F2400 X23 Y79.13 E11284.39593
G0 F6000 X23.5 Y79.13
G1 F2400 X23.499 Y-79.128 E11290.97553
G0 F6000 X23.999 Y-79.128
G1 F2400 X24 Y79.13 E11297.55514
G0 F6000 X24.5 Y79.13
G1 F2400 X24.499 Y-79.128 E11304.13474
G0 F6000 X24.999 Y-79.128
G1 F2400 X25 Y79.13 E11310.71434
G0 F6000 X25.5 Y79.13
G1 F2400 X25.499 Y-79.128 E11317.29395
G0 F6000 X25.999 Y-79.128
G1 F2400 X26 Y79.13 E11323.87355
G0 F6000 X26.5 Y79.13
G1 F2400 X26.499 Y-79.128 E11330.45315
G0 F6000 X26.999 Y-79.128
G1 F2400 X27 Y79.13 E11337.03276
G0 F6000 X27.5 Y79.13
G1 F2400 X27.499 Y-79.128 E11343.61236
G0 F6000 X27.999 Y-79.128
G1 F2400 X28 Y79.13 E11350.19196
G0 F6000 X28.5 Y79.13
G1 F2400 X28.499 Y-79.128 E11356.77157
G0 F6000 X28.999 Y-79.128
G1 F2400 X29 Y79.13 E11363.35117
G0 F6000 X29.5 Y79.13
G1 F2400 X29.499 Y-79.128 E11369.93077
G0 F6000 X29.999 Y-79.128
G1 F2400 X30 Y79.13 E11376.51037
G0 F6000 X30.5 Y79.13
G1 F2400 X30.499 Y-79.128 E11383.08998
G0 F6000 X30.999 Y-79.128
G1 F2400 X31 Y79.13 E11389.66958
G0 F6000 X31.5 Y79.13
G1 F2400 X31.499 Y-79.128 E11396.24918
G0 F6000 X31.999 Y-79.128
G1 F2400 X32 Y79.13 E11402.82879
G0 F6000 X32.5 Y79.13
G1 F2400 X32.499 Y-79.128 E11409.40839
G0 F6000 X32.999 Y-79.128
G1 F2400 X33 Y79.13 E11415.98799
G0 F6000 X33.5 Y79.13
G1 F2400 X33.499 Y-79.128 E11422.5676
G0 F6000 X33.999 Y-79.128
G1 F2400 X34 Y79.13 E11429.1472
G0 F6000 X34.5 Y79.13
G1 F2400 X34.499 Y-79.128 E11435.7268
G0 F6000 X34.999 Y-79.128
G1 F2400 X35 Y79.13 E11442.3064
G0 F6000 X35.5 Y79.13
G1 F2400 X35.499 Y-79.128 E11448.88601
G0 F6000 X35.999 Y-79.128
G1 F2400 X36 Y79.13 E11455.46561
G0 F6000 X36.5 Y79.13
G1 F2400 X36.499 Y-79.128 E11462.04521
G0 F6000 X36.999 Y-79.128
G1 F2400 X37 Y79.13 E11468.62482
G0 F6000 X37.5 Y79.13
G1 F2400 X37.499 Y-79.128 E11475.20442
G0 F6000 X37.999 Y-79.128
G1 F2400 X38 Y79.13 E11481.78402
G0 F6000 X38.5 Y79.13
G1 F2400 X38.499 Y-79.128 E11488.36363
G0 F6000 X38.999 Y-79.128
G1 F2400 X39 Y79.13 E11494.94323
G0 F6000 X39.5 Y79.13
G1 F2400 X39.499 Y-79.128 E11501.52283
G0 F6000 X39.999 Y-79.128
G1 F2400 X40 Y79.13 E11508.10244
G0 F6000 X40.5 Y79.13
G1 F2400 X40.499 Y-79.128 E11514.68204
G0 F6000 X40.999 Y-79.128
G1 F2400 X41 Y79.13 E11521.26164
G0 F6000 X41.5 Y79.13
G1 F2400 X41.499 Y-79.128 E11527.84124
G0 F6000 X41.999 Y-79.128
G1 F2400 X42 Y79.13 E11534.42085
G0 F6000 X42.5 Y79.13
G1 F2400 X42.499 Y-79.128 E11541.00045
G0 F6000 X42.999 Y-79.128
G1 F2400 X43 Y79.13 E11547.58005
G0 F6000 X43.5 Y79.13
G1 F2400 X43.499 Y-79.128 E11554.15966
G0 F6000 X43.999 Y-79.128
G1 F2400 X44 Y79.13 E11560.73926
G0 F6000 X44.5 Y79.13
G1 F2400 X44.499 Y-79.128 E11567.31886
G0 F6000 X44.999 Y-79.128
G1 F2400 X45 Y79.13 E11573.89847
G0 F6000 X45.5 Y79.13
G1 F2400 X45.499 Y-79.128 E11580.47807
G0 F6000 X45.999 Y-79.128
G1 F2400 X46 Y79.13 E11587.05767
G0 F6000 X46.5 Y79.13
G1 F2400 X46.499 Y-79.128 E11593.63728
G0 F6000 X46.999 Y-79.128
G1 F2400 X47 Y79.13 E11600.21688
G0 F6000 X47.5 Y79.13
G1 F2400 X47.499 Y-79.128 E11606.79648
G0 F6000 X47.999 Y-79.128
G1 F2400 X48 Y79.13 E11613.37608
G0 F6000 X48.5 Y79.13
G1 F2400 X48.499 Y-79.128 E11619.95569
G0 F6000 X48.999 Y-79.128
G1 F2400 X49 Y79.13 E11626.53529
G0 F6000 X49.5 Y79.13
G1 F2400 X49.499 Y-79.128 E11633.11489
G0 F6000 X49.999 Y-79.128
G1 F2400 X50 Y79.13 E11639.6945
G0 F6000 X50.5 Y79.13
G1 F2400 X50.499 Y-79.128 E11646.2741
G0 F6000 X50.999 Y-79.128
G1 F2400 X51 Y79.13 E11652.8537
G0 F6000 X51.5 Y79.13
G1 F2400 X51.499 Y-79.128 E11659.43331
G0 F6000 X51.999 Y-79.128
G1 F2400 X52 Y79.13 E11666.01291
G0 F6000 X52.5 Y79.13
G1 F2400 X52.499 Y-79.128 E11672.59251
G0 F6000 X52.999 Y-79.128
G1 F2400 X53 Y79.13 E11679.17212
G0 F6000 X53.5 Y79.13
G1 F2400 X53.499 Y-79.128 E11685.75172
G0 F6000 X53.999 Y-79.128
G1 F2400 X54 Y79.13 E11692.33132
G0 F6000 X54.5 Y79.13
G1 F2400 X54.499 Y-79.128 E11698.91092
G0 F6000 X54.999 Y-79.128
G1 F2400 X55 Y79.13 E11705.49053
G0 F6000 X55.5 Y79.13
G1 F2400 X55.499 Y-79.128 E11712.07013
G0 F6000 X55.999 Y-79.128
G1 F2400 X56 Y79.13 E11718.64973
G0 F6000 X56.5 Y79.13
G1 F2400 X56.499 Y-79.128 E11725.22934
G0 F6000 X56.999 Y-79.128
G1 F2400 X57 Y79.13 E11731.80894
G0 F6000 X57.5 Y79.13
G1 F2400 X57.499 Y-79.128 E11738.38854
G0 F6000 X57.999 Y-79.128
G1 F2400 X58 Y79.13 E11744.96815
G0 F6000 X58.5 Y79.13
G1 F2400 X58.499 Y-79.128 E11751.54775
G0 F6000 X58.999 Y-79.128
G1 F2400 X59 Y79.13 E11758.12735
G0 F6000 X59.5 Y79.129
G1 F2400 X59.499 Y-79.128 E11764.70691
G0 F6000 X59.999 Y-79.128
G1 F2400 X60 Y79.129 E11771.28648
G0 F6000 X60.5 Y79.129
G1 F2400 X60.499 Y-79.128 E11777.86604
G0 F6000 X60.999 Y-79.128
G1 F2400 X61 Y79.129 E11784.4456
G0 F6000 X61.5 Y79.129
G1 F2400 X61.499 Y-79.128 E11791.02516
G0 F6000 X61.999 Y-79.128
G1 F2400 X62 Y79.129 E11797.60472
G0 F6000 X62.5 Y79.129
G1 F2400 X62.499 Y-79.128 E11804.18428
G0 F6000 X62.999 Y-79.128
G1 F2400 X63 Y79.129 E11810.76384
G0 F6000 X63.5 Y79.129
G1 F2400 X63.499 Y-79.128 E11817.34341
G0 F6000 X63.999 Y-79.128
G1 F2400 X64 Y79.129 E11823.92297
G0 F6000 X64.5 Y79.129
G1 F2400 X64.499 Y-79.128 E11830.50253
G0 F6000 X64.999 Y-79.128
G1 F2400 X65 Y79.129 E11837.08209
G0 F6000 X65.5 Y79.129
G1 F2400 X65.499 Y-79.128 E11843.66165
G0 F6000 X65.999 Y-79.128
G1 F2400 X66 Y79.129 E11850.24121
G0 F6000 X66.5 Y79.129
G1 F2400 X66.499 Y-79.128 E11856.82077
G0 F6000 X66.999 Y-79.128
G1 F2400 X67 Y79.129 E11863.40034
G0 F6000 X67.5 Y79.129
G1 F2400 X67.499 Y-79.128 E11869.9799
G0 F6000 X67.999 Y-79.128
G1 F2400 X68 Y79.129 E11876.55946
G0 F6000 X68.5 Y79.129
G1 F2400 X68.499 Y-79.128 E11883.13902
G0 F6000 X68.999 Y-79.128
G1 F2400 X69 Y79.129 E11889.71858
G0 F6000 X69.5 Y79.129
G1 F2400 X69.499 Y-79.128 E11896.29814
G0 F6000 X69.999 Y-79.128
G1 F2400 X70 Y79.129 E11902.8777
G0 F6000 X70.5 Y79.129
G1 F2400 X70.499 Y-79.128 E11909.45727
G0 F6000 X70.999 Y-79.128
G1 F2400 X71 Y79.129 E11916.03683
G0 F6000 X71.5 Y79.129
G1 F2400 X71.499 Y-79.128 E11922.61639
G0 F6000 X71.999 Y-79.128
G1 F2400 X72 Y79.129 E11929.19595
G0 F6000 X72.5 Y79.129
G1 F2400 X72.499 Y-79.128 E11935.77551
G0 F6000 X72.999 Y-79.128
G1 F2400 X73 Y79.129 E11942.35507
G0 F6000 X73.5 Y79.129
G1 F2400 X73.499 Y-79.128 E11948.93464
G0 F6000 X73.999 Y-79.128
G1 F2400 X74 Y79.129 E11955.5142
G0 F6000 X74.5 Y79.129
G1 F2400 X74.499 Y-79.128 E11962.09376
G0 F6000 X74.999 Y-79.128
G1 F2400 X75 Y79.129 E11968.67332
G0 F6000 X75.5 Y79.129
G1 F2400 X75.499 Y-79.128 E11975.25288
G0 F6000 X75.999 Y-79.128
G1 F2400 X76 Y79.129 E11981.83244
G0 F6000 X76.5 Y79.129
G1 F2400 X76.499 Y-79.128 E11988.412
G0 F6000 X76.999 Y-79.128
G1 F2400 X77 Y79.129 E11994.99157
G0 F6000 X77.5 Y79.129
G1 F2400 X77.499 Y-79.128 E12001.57113
G0 F6000 X77.999 Y-79.128
G1 F2400 X78 Y79.129 E12008.15069
G0 F6000 X78.5 Y79.129
G1 F2400 X78.499 Y-79.128 E12014.73025
G0 F6000 X78.999 Y-79.128
G1 F2400 X79 Y79.129 E12021.30981
G0 F6000 X79.5 Y79.129
G1 F2400 X79.499 Y-79.128 E12027.88937
G0 F6000 X79.999 Y-79.128
G1 F2400 X80 Y79.129 E12034.46893
G0 F6000 X80.5 Y79.129
G1 F2400 X80.499 Y-79.128 E12041.0485
G0 F6000 X80.999 Y-79.128
G1 F2400 X81 Y79.129 E12047.62806
G0 F6000 X81.5 Y79.129
G1 F2400 X81.499 Y-79.128 E12054.20762
G0 F6000 X81.999 Y-79.128
G1 F2400 X82 Y79.129 E12060.78718
G0 F6000 X82.5 Y79.129
G1 F2400 X82.499 Y-79.128 E12067.36674
G0 F6000 X82.999 Y-79.128
G1 F2400 X83 Y79.129 E12073.9463
G0 F6000 X83.5 Y79.129
G1 F2400 X83.499 Y-79.128 E12080.52587
G0 F6000 X83.999 Y-79.128
G1 F2400 X84 Y79.129 E12087.10543
G0 F6000 X84.5 Y79.129
G1 F2400 X84.499 Y-79.128 E12093.68499
G0 F6000 X84.999 Y-79.128
G1 F2400 X85 Y79.129 E12100.26455
G0 F6000 X85.5 Y79.129
G1 F2400 X85.499 Y-79.128 E12106.84411
G0 F6000 X85.999 Y-79.128
G1 F2400 X86 Y79.129 E12113.42367
G0 F6000 X86.5 Y79.129
G1 F2400 X86.499 Y-79.128 E12120.00323
G0 F6000 X86.999 Y-79.128
G1 F2400 X87 Y79.129 E12126.5828
G0 F6000 X87.5 Y79.129
G1 F2400 X87.499 Y-79.128 E12133.16236
G0 F6000 X87.999 Y-79.128
G1 F2400 X88 Y79.129 E12139.74192
G0 F6000 X88.5 Y79.129
G1 F2400 X88.499 Y-79.128 E12146.32148
G0 F6000 X88.999 Y-79.128
G1 F2400 X89 Y79.129 E12152.90104
G0 F6000 X89.5 Y79.129
G1 F2400 X89.499 Y-79.128 E12159.4806
G0 F6000 X89.999 Y-79.128
G1 F2400 X90 Y79.129 E12166.06016
G0 F6000 X90.5 Y79.129
G1 F2400 X90.499 Y-79.128 E12172.63973
G0 F6000 X90.999 Y-79.128
G1 F2400 X91 Y79.129 E12179.21929
G0 F6000 X91.5 Y79.129
G1 F2400 X91.499 Y-79.128 E12185.79885
G0 F6000 X91.999 Y-79.128
G1 F2400 X92 Y79.129 E12192.37841
G0 F6000 X92.5 Y79.129
G1 F2400 X92.499 Y-79.128 E12198.95797
G0 F6000 X92.999 Y-79.128
G1 F2400 X93 Y79.129 E12205.53753
G0 F6000 X93.5 Y79.129
G1 F2400 X93.499 Y-79.128 E12212.11709
G0 F6000 X93.999 Y-79.128
G1 F2400 X94 Y79.129 E12218.69666
G0 F6000 X94.5 Y79.129
G1 F2400 X94.499 Y-79.128 E12225.27622
G0 F6000 X94.999 Y-79.128
G1 F2400 X95 Y79.129 E12231.85578
G0 F6000 X95.5 Y79.129
G1 F2400 X95.499 Y-79.128 E12238.43534
G0 F6000 X95.999 Y-79.128
G1 F2400 X96 Y79.129 E12245.0149
G0 F6000 X96.5 Y79.129
G1 F2400 X96.499 Y-79.128 E12251.59446
G0 F6000 X96.999 Y-79.128
G1 F2400 X97 Y79.129 E12258.17403
G0 F6000 X97.5 Y79.129
G1 F2400 X97.499 Y-79.128 E12264.75359
G0 F6000 X97.999 Y-79.128
G1 F2400 X98 Y79.129 E12271.33315
G0 F6000 X98.5 Y79.129
G1 F2400 X98.499 Y-79.128 E12277.91271
G0 F6000 X98.999 Y-79.128
G1 F2400 X99 Y79.129 E12284.49227
G0 F6000 X99.5 Y79.129
G1 F2400 X99.499 Y-79.128 E12291.07183
G0 F6000 X99.999 Y-79.128
G1 F2400 X100 Y79.129 E12297.65139
G0 F6000 X100.5 Y79.129
G1 F2400 X100.499 Y-79.128 E12304.23096
G0 F6000 X100.999 Y-79.128
G1 F2400 X101 Y79.129 E12310.81052
G0 F6000 X101.5 Y79.129
G1 F2400 X101.499 Y-79.128 E12317.39008
; Layer Change GCode
; LAYER:4
G0 F6000 X-102.492 Y79.687 Z1.1
G0 X-102.808 Y79.933
G0 X-102.641 Y79.802
G0 X-102.641 Y79.802
G0 X-102.901 Y80.152
G0 X-102.901 Y80.152
G0 X-102.401 Y79.652
; TYPE:WALL-INNER
G1 F2400 X-102.401 Y79.652 E12317.39008
G1 X-102.401 Y-79.651 E12324.01313
G1 X102.402 Y-79.651 E12332.52785
G1 X102.402 Y79.652 E12339.1509
G1 X-102.401 Y79.652 E12347.66562
G0 F6000 X-102.901 Y80.152
; TYPE:WALL-OUTER
G1 F2100 X-102.901 Y80.152 E12347.66562
G1 X-102.901 Y-80.151 E12354.33024
G1 X102.902 Y-80.151 E12362.88653
G1 X102.902 Y80.152 E12369.55116
G1 X-102.901 Y80.152 E12378.10745
G0 F6000 X-101.961 Y79
; TYPE:FILL
G1 F2400 X101.962 Y79 E12386.58559
G0 F6000 X101.962 Y78.5
G1 F2400 X-101.961 Y78.5 E12395.06372
G0 F6000 X-101.961 Y78
G1 F2400 X101.962 Y78 E12403.54185
G0 F6000 X101.962 Y77.5
G1 F2400 X-101.961 Y77.5 E12412.01999
G0 F6000 X-101.961 Y77
G1 F2400 X101.962 Y77 E12420.49812
G0 F6000 X101.962 Y76.5
G1 F2400 X-101.961 Y76.5 E12428.97625
G0 F6000 X-101.961 Y76
G1 F2400 X101.962 Y76 E12437.45439
G0 F6000 X101.962 Y75.5
G1 F2400 X-101.961 Y75.5 E12445.93252
G0 F6000 X-101.961 Y75
G1 F2400 X101.962 Y75 E12454.41065
G0 F6000 X101.962 Y74.5
G1 F2400 X-101.961 Y74.5 E12462.88878
G0 F6000 X-101.961 Y74
G1 F2400 X101.962 Y74 E12471.36692
G0 F6000 X101.962 Y73.5
G1 F2400 X-101.961 Y73.5 E12479.84505
G0 F6000 X-101.961 Y73
G1 F2400 X101.962 Y73 E12488.32318
G0 F6000 X101.962 Y72.5
G1 F2400 X-101.961 Y72.5 E12496.80132
G0 F6000 X-101.961 Y72
G1 F2400 X101.962 Y72 E12505.27945
G0 F6000 X101.962 Y71.5
G1 F2400 X-101.961 Y71.5 E12513.75758
G0 F6000 X-101.961 Y71
G1 F2400 X101.962 Y71 E12522.23572
G0 F6000 X101.962 Y70.5
G1 F2400 X-101.961 Y70.5 E12530.71385
G0 F6000 X-101.961 Y70
G1 F2400 X101.962 Y70 E12539.19198
G0 F6000 X101.962 Y69.5
G1 F2400 X-101.961 Y69.5 E12547.67012
G0 F6000 X-101.961 Y69
G1 F2400 X101.962 Y69 E12556.14825
G0 F6000 X101.962 Y68.5
G1 F2400 X-101.961 Y68.5 E12564.62638
G0 F6000 X-101.961 Y68
G1 F2400 X101.962 Y68 E12573.10452
G0 F6000 X101.962 Y67.5
G1 F2400 X-101.961 Y67.5 E12581.58265
G0 F6000 X-101.961 Y67
G1 F2400 X101.962 Y67 E12590.06078
G0 F6000 X101.962 Y66.5
G1 F2400 X-101.961 Y66.5 E12598.53891
G0 F6000 X-101.961 Y66
G1 F2400 X101.962 Y66 E12607.01705
G0 F6000 X101.962 Y65.499
G1 F2400 X-101.961 Y65.5 E12615.49518
G0 F6000 X-101.961 Y65
G1 F2400 X101.962 Y64.999 E12623.97331
G0 F6000 X101.962 Y64.499
G1 F2400 X-101.961 Y64.5 E12632.45145
G0 F6000 X-101.961 Y64
G1 F2400 X101.962 Y63.999 E12640.92958
G0 F6000 X101.962 Y63.499
G1 F2400 X-101.961 Y63.5 E12649.40771
G0 F6000 X-101.961 Y63
G1 F2400 X101.962 Y62.999 E12657.88585
G0 F6000 X101.962 Y62.499
G1 F2400 X-101.961 Y62.5 E12666.36398
G0 F6000 X-101.961 Y62
G1 F2400 X101.962 Y61.999 E12674.84211
G0 F6000 X101.962 Y61.499
G1 F2400 X-101.961 Y61.5 E12683.32025
G0 F6000 X-101.961 Y61
G1 F2400 X101.962 Y60.999 E12691.79838
G0 F6000 X101.962 Y60.499
G1 F2400 X-101.961 Y60.5 E12700.27651
G0 F6000 X-101.961 Y60
G1 F2400 X101.962 Y59.999 E12708.75465
G0 F6000 X101.962 Y59.499
G1 F2400 X-101.961 Y59.5 E12717.23278
G0 F6000 X-101.961 Y59
G1 F2400 X101.962 Y58.999 E12725.71091
G0 F6000 X101.962 Y58.499
G1 F2400 X-101.961 Y58.5 E12734.18905
G0 F6000 X-101.961 Y58
